thanhndv212/identification/identification/src/thanh/curr_data.csv
Joint_1,Joint_2,Joint_3,Joint_4,Joint_5,Joint_6
-0.0029698,-0.76036,0.0019974,0.0042945,-0.0036467,0.016623
-0.0029698,-0.84434,0.0019862,0.0042945,-0.0036425,0.016623
-0.0029698,-0.79946,0.0019749,0.0042945,-0.0036386,0.016623
-0.0029698,-0.80021,0.0019637,0.0042945,-0.0036349,0.016623
-0.0029698,-0.80095,0.0019524,0.0042945,-0.0036316,0.016623
-0.0029698,-0.80162,0.0019412,0.0042945,-0.0036287,0.016623
-0.0029698,-0.76258,0.0019299,0.0042945,-0.003626,0.016624
-0.0029698,-0.84632,0.0019186,0.0042945,-0.0036236,0.016624
-0.0029698,-0.80108,0.0019073,0.0042945,-0.0036215,0.016625
-0.0029698,-0.76183,0.001896,0.0042945,-0.0036196,0.016625
-0.0029698,-0.84546,0.0018846,0.0042945,-0.003618,0.016626
-0.0029698,-0.80021,0.0018733,0.0042945,-0.0036166,0.016626
-0.0029698,-0.80062,0.0018619,0.0042945,-0.0036154,0.016627
-0.0029698,-0.76147,0.0018506,0.0042945,-0.0036144,0.016627
-0.0029698,-0.84522,0.0018392,0.0042945,-0.0036136,0.016628
-0.0029698,-0.80009,0.0018278,0.0042945,-0.003613,0.016629
-0.0029698,-0.80059,0.0018164,0.0042945,-0.0036125,0.01663
-0.0029698,-0.80109,0.001805,0.0042945,-0.0077701,0.016631
-0.0029698,-0.80157,0.0017936,0.0042945,0.00062453,0.01895
-0.0029698,-0.80198,0.0017822,0.0042945,-0.0077936,0.014416
-0.0029698,-0.8023,0.0017708,0.0042945,0.00060268,0.016635
-0.0029698,-0.80253,0.0017593,0.0042945,-0.0036558,0.016637
-0.0029698,-0.76309,0.0017479,0.0042945,-0.0036522,0.016638
-0.0029698,-0.8465,0.0017365,0.0042945,-0.0036487,0.01664
-0.0029698,-0.76139,0.001725,0.0042945,-0.0036453,0.016642
-0.0029698,-0.84484,0.0017135,0.0042945,-0.003642,0.016643
-0.0029698,-0.75993,0.0017021,0.0042945,-0.0036388,0.016645
-0.0029698,-0.84364,0.0016906,0.0042945,-0.0036358,0.016647
-0.0029698,-0.7986,0.0016792,0.0042945,-0.0036329,0.016649
-0.0029698,-0.79929,0.0016677,0.0042945,-0.0036302,0.016651
-0.0029698,-0.80005,0.0016562,0.0042945,-0.0036277,0.016653
-0.0029698,-0.80081,0.0016448,0.0042945,-0.0036254,0.016655
-0.0029698,-0.80148,0.0016333,0.0042945,-0.0036233,0.016657
-0.0029698,-0.80204,0.0016218,0.0042945,-0.0036213,0.016659
-0.0029698,-0.80244,0.0016103,0.0042945,-0.0077776,0.016661
-0.0029698,-0.80273,0.0015987,0.0042945,0.00061825,0.016663
-0.0029698,-0.80288,0.0015872,0.0042945,-0.0036407,0.016664
-0.0029698,-0.80295,0.0015756,0.0042945,-0.0036379,0.016666
-0.0029698,-0.80292,0.001564,0.0042945,-0.0036352,0.016667
-0.0029698,-0.80284,0.0015524,0.0042945,-0.0036327,0.016669
-0.0029698,-0.80271,0.0015408,0.0042945,-0.0036303,0.01667
-0.0029698,-0.76296,0.0015292,0.0042945,-0.0036282,0.016672
-0.0029698,-0.8461,0.0015175,0.0042945,-0.0036262,0.016674
-0.0029698,-0.80042,0.0015059,0.0042945,-0.0036245,0.016675
-0.0029698,-0.80045,0.0014942,0.0042945,-0.0036229,0.016677
-0.0029698,-0.8006,0.0014825,0.0042945,-0.0036214,0.016679
-0.0029698,-0.80085,0.0014708,0.0042945,-0.0036201,0.016681
-0.0029698,-0.80111,0.0014591,0.0042945,-0.003619,0.016683
-0.0029698,-0.8014,0.0014475,0.0042945,-0.003618,0.016685
-0.0029698,-0.80166,0.0014357,0.0042945,-0.0036172,0.016688
-0.0029698,-0.8019,0.001424,0.0042945,-0.0036164,0.01669
-0.0029698,-0.80209,0.0014123,0.0042945,-0.0036158,0.016692
-0.0029698,-0.80222,0.0014006,0.0042945,-0.0036153,0.016694
-0.0029698,-0.8023,0.0013889,0.0042945,-0.0077729,0.016695
-0.0029698,-0.80233,0.0013771,0.0042945,0.00062171,0.016697
-0.0029698,-0.76274,0.0013654,0.0042945,-0.0036384,0.016698
-0.0029698,-0.84605,0.0013536,0.0042945,-0.0036364,0.0167
-0.0029698,-0.76092,0.0013419,0.0042945,-0.0036345,0.016701
-0.0029698,-0.84437,0.0013301,0.0042945,-0.0036327,0.016702
-0.0029698,-0.79904,0.0013184,0.0042945,-0.0036309,0.016703
-0.0029698,-0.79946,0.011396,0.0042945,-0.0036293,0.016704
-0.0029698,-0.8,-0.0082454,0.0042945,-0.0036277,0.016705
-0.0029698,-0.80058,0.0012933,0.0042945,-0.0036262,0.016707
-0.0029698,-0.80112,0.0012814,0.0042945,-0.0036249,0.016708
-0.0029698,-0.76202,0.0012695,0.0042945,-0.0036237,0.016709
-0.0029698,-0.84576,0.0012575,0.0042945,-0.0036225,0.01671
-0.0029698,-0.80054,0.0012455,0.0042945,-0.0036215,0.016711
-0.0029698,-0.7613,0.011323,0.0042945,-0.0036205,0.016712
-0.0029698,-0.84498,-0.0083187,0.0042945,-0.0036197,0.016713
-0.0029698,-0.7998,0.0012197,0.0042945,-0.003619,0.016715
-0.0029698,-0.80026,0.0012075,0.0042945,-0.0036183,0.016717
-0.0029698,-0.76116,0.0011953,0.0042945,-0.0036177,0.016718
-0.0029698,-0.80538,0.001183,0.0042945,-0.0036172,0.01672
-0.0029698,-0.80402,0.0011707,0.0042945,-0.0036168,0.016721
-0.0029698,-0.84235,0.0011585,0.0042945,-0.0036164,0.016723
-0.0029698,-0.75794,0.0011462,0.0042945,-0.0036161,0.016724
-0.0029698,-0.8026,0.0011339,0.0042945,-0.0036159,0.016725
-0.0029698,-0.8414,0.0011216,0.0042945,-0.0036157,0.016726
-0.0029698,-0.797,0.0011093,0.0042945,-0.0036156,0.016728
-0.0029698,-0.79828,0.001097,0.0042945,-0.0036154,0.016729
-0.0029698,-0.75997,0.0010848,0.0042945,-0.0036154,0.01673
-0.0029698,-0.80486,0.0010725,0.0042945,-0.0036153,0.016731
-0.0029698,-0.84364,0.0010602,0.0042945,-0.0036153,0.016732
-0.0029698,-0.79905,0.001048,0.0042945,-0.0036153,0.016734
-0.0029698,-0.76044,0.0010357,0.0042945,-0.0036154,0.016735
-0.0029698,-0.80505,0.0010234,0.0042945,-0.0036154,0.016736
-0.0029698,-0.80401,0.0010112,0.0042945,-0.0036155,0.016738
-0.0029698,-0.84256,0.00099894,0.0042945,-0.0036155,0.016739
-0.0029698,-0.75829,0.0009867,0.0042945,-0.0036156,0.01674
-0.0029698,-0.80302,0.011064,0.0042945,-0.0036157,0.016741
-0.0029698,-0.80223,-0.008578,0.0042945,-0.0077738,0.016743
-0.0029698,-0.80151,0.0009602,0.0042945,0.00062048,0.016744
-0.0029698,-0.84052,0.0009478,0.0042945,-0.0036399,0.016745
-0.0029698,-0.75679,0.0009354,0.0042945,-0.0036382,0.016746
-0.0029698,-0.80205,0.00092302,0.0042945,-0.0036366,0.016748
-0.0029698,-0.80173,0.00091066,0.0042945,-0.003635,0.016749
-0.0029698,-0.80142,0.010987,0.0042945,-0.0036335,0.01675
-0.0029698,-0.80116,-0.0086543,0.0042945,-0.0036321,0.016751
-0.0029698,-0.80095,0.00088384,0.0042945,-0.0036308,0.016752
-0.0029698,-0.8008,0.00087134,0.0042945,-0.0036296,0.016752
-0.0029698,-0.84029,0.00085887,0.0042945,-0.0036284,0.016753
-0.0029698,-0.7569,0.00084638,0.0042945,-0.0036274,0.016753
-0.0029698,-0.80242,0.00083388,0.0042945,-0.0036264,0.016754
-0.0029698,-0.84185,0.00082141,0.0042945,-0.0036256,0.016754
-0.0029698,-0.75828,0.00080892,0.0042945,-0.0036248,0.016754
-0.0029698,-0.80352,0.00079644,0.0042945,-0.0036241,0.019072
-0.0029698,-0.80308,0.00078396,0.0042945,-0.0036234,0.014538
-0.0029698,-0.80255,0.00077151,0.0042945,-0.0036229,0.016755
-0.0029698,-0.80203,0.010848,0.0042945,-0.0036224,0.016755
-0.0029698,-0.84113,-0.0087936,0.0042945,-0.003622,0.016755
-0.0029698,-0.75741,0.00074438,0.0042945,-0.0036216,0.016755
-0.0029698,-0.8026,0.00073178,0.0042945,-0.0036213,0.016755
-0.0029698,-0.84177,0.00071919,0.0042945,-0.0036211,0.016754
-0.0029698,-0.7976,0.00070663,0.0042945,-0.0036209,0.016754
-0.0029698,-0.799,0.00069406,0.0042945,-0.0036207,0.016754
-0.0029698,-0.76067,0.00068153,0.0042945,-0.0036206,0.016753
-0.0029698,-0.80548,0.000669,0.0042945,-0.0036205,0.019071
-0.0029698,-0.84411,0.0006565,0.0042945,-0.0036205,0.014536
-0.0029698,-0.79933,0.00064403,0.0042945,-0.0036204,0.016753
-0.0029698,-0.76052,0.00063157,0.0042945,-0.0036204,0.016752
-0.0029698,-0.80494,0.00061914,0.0042945,-0.0036204,0.01907
-0.0029698,-0.80374,0.00060672,0.0042945,-0.0077784,0.014535
-0.0029698,-0.80259,0.010683,0.0042945,-0.0035421,0.016751
-0.0029698,-0.84117,0.0011308,0.0042945,-0.0035659,0.016751
-0.0029698,-0.7966,-0.0089605,0.0042945,0.00056999,0.01675
-0.0029698,-0.79776,0.010667,0.0042945,-0.0036866,0.016749
-0.0029698,-0.75938,0.0011136,0.0042945,-0.0078391,0.016748
-0.0029698,-0.80425,0.001111,0.0042945,0.00056069,0.016748
-0.0029698,-0.80345,-0.0089808,0.0042945,-0.0036943,0.016747
-0.0029698,-0.84222,0.010646,0.0042945,-0.0036874,0.016746
-0.0029698,-0.75814,-0.0089969,0.0042945,-0.0078387,0.016746
-0.0029698,-0.80299,0.010629,0.0042945,-0.0035959,0.016745
-0.0029698,-0.80227,-0.0090134,0.0042945,0.00054435,0.016745
-0.0029698,-0.8016,0.010613,0.0042945,-0.0037083,0.016744
-0.0029698,-0.801,-0.0090303,0.0042945,-0.0036992,0.016744
-0.0029698,-0.80051,0.0005066,0.0042945,-0.0036905,0.016743
-0.0029698,-0.80017,0.00049283,0.0042945,-0.0036822,0.016743
-0.0029698,-0.79994,0.010568,0.0042945,-0.0036743,0.016743
-0.0029698,-0.79984,-0.0090749,0.0042945,-0.0036669,0.016742
-0.0029698,-0.83941,0.010551,0.0042945,-0.00366,0.016742
-0.0029698,-0.75615,-0.0090924,0.0042945,-0.0036536,0.016742
-0.0029698,-0.80179,0.010533,0.0042945,-0.0036477,0.016742
-0.0029698,-0.80178,0.00097888,0.0042945,-0.0036424,0.016743
-0.0029698,-0.80166,0.00097498,0.0042945,-0.0036375,0.016742
-0.0029698,-0.8015,0.00097091,0.0042945,-0.003633,0.016742
-0.0029698,-0.8409,0.00096665,0.0042945,-0.0036291,0.016742
-0.0029698,-0.7574,-0.0091269,0.0042945,-0.0036256,0.016742
-0.0029698,-0.80273,0.010498,0.0042945,-0.0077804,0.016741
-0.0029698,-0.80239,0.00094259,0.0042945,0.00061662,0.016741
-0.0029698,-0.802,-0.0091513,0.0042945,-0.0036413,0.01674
-0.0029698,-0.84117,0.00038398,0.0042945,-0.0036375,0.01674
-0.0029698,-0.75745,0.010458,0.0042945,-0.0036341,0.016739
-0.0029698,-0.80262,0.00090211,0.0042945,-0.0036309,0.016739
-0.0029698,-0.80215,-0.0091921,0.0042945,-0.003628,0.016739
-0.0029698,-0.80166,0.010432,0.0042945,-0.0036255,0.016739
-0.0029698,-0.8012,0.00087593,0.0042945,-0.0036232,0.016739
-0.0029698,-0.8008,0.00087044,0.0042945,-0.0036212,0.016738
-0.0029698,-0.80047,-0.0092243,0.0042945,-0.0036194,0.016739
-0.0029698,-0.80025,0.00031011,0.0042945,-0.0036178,0.016739
-0.0029698,-0.80012,0.010383,0.0042945,-0.0036165,0.016739
-0.0029698,-0.80005,0.00082659,0.0042945,-0.0036154,0.01674
-0.0029698,-0.80005,0.00082064,0.0042945,-0.0036144,0.01674
-0.0029698,-0.80009,-0.0092746,0.0042945,-0.0036137,0.016741
-0.0029698,-0.80016,0.010349,0.0042945,-0.0036131,0.016742
-0.0029698,-0.80025,0.00079169,0.0042945,-0.0036126,0.016743
-0.0029698,-0.80033,0.00078532,0.0042945,-0.0036122,0.016744
-0.0029698,-0.80041,0.0007788,0.0042945,-0.00777,0.016745
-0.0029698,-0.80048,0.00077213,0.0042945,-0.0035336,0.019064
-0.0029698,-0.80053,-0.0093238,0.0042945,0.00060036,0.01453
-0.0029698,-0.80057,0.00020952,0.0042945,-0.0036583,0.016748
-0.0029698,-0.80061,0.00019225,0.0042945,-0.003655,0.016749
-0.0029698,-0.80063,0.00017502,0.0042945,-0.0036517,0.01675
-0.0029698,-0.84019,0.00015786,0.0042945,-0.0036486,0.016751
-0.0029698,-0.75684,0.01023,0.0042945,-0.0036457,0.016752
-0.0029698,-0.84191,-0.0094165,0.0042945,-0.0036428,0.016753
-0.0029698,-0.75837,0.010206,0.0042945,-0.0036402,0.016754
-0.0029698,-0.80359,-0.0094403,0.0042945,-0.0077958,0.016754
-0.0029698,-0.8031,0.010182,0.0042945,0.00060088,0.016755
-0.0029698,-0.80249,0.00062488,0.0042945,-0.0036573,0.016756
-0.0029698,-0.80186,0.00061806,0.0042945,-0.0036535,0.016757
-0.0029698,-0.80125,0.00061115,0.0042945,-0.0036499,0.016757
-0.0029698,-0.80072,0.00060413,0.0042945,-0.0078045,0.016758
-0.0029698,-0.80031,-0.0094921,0.0042945,0.00059307,0.016759
-0.0029698,-0.83958,4.0965E-05,0.0042945,-0.0036642,0.01676
-0.0029698,-0.75605,0.010113,0.0042945,-0.0036596,0.016761
-0.0029698,-0.84105,0.00055492,0.0042945,-0.0036552,0.016761
-0.0029698,-0.7575,-0.0095413,0.0042945,-0.003651,0.016762
-0.0029698,-0.84238,0.010081,0.0042945,-0.003647,0.016763
-0.0029698,-0.75865,0.00052317,0.0042945,-0.0036432,0.016764
-0.0029698,-0.80367,-0.0095731,0.0042945,-0.0036397,0.016765
-0.0029698,-0.80301,-4.0043E-05,0.0042945,-0.0036364,0.016766
-0.0029698,-0.80228,0.010032,0.0042945,-0.0036334,0.016767
-0.0029698,-0.80155,0.00047392,0.0042945,-0.0036306,0.016768
-0.0029698,-0.80092,0.00046685,0.0042945,-0.0036281,0.01677
-0.0029698,-0.80039,0.0004597,0.0042945,-0.0036258,0.016772
-0.0029698,-0.79998,0.00045248,0.0042945,-0.0036237,0.016774
-0.0029698,-0.79969,0.0004452,0.0042945,-0.0036219,0.016776
-0.0029698,-0.79954,0.00043785,0.0042945,-0.0036203,0.016777
-0.0029698,-0.79949,-0.0096587,0.0042945,-0.0036189,0.016779
-0.0029698,-0.79953,0.0099632,0.0042945,-0.0036176,0.01678
-0.0029698,-0.79962,0.00040522,0.0042945,-0.0036166,0.016781
-0.0029698,-0.79972,0.00039781,0.0042945,-0.0077737,0.016783
-0.0029698,-0.79985,0.00039031,0.0042945,-0.0035367,0.016784
-0.0029698,-0.8,-0.0097063,0.0042945,-0.0035601,0.016785
-0.0029698,-0.80012,-0.00017366,0.0042945,0.000576,0.016786
-0.0029698,-0.80021,0.0098976,0.0042945,-0.0036806,0.016786
-0.0029698,-0.80027,0.00033965,0.0042945,-0.0078332,0.016788
-0.0029698,-0.80032,0.00033228,0.0042945,0.00056635,0.016789
-0.0029698,-0.80034,0.00032486,0.0042945,-0.003689,0.019108
-0.0029698,-0.80034,0.00031738,0.0042945,-0.0036825,0.014574
-0.0029698,-0.80032,0.00030986,0.0042945,-0.0078342,0.016792
-0.0029698,-0.80029,0.0003023,0.0042945,-0.0035918,0.016793
-0.0029698,-0.80026,0.0002947,0.0042945,-0.00361,0.016794
-0.0029698,-0.80022,0.00028705,0.0042945,0.00053126,0.016795
-0.0029698,-0.80018,0.00027935,0.0042945,-0.0037204,0.016796
-0.0029698,-0.80014,0.00027162,0.0042945,-0.0037105,0.016797
-0.0029698,-0.80012,0.00026385,0.0042945,-0.003701,0.016798
-0.0029698,-0.80009,0.00025603,0.0042945,-0.0036921,0.016798
-0.0029698,-0.80006,0.00024818,0.0042945,-0.0036837,0.016799
-0.0029698,-0.80005,0.0002403,0.0042945,-0.0078339,0.0168
-0.0029698,-0.80004,0.00023237,0.0042945,0.00056778,0.016801
-0.0029698,-0.80003,0.00022441,0.0042945,-0.0036857,0.016802
-0.0029698,-0.80001,0.00021641,0.0042945,-0.0036777,0.016803
-0.0029698,-0.80001,0.00020838,0.0042945,-0.0036702,0.016804
-0.0029698,-0.80002,0.00020032,0.0042945,-0.0036632,0.016805
-0.0029698,-0.80005,0.00019223,0.0042945,-0.0036568,0.016805
-0.0029698,-0.80006,0.00018411,0.0042945,-0.0036509,0.016806
-0.0029698,-0.80009,0.00017595,0.0042945,-0.0036455,0.016807
-0.0029698,-0.80012,0.00016776,0.0042945,-0.0077986,0.016807
-0.0029698,-0.80013,0.00015955,0.0042945,0.00060005,0.016807
-0.0029698,-0.80013,0.00015131,0.0042945,-0.0036564,0.016808
-0.0029698,-0.8001,0.00014304,0.0042945,-0.0036512,0.016808
-0.0029698,-0.80009,0.00013474,0.0042945,-0.0036464,0.016808
-0.0029698,-0.80008,0.00012642,0.0042945,-0.003642,0.016808
-0.0029698,-0.80006,0.00011808,0.0042945,-0.0036381,0.016809
-0.0029698,-0.80006,-0.0099794,0.0042945,-0.0036345,0.016809
-0.0029698,-0.80006,0.0096416,0.0042945,-0.0036313,0.016809
-0.0029698,-0.80005,8.273E-05,0.0042945,-0.0077864,0.016809
-0.0029698,-0.80004,7.4489E-05,0.0042945,0.00061043,0.016809
-0.0029698,-0.80003,6.6236E-05,0.0042945,-0.0036476,0.016809
-0.0029698,-0.80003,5.7967E-05,0.0042945,-0.0036438,0.01681
-0.0029698,-0.80002,4.9682E-05,0.0042945,-0.0036404,0.019128
-0.0029698,-0.8,4.1383E-05,0.0042945,-0.0077952,0.014593
-0.0029698,-0.79997,3.3073E-05,0.0042945,-0.0035559,0.016811
-0.0029698,-0.79995,2.4754E-05,0.0042945,0.00058071,0.016811
-0.0029698,-0.79992,1.6424E-05,0.0042945,-0.0036756,0.016811
-0.0029698,-0.7999,8.0911E-06,0.0042945,-0.0036701,0.016812
-0.0029698,-0.79987,-2.4797E-07,0.0042945,-0.0036649,0.016812
-0.0029698,-0.79985,-8.5902E-06,0.0042945,-0.00366,0.016813
-0.0029698,-0.79983,-1.6938E-05,0.0042945,-0.0036554,0.016813
-0.0029698,-0.79982,-2.5292E-05,0.0042945,-0.0036512,0.016814
-0.0029698,-0.79979,-3.365E-05,0.0042945,-0.0036473,0.016815
-0.0029698,-0.79976,-4.2011E-05,0.0042945,-0.0036437,0.016815
-0.0029698,-0.79974,-5.0371E-05,0.0042945,-0.0077984,0.016816
-0.0029698,-0.79974,-5.8732E-05,0.0042945,0.00059884,0.016817
-0.0029698,-0.79974,-6.7093E-05,0.0042945,-0.0036588,0.016817
-0.0029698,-0.79975,-7.5454E-05,0.0042945,-0.0036546,0.016818
-0.0029698,-0.79977,-8.3816E-05,0.0042945,-0.0036507,0.016818
-0.0029698,-0.79978,-9.2176E-05,0.0042945,-0.003647,0.016818
-0.0029698,-0.7998,-0.00010053,0.0042945,-0.0078016,0.016819
-0.0029698,-0.79981,-0.00010888,0.0042945,0.00059593,0.016819
-0.0029698,-0.79981,-0.00011723,0.0042945,-0.0036615,0.016819
-0.0029698,-0.79981,-0.00012558,0.0042945,-0.0036571,0.016819
-0.0029698,-0.79981,-0.00013392,0.0042945,-0.0036531,0.016819
-0.0029698,-0.7998,-0.00014226,0.0042945,-0.0036493,0.016819
-0.0029698,-0.79981,-0.01024,0.0042945,-0.0036458,0.016819
-0.0029698,-0.79982,-0.00070774,0.0042945,-0.0036426,0.016819
-0.0029698,-0.79981,0.0093629,0.0042945,-0.0036397,0.01682
-0.0029698,-0.79979,-0.00019569,0.0042945,-0.003637,0.01682
-0.0029698,-0.80433,-0.00020359,0.004458,-0.0036347,0.016767
0.002659,-0.80934,0.00075352,0.0046232,-0.0037751,0.01671
0.0084218,-0.81435,0.0015246,0.0047908,-0.0039218,0.016648
0.014339,-0.81935,0.0022964,0.0049617,-0.0040756,0.016581
0.020404,-0.82874,0.0030691,0.0051363,-0.0042365,0.016509
0.026618,-0.82889,0.0038425,0.0053153,-0.0044043,0.016432
0.032981,-0.8385,0.0054575,0.0054988,-0.0087372,0.016349
0.039499,-0.83885,0.0054375,0.0056874,-0.00052472,0.016261
0.046178,-0.84863,0.0070549,0.0058812,-0.0049738,0.016167
0.053026,-0.8579,0.0070374,0.0060807,-0.0051679,0.016066
0.060052,-0.85803,0.0086572,0.0062859,-0.005369,0.01596
0.067262,-0.86773,0.0094827,0.0064973,-0.0055775,0.015846
0.074665,-0.87263,0.011151,0.006715,-0.0057933,0.015726
0.082268,-0.84698,0.011184,0.0069392,-0.0060165,0.0156
0.090076,-0.89072,0.0027672,0.0071703,-0.0062475,0.015466
0.098094,-0.89872,0.023275,0.0074084,-0.0064861,0.015324
0.10633,-0.89787,0.0045162,0.0076538,-0.0067327,0.015175
0.078365,-0.87609,0.02587,0.0079067,-0.0069874,0.015019
0.12548,-0.91902,0.0071615,0.0081674,-0.0072503,0.014854
0.13345,-0.88259,0.027725,0.008436,-0.0075217,0.014682
0.14169,-0.91602,0.0098644,0.0085516,-0.0078017,0.015063
0.092684,-0.90703,0.017578,0.0088765,-0.0072401,0.014337
0.16246,-0.95237,0.021858,0.0091982,-0.0084042,0.014139
0.17037,-0.91839,0.0238,0.0089659,-0.0087062,0.013932
0.17876,-0.92033,0.02411,0.0099823,-0.0090178,0.013717
0.15131,-0.93572,0.026903,0.010272,-0.0093393,0.013492
0.16292,-0.98491,0.02727,0.010026,-0.0096708,0.013258
0.17421,-0.94586,0.029279,0.010488,-0.010013,0.013014
0.18521,-0.9261,0.031339,0.010923,-0.010365,0.012761
0.19598,-0.96626,0.02168,0.011344,-0.010728,0.012497
0.20661,-0.97988,0.034133,0.011757,-0.011101,0.014542
0.2172,-0.99707,0.036293,0.012168,-0.011485,0.0097229
0.22786,-0.95182,0.036824,0.012581,-0.011881,0.011646
0.2387,-1.0095,0.039,0.013,-0.012287,0.011341
0.24979,-0.94205,0.042068,0.013426,-0.012705,0.011025
0.22479,-0.99734,0.043555,0.013861,-0.013134,0.010698
0.27502,-1.0017,0.034962,0.014306,-0.013575,0.010359
0.24987,-0.9796,0.047689,0.014761,-0.014028,0.012328
0.26364,-1.0218,0.048444,0.015228,-0.014493,0.0097497
0.277,-0.99764,0.051686,0.015708,-0.01497,0.0070592
0.29005,-0.95357,0.043258,0.015322,-0.015459,0.010015
0.26054,-0.9814,0.043341,0.016042,-0.01426,0.010861
0.31804,-1.0268,0.05693,0.016711,-0.016506,0.0059165
0.29338,-0.99623,0.058593,0.017347,-0.017023,0.0077117
0.34383,-1.0092,0.050179,0.017966,-0.017553,0.0072767
0.31892,-1.0163,0.063089,0.018577,-0.018097,0.0068289
0.36948,-0.98783,0.065709,0.019187,-0.018655,0.0063681
0.34501,-1.0334,0.067549,0.019246,-0.019227,0.0058945
0.35986,-1.0036,0.060153,0.020003,-0.019813,0.0054077
0.37473,-1.0176,0.074127,0.020729,-0.020413,0.0049076
0.38969,-1.026,0.074498,0.021438,-0.021027,0.004394
0.36838,-1.0427,0.068068,0.021586,-0.021656,0.0038671
0.42215,-1.0452,0.080532,0.022425,-0.0223,0.003326
0.4004,-1.0178,0.074259,0.023227,-0.022958,0.002771
0.41748,-1.034,0.086041,0.023456,-0.023631,0.0045198
0.3977,-1.0486,0.0782,0.024366,-0.024318,0.0017195
0.41604,-1.0575,0.091688,0.024681,-0.025021,-0.0011955
0.43328,-1.0704,0.086484,0.025662,-0.025739,0.0027271
0.41323,-1.0825,0.097702,0.026036,-0.026472,-0.0024349
0.43102,-1.0504,0.090937,0.027071,-0.027221,0.0014581
0.44757,-1.0938,0.092935,0.027725,-0.027985,-0.0026105
0.38444,-1.0792,0.10814,0.028193,-0.027064,-0.0021404
0.44632,-1.0584,0.10247,0.02931,-0.029592,-0.00050987
0.42489,-1.1106,0.10393,0.029807,-0.030394,-0.0034297
0.44126,-1.082,0.10872,0.030956,-0.031212,-0.0041477
0.45652,-1.1322,0.11114,0.031488,-0.032047,-0.0048815
0.43473,-1.1066,0.11525,0.032119,-0.028741,-0.0056308
0.45117,-1.0852,0.11778,0.032825,-0.033847,-0.0063963
0.43047,-1.137,0.11192,0.034144,-0.03471,-0.0071778
0.44785,-1.1082,0.12579,0.03482,-0.035592,-0.0079756
0.46431,-1.1627,0.10752,0.036131,-0.036493,-0.0087895
0.44378,-1.0972,0.11082,0.036814,-0.037414,-0.0096201
0.4615,-1.1194,0.11421,0.037588,-0.038354,-0.010467
0.442,-1.1608,0.10675,0.038433,-0.039313,-0.011331
0.49689,-1.1493,0.097105,0.039334,-0.040293,-0.012211
0.43946,-1.1137,0.099465,0.040281,-0.041292,-0.013109
0.49555,-1.1748,0.10273,0.041267,-0.04231,-0.014023
0.47548,-1.1497,0.093509,0.041733,-0.043348,-0.014954
0.4938,-1.1591,0.084557,0.042921,-0.044407,-0.015903
0.51149,-1.1766,0.096092,0.044096,-0.045484,-0.016869
0.49244,-1.149,0.086371,0.044393,-0.046582,-0.016729
0.46946,-1.2132,0.085933,0.045789,-0.041841,-0.018805
0.53291,-1.143,0.089103,0.047131,-0.048948,-0.019823
0.51377,-1.2007,0.07897,0.04789,-0.050072,-0.02086
0.56945,-1.1771,0.081711,0.048771,-0.051218,-0.021914
0.54966,-1.1966,0.091322,0.049746,-0.052387,-0.022987
0.53253,-1.2097,0.082109,0.051349,-0.053579,-0.021759
0.59022,-1.1869,0.084981,0.052319,-0.054794,-0.027403
0.60874,-1.2069,0.083799,0.05338,-0.056032,-0.026313
0.59126,-1.1809,0.086747,0.054511,-0.057292,-0.025141
0.57646,-1.2019,0.076398,0.055145,-0.058576,-0.028523
0.63638,-1.2598,0.086494,0.057073,-0.055724,-0.029705
0.62051,-1.1926,0.089584,0.058311,-0.061289,-0.030907
0.6433,-1.2178,0.078543,0.059044,-0.062617,-0.032127
0.62914,-1.2312,0.091272,0.060511,-0.063969,-0.033367
0.68953,-1.239,0.092093,0.061421,-0.061187,-0.034626
0.63765,-1.2289,0.083698,0.063029,-0.066825,-0.035905
0.69927,-1.2383,0.095853,0.064054,-0.068227,-0.037202
0.68463,-1.2207,0.085974,0.065205,-0.069655,-0.036202
0.7083,-1.2758,0.08731,0.065898,-0.066952,-0.039755
0.73121,-1.1917,0.087881,0.067036,-0.07267,-0.03767
0.67492,-1.2727,0.088313,0.068041,-0.072453,-0.042337
0.74408,-1.2514,0.091408,0.069738,-0.071539,-0.043733
0.76671,-1.2685,0.082904,0.070293,-0.077304,-0.045148
0.7526,-1.2445,0.083185,0.071662,-0.074679,-0.046584
0.77698,-1.2679,0.095269,0.072531,-0.080479,-0.04804
0.76443,-1.2756,0.087006,0.074137,-0.077891,-0.049517
0.75372,-1.3007,0.077447,0.07519,-0.083729,-0.048697
0.85345,-1.2754,0.088396,0.076389,-0.085338,-0.052432
0.80206,-1.2984,0.079792,0.0777,-0.082821,-0.053971
0.82839,-1.2756,0.080816,0.079098,-0.088732,-0.055531
0.81763,-1.331,0.081921,0.080013,-0.086256,-0.057112
0.84493,-1.2796,0.083108,0.081678,-0.08805,-0.056397
0.83481,-1.3319,0.084381,0.082798,-0.089855,-0.060238
0.86249,-1.3171,0.076493,0.084072,-0.091669,-0.061883
0.88897,-1.3313,0.087529,0.084908,-0.093496,-0.06355
0.84182,-1.3183,0.079018,0.085417,-0.095338,-0.06292
0.8712,-1.3426,0.080143,0.086232,-0.097194,-0.06453
0.89876,-1.3556,0.080515,0.086716,-0.099066,-0.068479
0.88858,-1.3372,0.082612,0.086394,-0.10096,-0.067915
0.91603,-1.3707,0.084845,0.085689,-0.10287,-0.068467
0.86346,-1.3388,0.08544,0.085879,-0.10309,-0.073557
0.93578,-1.3684,0.079528,0.08529,-0.10262,-0.073059
0.92475,-1.3463,0.079188,0.085214,-0.10466,-0.072483
0.95165,-1.3754,0.092302,0.084954,-0.11086,-0.076465
0.90486,-1.3967,0.083448,0.083989,-0.11282,-0.078252
0.93462,-1.3678,0.085878,0.083589,-0.11065,-0.077743
0.9627,-1.3562,0.088452,0.083041,-0.11691,-0.081793
0.95319,-1.381,0.08949,0.082922,-0.11478,-0.08133
0.94511,-1.3631,0.092268,0.08256,-0.11692,-0.085426
0.93805,-1.3912,0.084266,0.082007,-0.12323,-0.085011
0.96804,-1.4026,0.096842,0.081854,-0.12115,-0.089154
0.99624,-1.3515,0.089093,0.081991,-0.12335,-0.088786
0.98684,-1.3769,0.091836,0.081787,-0.12971,-0.092977
1.0153,-1.3943,0.093887,0.081879,-0.1277,-0.092657
0.97004,-1.3831,0.085956,0.081632,-0.12997,-0.09458
1.0013,-1.3955,0.099442,0.082238,-0.13225,-0.098844
1.0309,-1.3493,0.10274,0.081817,-0.13455,-0.098599
1.0228,-1.4052,0.093582,0.082292,-0.13686,-0.1006
1.0526,-1.3838,0.098193,0.082323,-0.1392,-0.10262
1.0451,-1.3799,0.098842,0.082258,-0.13741,-0.10354
0.99675,-1.3969,0.080503,0.082762,-0.14233,-0.10669
1.073,-1.3811,0.10536,0.083371,-0.14229,-0.10647
1.0658,-1.4025,0.095438,0.084062,-0.14477,-0.10849
1.0599,-1.382,0.089147,0.084268,-0.14726,-0.11286
1.0913,-1.4037,0.10268,0.08467,-0.14975,-0.11272
1.085,-1.3922,0.10518,0.085219,-0.1481,-0.11482
1.1163,-1.3736,0.097705,0.085327,-0.15485,-0.11695
1.11,-1.4363,0.10072,0.086217,-0.1532,-0.11679
1.0687,-1.4171,0.10388,0.086031,-0.15581,-0.12119
1.1399,-1.4013,0.09711,0.087261,-0.15426,-0.12108
1.0975,-1.4584,0.10928,0.087336,-0.1611,-0.12321
1.0948,-1.4043,0.1036,0.088217,-0.16369,-0.12306
1.1287,-1.4679,0.10598,0.088594,-0.16213,-0.12515
1.0874,-1.4546,0.10847,0.089154,-0.16897,-0.12263
1.0852,-1.4666,0.10265,0.089299,-0.17158,-0.12458
1.1188,-1.4613,0.11498,0.090245,-0.17004,-0.12191
1.0768,-1.5197,0.10946,0.090683,-0.17692,-0.12139
1.11,-1.4674,0.112,0.091302,-0.17541,-0.11616
1.0674,-1.4936,0.1054,0.091504,-0.17817,-0.11529
1.1,-1.5006,0.10849,0.092184,-0.18509,-0.1109
1.0874,-1.5076,0.10604,0.092204,-0.18608,-0.10622
1.0873,-1.5013,0.11496,0.093071,-0.18639,-0.10713
1.1175,-1.4962,0.11761,0.092911,-0.18923,-0.10112
1.1096,-1.5223,0.11111,0.094202,-0.18793,-0.099465
1.1393,-1.5142,0.10421,0.094362,-0.19504,-0.093097
1.1682,-1.5377,0.11793,0.094237,-0.19791,-0.095723
1.1604,-1.4923,0.12061,0.095004,-0.19665,-0.089203
1.1916,-1.5179,0.11498,0.095329,-0.19966,-0.091679
1.1865,-1.5087,0.11824,0.095326,-0.20267,-0.087329
1.2204,-1.5308,0.12165,0.096186,-0.20154,-0.085123
1.2178,-1.4838,0.11427,0.096028,-0.20881,-0.087482
1.2539,-1.5078,0.11905,0.096219,-0.19936,-0.085335
1.2532,-1.4971,0.11061,0.096667,-0.20264,-0.085438
1.218,-1.4869,0.12521,0.096754,-0.18924,-0.085572
1.2588,-1.5123,0.11873,0.09657,-0.18443,-0.085742
1.2246,-1.4945,0.11015,0.097288,-0.17549,-0.088267
1.229,-1.5226,0.11453,0.097016,-0.16662,-0.086293
1.1959,-1.5079,0.11744,0.09656,-0.15777,-0.086576
1.1999,-1.5264,0.12133,0.097066,-0.15305,-0.089218
1.2017,-1.5023,0.11362,0.096301,-0.14402,-0.088561
1.1589,-1.5758,0.11988,0.096338,-0.13735,-0.090146
1.1651,-1.519,0.11039,0.096089,-0.13391,-0.090701
1.1624,-1.5854,0.1138,0.096177,-0.12436,-0.091302
1.1942,-1.5711,0.11654,0.09596,-0.12298,-0.09195
1.1862,-1.5612,0.10932,0.096066,-0.12127,-0.092646
1.2149,-1.5546,0.11261,0.095858,-0.11925,-0.091075
1.242,-1.6205,0.10345,0.095967,-0.11279,-0.094086
1.2326,-1.5745,0.119,0.095757,-0.11031,-0.094932
1.2623,-1.6104,0.11102,0.095307,-0.11171,-0.093513
1.2563,-1.5987,0.11434,0.095226,-0.10864,-0.092045
1.2173,-1.598,0.10606,0.094863,-0.10952,-0.09285
1.2922,-1.5931,0.10908,0.094841,-0.10183,-0.093707
1.2187,-1.5839,0.10134,0.094516,-0.10239,-0.092302
1.261,-1.5835,0.1041,0.093962,-0.10687,-0.090852
1.2648,-1.6169,0.11795,0.094341,-0.10277,-0.091675
1.2325,-1.6011,0.099764,0.093753,-0.10277,-0.090236
1.2022,-1.5599,0.11252,0.093551,-0.10265,-0.09107
1.2455,-1.5882,0.1058,0.093633,-0.098267,-0.091964
1.2115,-1.5852,0.10796,0.093372,-0.10221,-0.088277
1.251,-1.5893,0.11191,0.093088,-0.106,-0.090281
1.2075,-1.6284,0.11297,0.092874,-0.099671,-0.087681
1.2505,-1.6191,0.11795,0.093497,-0.10103,-0.09082
1.2834,-1.6342,0.11142,0.093642,-0.10482,-0.089484
1.2778,-1.6669,0.12471,0.09399,-0.10024,-0.090423
1.3097,-1.6414,0.11769,0.094495,-0.10411,-0.089104
1.341,-1.6747,0.1212,0.094569,-0.10379,-0.087747
1.3362,-1.6631,0.12572,0.095436,-0.10355,-0.09098
1.3346,-1.7043,0.11787,0.095792,-0.10339,-0.092061
1.2993,-1.6511,0.13225,0.096331,-0.10332,-0.090883
1.3048,-1.6593,0.1163,0.097567,-0.099176,-0.089667
1.3112,-1.6936,0.12887,0.097671,-0.10352,-0.09073
1.2449,-1.6187,0.12446,0.098048,-0.099544,-0.094174
1.2555,-1.6661,0.12651,0.098631,-0.099895,-0.093144
1.2637,-1.6662,0.1194,0.099373,-0.10032,-0.094395
1.3059,-1.6952,0.12448,0.099687,-0.096647,-0.095708
1.3439,-1.6927,0.11639,0.099686,-0.093129,-0.094766
1.3424,-1.6807,0.12044,0.10001,-0.098051,-0.098425
1.414,-1.7045,0.11378,0.10001,-0.090445,-0.097611
1.4093,-1.7733,0.12693,0.10033,-0.095514,-0.099079
1.4437,-1.6629,0.11052,0.099856,-0.088039,-0.097115
1.3942,-1.7734,0.10691,0.099542,-0.091383,-0.10194
1.3987,-1.7971,0.1047,0.099577,-0.089737,-0.10122
1.3622,-1.7377,0.10495,0.099316,-0.090593,-0.10046
1.2925,-1.7638,0.10779,0.099387,-0.091438,-0.10428
1.2997,-1.7192,0.11253,0.099149,-0.08811,-0.10132
1.3046,-1.7524,0.10243,0.09868,-0.093174,-0.10517
1.3068,-1.7477,0.094348,0.098587,-0.093978,-0.10453
1.3432,-1.7093,0.1069,0.098771,-0.094785,-0.10386
1.3752,-1.7104,0.099188,0.098609,-0.095603,-0.10777
1.4044,-1.7052,0.11212,0.099299,-0.096434,-0.10489
1.4684,-1.7028,0.10311,0.099518,-0.10144,-0.1065
1.4208,-1.6978,0.1071,0.099948,-0.098061,-0.10816
1.4153,-1.7299,0.10883,0.10054,-0.10729,-0.10524
1.4123,-1.6765,0.1233,0.10126,-0.099738,-0.10913
1.4116,-1.7416,0.1159,0.10208,-0.10489,-0.10622
1.3396,-1.683,0.11902,0.10299,-0.10999,-0.11011
1.3457,-1.7406,0.12318,0.10342,-0.10674,-0.10952
1.3506,-1.6899,0.12589,0.10405,-0.10779,-0.10888
1.3539,-1.7121,0.13128,0.10484,-0.10889,-0.11051
1.3555,-1.667,0.12434,0.10504,-0.11003,-0.10931
1.3707,-1.6891,0.13527,0.10568,-0.10619,-0.11147
1.4258,-1.6385,0.13185,0.10593,-0.11253,-0.11083
1.4194,-1.6334,0.12487,0.1059,-0.10544,-0.11246
1.4137,-1.5926,0.13935,0.1062,-0.11103,-0.11413
1.4456,-1.5897,0.12352,0.10565,-0.10822,-0.11354
1.3673,-1.5752,0.12529,0.10556,-0.10551,-0.11289
1.3315,-1.6513,0.1322,0.10526,-0.11119,-0.11451
1.2976,-1.6279,0.11174,0.10534,-0.10844,-0.11617
1.3011,-1.6855,0.11705,0.1046,-0.10578,-0.11556
1.3752,-1.6575,0.10923,0.10435,-0.10734,-0.11721
1.3702,-1.7182,0.11192,0.10445,-0.10886,-0.11891
1.4381,-1.6558,0.11563,0.10426,-0.11035,-0.11833
1.4293,-1.6837,0.097696,0.10441,-0.10765,-0.1177
1.4228,-1.6629,0.098982,0.1048,-0.10917,-0.11933
1.3821,-1.6255,0.10123,0.10539,-0.11066,-0.11868
1.3819,-1.5853,0.0843,0.10611,-0.1121,-0.11797
1.3097,-1.6241,0.095077,0.10751,-0.10937,-0.11489
1.3512,-1.6258,0.098103,0.10832,-0.11085,-0.1186
1.3889,-1.6564,0.089572,0.10869,-0.1123,-0.11318
1.4236,-1.7088,0.10416,0.10986,-0.10956,-0.11445
1.4926,-1.7362,0.092163,0.10995,-0.11519,-0.11345
1.4855,-1.7968,0.11033,0.10982,-0.11239,-0.11238
1.5176,-1.7697,0.10094,0.11061,-0.11381,-0.10892
1.5502,-1.8294,0.11544,0.11098,-0.11105,-0.10994
1.5108,-1.7771,0.11898,0.1105,-0.11666,-0.111
1.4405,-1.7626,0.11263,0.11047,-0.10968,-0.10745
1.449,-1.7711,0.12695,0.11023,-0.11117,-0.1107
1.4203,-1.7369,0.13112,0.10982,-0.11262,-0.10944
1.4288,-1.7341,0.12541,0.10928,-0.10571,-0.11276
1.5075,-1.779,0.15046,0.10974,-0.11139,-0.11389
1.5067,-1.7422,0.13482,0.10984,-0.10446,-0.11739
1.5417,-1.8176,0.13927,0.11021,-0.10596,-0.11638
1.5017,-1.803,0.14477,0.1108,-0.10323,-0.11994
1.4643,-1.8287,0.14969,0.11156,-0.10052,-0.12133
1.4291,-1.8201,0.15397,0.11244,-0.10196,-0.12275
1.3587,-1.8083,0.15002,0.11287,-0.099162,-0.12421
1.3634,-1.7939,0.14494,0.11298,-0.10052,-0.12571
1.4012,-1.7506,0.14876,0.11339,-0.1018,-0.12493
1.4705,-1.703,0.14349,0.11403,-0.103,-0.12409
1.4977,-1.6647,0.14965,0.11374,-0.10414,-0.12551
1.4511,-1.7096,0.14367,0.1133,-0.10524,-0.12695
1.3723,-1.6659,0.13711,0.1133,-0.11045,-0.1238
1.372,-1.7335,0.13099,0.11251,-0.11139,-0.12512
1.262,-1.7107,0.1346,0.11223,-0.11651,-0.12416
1.3762,-1.7727,0.13922,0.11177,-0.1174,-0.12313
1.4083,-1.7745,0.12137,0.11173,-0.11418,-0.12668
1.4381,-1.6904,0.13614,0.11143,-0.11939,-0.12572
1.5031,-1.6712,0.11809,0.11149,-0.11624,-0.1247
1.4933,-1.6287,0.13182,0.11182,-0.11738,-0.12825
1.4509,-1.5864,0.13621,0.11235,-0.11855,-0.12961
1.4138,-1.5911,0.12989,0.11303,-0.11559,-0.12869
1.4174,-1.6228,0.14339,0.11273,-0.1169,-0.13003
1.3484,-1.6477,0.1576,0.11336,-0.11406,-0.13139
1.4292,-1.7028,0.15321,0.11413,-0.11133,-0.13048
1.4307,-1.7599,0.15693,0.1139,-0.11283,-0.13182
1.5407,-1.7642,0.1734,0.11404,-0.11014,-0.13319
1.5711,-1.7504,0.16801,0.11389,-0.11168,-0.13228
1.4922,-1.7257,0.174,0.11408,-0.11318,-0.13131
1.4568,-1.6822,0.1794,0.11286,-0.11049,-0.13027
1.3515,-1.6682,0.17408,0.11224,-0.11617,-0.13148
1.3978,-1.6844,0.17347,0.1115,-0.11342,-0.12809
1.4741,-1.7208,0.17437,0.11066,-0.11906,-0.12917
1.5077,-1.757,0.15674,0.11028,-0.12044,-0.13028
1.5389,-1.7847,0.17422,0.11081,-0.12182,-0.12911
1.4597,-1.7749,0.16822,0.11089,-0.12737,-0.13019
1.35,-1.7981,0.15005,0.11121,-0.12452,-0.12898
1.3192,-1.7978,0.16614,0.11226,-0.13013,-0.13002
1.3968,-1.7109,0.15954,0.1122,-0.12735,-0.1311
1.4669,-1.7136,0.16345,0.11299,-0.13302,-0.12989
1.5316,-1.714,0.15829,0.11274,-0.13031,-0.13094
1.5202,-1.7119,0.1713,0.11284,-0.12774,-0.13202
1.5119,-1.7423,0.16564,0.11209,-0.12942,-0.13081
1.4703,-1.8062,0.18063,0.11179,-0.12695,-0.13186
1.4336,-1.8221,0.17621,0.11129,-0.12872,-0.12831
1.4371,-1.8022,0.18998,0.11061,-0.12216,-0.1269
1.4406,-1.7869,0.18593,0.11036,-0.12822,-0.12543
1.5529,-1.7052,0.18999,0.11042,-0.12168,-0.12621
1.5857,-1.665,0.18494,0.11127,-0.12359,-0.12239
1.5821,-1.6986,0.19046,0.11215,-0.12544,-0.12071
1.5081,-1.7206,0.18444,0.11252,-0.12308,-0.12129
1.4768,-1.8003,0.17964,0.11307,-0.12489,-0.1219
1.3749,-1.8218,0.1729,0.11321,-0.12667,-0.12255
1.4961,-1.8732,0.17667,0.11359,-0.12423,-0.12787
1.57,-1.887,0.15959,0.11305,-0.13015,-0.12879
1.5294,-1.8339,0.15247,0.11238,-0.13177,-0.13207
1.4184,-1.7878,0.15504,0.11216,-0.12921,-0.13316
1.3862,-1.7592,0.1485,0.11059,-0.13502,-0.13662
1.3897,-1.7921,0.14918,0.11023,-0.12826,-0.14021
1.4628,-1.768,0.14235,0.10965,-0.13412,-0.13931
1.6017,-1.8378,0.15534,0.10889,-0.12739,-0.14066
1.6227,-1.7966,0.14721,0.10911,-0.12912,-0.14207
1.6093,-1.7942,0.1605,0.1095,-0.13081,-0.14119
1.4916,-1.8252,0.1636,0.11003,-0.12413,-0.14257
1.4938,-1.7055,0.16687,0.11066,-0.12175,-0.14399
1.4978,-1.7469,0.18209,0.11138,-0.11936,-0.14081
1.5021,-1.6604,0.17625,0.11217,-0.11698,-0.14443
1.5796,-1.6985,0.1894,0.11249,-0.11873,-0.14587
1.6524,-1.7576,0.19566,0.11189,-0.12038,-0.14504
1.5772,-1.8153,0.1896,0.11116,-0.11362,-0.14877
1.4354,-1.7996,0.19407,0.11088,-0.12358,-0.1457
1.3757,-1.7576,0.18174,0.10982,-0.1208,-0.1471
1.4611,-1.7057,0.19242,0.10983,-0.12635,-0.14854
1.5737,-1.6576,0.18599,0.10952,-0.13178,-0.14771
1.5674,-1.6552,0.16908,0.11009,-0.12879,-0.14449
1.4519,-1.727,0.18399,0.11076,-0.13004,-0.14343
1.343,-1.8206,0.16441,0.11207,-0.13545,-0.14231
1.3473,-1.8743,0.17063,0.11276,-0.1283,-0.1388
1.5297,-1.856,0.17215,0.11244,-0.13381,-0.13746
1.6252,-1.8019,0.16535,0.11249,-0.13093,-0.13373
1.6073,-1.724,0.1691,0.11225,-0.12398,-0.13214
1.5941,-1.7325,0.18231,0.11125,-0.12551,-0.13051
1.4771,-1.8101,0.18699,0.11076,-0.12284,-0.13112
1.48,-1.8163,0.17929,0.11121,-0.12438,-0.12945
1.5572,-1.8394,0.1846,0.1118,-0.12171,-0.13236
1.7036,-1.8421,0.1885,0.11307,-0.12324,-0.13307
1.6981,-1.8621,0.18166,0.11484,-0.12472,-0.13152
1.6247,-1.7834,0.17525,0.11647,-0.13031,-0.13222
1.4136,-1.7136,0.15755,0.118,-0.12747,-0.13064
1.3982,-1.7194,0.16075,0.11948,-0.13302,-0.13131
1.489,-1.6579,0.15154,0.1204,-0.13434,-0.1297
1.6781,-1.8267,0.14743,0.12145,-0.13981,-0.13036
1.5982,-1.8434,0.13507,0.12205,-0.13691,-0.12642
1.4501,-1.8531,0.13721,0.12288,-0.13829,-0.12695
1.3094,-1.7531,0.14964,0.12334,-0.13555,-0.12983
1.4282,-1.7063,0.15273,0.12407,-0.13706,-0.13286
1.643,-1.6562,0.15351,0.125,-0.13443,-0.13371
1.6963,-1.7689,0.15857,0.1261,-0.13605,-0.13693
1.6763,-1.8319,0.16983,0.12787,-0.12934,-0.13797
1.5528,-1.8805,0.17584,0.12906,-0.13525,-0.14137
1.514,-1.8527,0.17882,0.12982,-0.12859,-0.14028
1.5896,-1.7281,0.17186,0.13082,-0.13038,-0.13914
1.7713,-1.7361,0.18721,0.13145,-0.13625,-0.14025
1.7632,-1.735,0.16893,0.13126,-0.1337,-0.13678
1.6157,-1.773,0.16392,0.13099,-0.13538,-0.13546
1.4092,-1.8495,0.1662,0.1301,-0.14116,-0.13641
1.3241,-1.8685,0.15938,0.12929,-0.13855,-0.13507
1.5308,-1.8559,0.1522,0.12852,-0.14433,-0.136
1.6451,-1.8467,0.15474,0.12886,-0.14586,-0.13698
1.6032,-1.7302,0.1583,0.12948,-0.14741,-0.13567
1.4168,-1.6449,0.14947,0.13087,-0.14067,-0.13664
1.4224,-1.7105,0.15965,0.13116,-0.14661,-0.13763
1.5675,-1.824,0.16688,0.13176,-0.13993,-0.13405
1.7008,-1.951,0.1804,0.13147,-0.14175,-0.13262
1.7902,-1.8833,0.18459,0.13108,-0.13523,-0.13112
1.6962,-1.7874,0.19066,0.1306,-0.14131,-0.12726
1.6147,-1.7009,0.18275,0.13003,-0.13893,-0.12555
1.5795,-1.7431,0.21053,0.13051,-0.14075,-0.1261
1.695,-1.8886,0.19355,0.1312,-0.14254,-0.12205
1.7692,-1.9425,0.19911,0.13316,-0.14427,-0.12248
1.5875,-1.9148,0.19485,0.13443,-0.15013,-0.12295
1.3839,-1.7902,0.18778,0.13631,-0.15174,-0.1281
1.4455,-1.7146,0.19205,0.13699,-0.15335,-0.12654
1.6068,-1.74,0.18728,0.13735,-0.15914,-0.12956
1.6799,-1.7286,0.19147,0.13691,-0.1524,-0.1304
1.5275,-1.8908,0.18492,0.13641,-0.15832,-0.13129
1.4562,-1.8729,0.18892,0.13587,-0.15169,-0.1299
1.604,-1.8927,0.19395,0.13528,-0.14942,-0.13078
1.7759,-1.8013,0.19839,0.13463,-0.15136,-0.12706
1.7922,-1.7173,0.20387,0.13505,-0.15327,-0.12783
1.7029,-1.7034,0.20792,0.1357,-0.14683,-0.13093
1.6239,-1.8365,0.20721,0.13596,-0.15297,-0.1319
1.6999,-1.9687,0.19794,0.13595,-0.15073,-0.13522
1.7732,-1.933,0.19146,0.13572,-0.1568,-0.13636
1.7731,-1.8756,0.17534,0.13422,-0.15445,-0.13756
1.6309,-1.7548,0.16924,0.1323,-0.16048,-0.13648
1.3911,-1.756,0.16028,0.13061,-0.16225,-0.13534
1.5276,-1.9101,0.15254,0.12906,-0.15985,-0.13184
1.7221,-1.9361,0.16458,0.12869,-0.16171,-0.12817
1.646,-1.9574,0.15799,0.12865,-0.15522,-0.12435
1.4632,-1.8303,0.17124,0.12995,-0.15722,-0.12269
1.471,-1.7998,0.1844,0.13061,-0.15085,-0.12329
1.7273,-1.7719,0.18904,0.1308,-0.15291,-0.12161
1.9283,-1.85,0.19224,0.13065,-0.14659,-0.12219
1.8643,-1.9154,0.18633,0.13024,-0.14866,-0.12049
1.7024,-1.9407,0.20193,0.12909,-0.15065,-0.11874
1.7016,-1.893,0.18473,0.12902,-0.14837,-0.11924
1.8141,-1.764,0.18925,0.13032,-0.15442,-0.11515
1.9233,-1.7283,0.17214,0.13154,-0.15614,-0.11553
1.7029,-1.851,0.17425,0.13272,-0.16198,-0.10901
1.4644,-1.9564,0.16724,0.13333,-0.15938,-0.11149
1.4572,-1.952,0.16813,0.13408,-0.16517,-0.10716
1.7733,-1.8193,0.16161,0.13327,-0.16254,-0.11194
1.7352,-1.7443,0.16484,0.13186,-0.16417,-0.11465
1.5154,-1.783,0.16744,0.13109,-0.16579,-0.1175
1.488,-1.9294,0.18198,0.13022,-0.15909,-0.12049
1.8206,-1.9352,0.18472,0.13039,-0.15671,-0.12362
1.8728,-1.961,0.17919,0.13131,-0.15854,-0.1246
1.9246,-1.869,0.19269,0.13171,-0.16033,-0.12329
1.723,-1.7916,0.17498,0.13227,-0.16206,-0.12425
1.6855,-1.8736,0.19074,0.13241,-0.16793,-0.12294
1.8711,-1.9453,0.1729,0.13168,-0.16539,-0.12388
1.9028,-2.0006,0.16583,0.12975,-0.17124,-0.12487
1.646,-1.9201,0.16764,0.12801,-0.17702,-0.12823
1.4818,-1.7992,0.17126,0.12582,-0.17026,-0.12941
1.6168,-1.7843,0.16416,0.12606,-0.17203,-0.13295
1.8473,-1.8553,0.17688,0.12642,-0.16963,-0.12971
1.6232,-2.0103,0.19199,0.12856,-0.16734,-0.1286
1.4853,-2.0532,0.18522,0.12983,-0.16095,-0.12513
1.7155,-1.9178,0.18899,0.13047,-0.16716,-0.1215
1.9258,-1.7406,0.1938,0.13066,-0.16076,-0.11541
1.978,-1.8108,0.1819,0.1305,-0.16283,-0.11597
1.8484,-1.9254,0.16953,0.13065,-0.16476,-0.11428
1.6968,-2.0592,0.15226,0.13214,-0.17081,-0.11715
1.886,-2.025,0.14333,0.13353,-0.17258,-0.11323
1.8833,-1.8985,0.13563,0.13487,-0.17433,-0.11376
1.7028,-1.7773,0.13599,0.13563,-0.17608,-0.11202
1.5358,-1.868,0.14906,0.13541,-0.17365,-0.11022
1.7778,-1.9368,0.15031,0.13446,-0.17132,-0.10836
1.8908,-2.0406,0.16344,0.13296,-0.1732,-0.10644
1.6682,-1.936,0.1664,0.13158,-0.17089,-0.10677
1.6051,-1.7938,0.18132,0.13082,-0.16864,-0.10714
1.7963,-1.7995,0.17436,0.13052,-0.16642,-0.10986
2.0449,-1.9853,0.17794,0.13109,-0.17256,-0.11504
1.9877,-2.1512,0.17161,0.13233,-0.17021,-0.12049
1.7936,-2.0457,0.17587,0.13241,-0.17624,-0.12614
1.7617,-1.8446,0.15682,0.13164,-0.18214,-0.12743
1.8419,-1.7447,0.17287,0.13078,-0.18379,-0.12875
1.8082,-1.8648,0.17386,0.12873,-0.18961,-0.1278
1.5959,-2.0583,0.17827,0.12688,-0.19121,-0.12679
1.6861,-2.0025,0.18375,0.12739,-0.18456,-0.12809
1.9853,-1.9391,0.1841,0.12852,-0.18641,-0.12935
1.8993,-1.8581,0.21169,0.13013,-0.18413,-0.13068
1.5663,-1.83,0.1962,0.13159,-0.18196,-0.13438
1.6907,-1.9783,0.22183,0.13182,-0.17983,-0.13359
1.9854,-2.0674,0.19753,0.13117,-0.17774,-0.13273
1.9688,-1.9325,0.2004,0.13039,-0.17989,-0.12717
1.8122,-1.8164,0.19665,0.13008,-0.18193,-0.12369
1.8134,-1.8628,0.18929,0.13065,-0.18811,-0.11771
1.8895,-2.0417,0.1941,0.13133,-0.18584,-0.11378
1.8529,-2.0938,0.17728,0.13211,-0.18779,-0.11432
1.6017,-1.9195,0.2024,0.13186,-0.18558,-0.1149
1.6566,-1.7344,0.19525,0.12973,-0.18341,-0.11551
1.9593,-1.8288,0.20111,0.12784,-0.17713,-0.11615
1.912,-2.0213,0.21567,0.12556,-0.17096,-0.11451
1.5784,-2.0658,0.18893,0.12405,-0.17317,-0.11514
1.666,-2.0414,0.18252,0.12311,-0.17111,-0.11347
1.9975,-1.914,0.17491,0.12314,-0.17317,-0.11173
1.9435,-1.8438,0.15847,0.12332,-0.17511,-0.11457
1.8231,-1.9571,0.13778,0.12308,-0.18111,-0.11291
1.8225,-1.997,0.14038,0.12142,-0.1828,-0.12273
1.9689,-1.8971,0.14759,0.11923,-0.18018,-0.12379
1.854,-1.8266,0.15509,0.11774,-0.18195,-0.13182
1.5668,-1.8715,0.16642,0.11731,-0.18358,-0.13787
1.8075,-2.0874,0.16915,0.11822,-0.17269,-0.1372
2.0289,-2.0573,0.17374,0.12069,-0.17449,-0.13879
1.763,-1.8848,0.17608,0.12215,-0.17205,-0.13579
1.6614,-1.6954,0.16929,0.12177,-0.17377,-0.13494
1.8915,-1.8681,0.17223,0.12113,-0.17539,-0.13635
1.9952,-2.0369,0.16526,0.1203,-0.18112,-0.13548
1.8386,-2.0133,0.15791,0.12099,-0.17838,-0.13918
1.7671,-1.9162,0.15019,0.12225,-0.18819,-0.13607
1.9184,-1.8417,0.16142,0.12341,-0.18532,-0.13278
1.9867,-1.9081,0.1649,0.12395,-0.18673,-0.12935
1.6891,-2.0493,0.18038,0.12349,-0.1798,-0.11877
1.6659,-2.0218,0.18242,0.12173,-0.17722,-0.11469
2.0419,-1.826,0.17532,0.11954,-0.17468,-0.11506
1.8101,-1.8311,0.19051,0.11866,-0.17218,-0.11316
1.5939,-1.9917,0.18383,0.1182,-0.1697,-0.11582
1.8637,-2.1539,0.17844,0.11914,-0.17139,-0.1186
1.966,-1.9109,0.17106,0.12005,-0.17297,-0.11918
1.8459,-1.7252,0.17426,0.12037,-0.17448,-0.11983
1.77,-1.7872,0.18683,0.12027,-0.17182,-0.1205
1.9178,-1.9801,0.19169,0.11931,-0.16919,-0.12121
1.9483,-2.071,0.20855,0.11881,-0.15825,-0.12193
1.6876,-1.9272,0.2221,0.12086,-0.15162,-0.12271
1.6998,-1.8813,0.23968,0.12373,-0.14919,-0.12814
1.9998,-1.981,0.2161,0.12724,-0.14668,-0.13382
1.7335,-2.1526,0.20876,0.12961,-0.14823,-0.14204
1.6317,-2.1192,0.20516,0.13061,-0.15795,-0.14367
1.9331,-1.9087,0.18784,0.13006,-0.15904,-0.14069
1.9592,-1.8119,0.17122,0.13056,-0.16835,-0.14219
1.8027,-1.9767,0.17217,0.13184,-0.16085,-0.13677
1.7678,-2.0848,0.18665,0.13372,-0.17011,-0.13572
1.953,-1.9216,0.20193,0.13661,-0.16256,-0.13229
1.9087,-1.8222,0.20541,0.13696,-0.15935,-0.13565
1.6151,-1.9417,0.21073,0.13653,-0.16033,-0.1345
1.8497,-2.121,0.21376,0.13552,-0.16132,-0.13329
1.9571,-2.058,0.21018,0.1346,-0.15811,-0.1297
1.5856,-1.9211,0.21474,0.13429,-0.17159,-0.11899
1.6736,-1.9327,0.19848,0.13498,-0.17235,-0.11244
2.0048,-2.1044,0.2098,0.13641,-0.17313,-0.11488
1.8441,-2.1509,0.21757,0.13784,-0.17401,-0.11283
1.6926,-1.9503,0.21143,0.13818,-0.17081,-0.11996
1.807,-1.839,0.2175,0.13717,-0.16354,-0.12281
1.985,-1.9199,0.24319,0.13679,-0.16064,-0.12578
1.7159,-2.0711,0.22733,0.13687,-0.14951,-0.12426
1.6852,-1.9526,0.23404,0.13895,-0.15106,-0.12732
1.946,-1.791,0.22676,0.14143,-0.15252,-0.12586
1.6444,-1.9569,0.21226,0.14311,-0.1539,-0.12665
1.5442,-2.1246,0.19522,0.14257,-0.15103,-0.13214
1.884,-2.1273,0.19823,0.14147,-0.15239,-0.13321
1.8711,-1.9143,0.19131,0.13994,-0.14532,-0.13663
1.642,-1.9584,0.19325,0.13972,-0.13423,-0.14251
1.8282,-2.0546,0.20792,0.14102,-0.13156,-0.13938
2.0382,-2.1939,0.21161,0.1429,-0.12885,-0.13839
1.7281,-1.9041,0.21631,0.14302,-0.12603,-0.1327
1.6245,-1.7715,0.19854,0.14182,-0.13561,-0.12443
1.8536,-1.9063,0.17051,0.14075,-0.14071,-0.12507
1.5581,-2.0941,0.15103,0.13974,-0.14562,-0.12804
1.6442,-1.8526,0.15157,0.13985,-0.1421,-0.1312
2.0117,-1.7083,0.13186,0.14082,-0.14281,-0.1298
1.9187,-1.9782,0.15256,0.14188,-0.13927,-0.1214
1.6894,-2.143,0.1535,0.14244,-0.14,-0.11728
1.8047,-2.0952,0.17643,0.14154,-0.1365,-0.11298
2.0215,-1.9526,0.16873,0.13954,-0.14138,-0.11316
1.681,-1.9765,0.15897,0.13891,-0.14615,-0.11336
1.6924,-2.15,0.15209,0.13985,-0.14668,-0.12056
1.956,-2.0885,0.15246,0.14194,-0.15554,-0.12114
1.5109,-1.853,0.15294,0.14272,-0.14766,-0.12176
1.6759,-1.7633,0.14595,0.14085,-0.14418,-0.12241
1.9705,-2.0501,0.15631,0.13755,-0.1408,-0.12079
1.8808,-2,0.17068,0.13537,-0.12922,-0.1191
1.7259,-1.775,0.1817,0.13509,-0.12201,-0.12198
2.0556,-1.8231,0.18663,0.13677,-0.12324,-0.12501
2.038,-2.1299,0.20024,0.13771,-0.12431,-0.12818
1.5534,-2.1986,0.17425,0.13811,-0.12949,-0.13148
1.7951,-2.0122,0.17624,0.13701,-0.13035,-0.12799
1.8354,-1.9583,0.1582,0.13535,-0.13114,-0.12432
1.5093,-2.1021,0.16105,0.136,-0.12362,-0.11587
1.8556,-2.0828,0.18346,0.13675,-0.12034,-0.11173
2.0318,-1.9563,0.18131,0.13809,-0.11715,-0.11429
1.9033,-1.8479,0.20229,0.13881,-0.11802,-0.11936
1.9694,-2.0237,0.20592,0.13795,-0.12719,-0.1223
2.1069,-2.0793,0.20048,0.13647,-0.13194,-0.12083
1.7673,-1.8515,0.18546,0.13563,-0.13658,-0.11692
1.5997,-1.7853,0.17632,0.13691,-0.1412,-0.11289
1.9132,-2.1025,0.15996,0.13867,-0.13746,-0.11099
1.6937,-2.1793,0.16124,0.13858,-0.14216,-0.11597
1.7415,-2.0338,0.17441,0.13658,-0.13024,-0.12125
2.0732,-2.0191,0.18918,0.13313,-0.14355,-0.12672
2.0187,-2.0786,0.21403,0.13189,-0.14003,-0.13012
1.8611,-2.1339,0.20744,0.13227,-0.14496,-0.12906
2.0806,-1.9409,0.2038,0.13385,-0.15403,-0.13023
1.8145,-1.8662,0.20748,0.13469,-0.15054,-0.12914
1.5693,-2.0755,0.19031,0.13388,-0.15143,-0.13263
1.9553,-2.095,0.19571,0.13296,-0.14408,-0.13628
1.7671,-1.7878,0.18878,0.13249,-0.13284,-0.14005
1.6265,-1.9235,0.19323,0.1329,-0.12185,-0.14398
2.0369,-2.2124,0.20716,0.13398,-0.12355,-0.14339
2.0177,-2.2112,0.22184,0.13501,-0.12099,-0.13591
1.8193,-2.0738,0.21902,0.13381,-0.1268,-0.13487
2.0767,-1.9797,0.20234,0.1315,-0.13643,-0.12687
1.8801,-2.1054,0.19646,0.12999,-0.13346,-0.13243
1.4823,-2.0856,0.16837,0.13017,-0.13052,-0.1359
1.8731,-1.8597,0.16143,0.13161,-0.12349,-0.14417
1.724,-1.8794,0.16255,0.13122,-0.12488,-0.14582
1.5466,-2.1505,0.16462,0.12893,-0.12618,-0.14055
2.0671,-2.0518,0.17779,0.12576,-0.12741,-0.13503
2.0786,-1.8157,0.18162,0.12466,-0.14105,-0.13388
1.8749,-2.1273,0.1739,0.12564,-0.15023,-0.1373
2.09,-2.24,0.13466,0.12708,-0.14267,-0.14321
1.8217,-2.0968,0.13619,0.12666,-0.15196,-0.14701
1.4665,-1.9364,0.11604,0.12486,-0.14452,-0.14401
1.9322,-2.0785,0.12515,0.12369,-0.14143,-0.14548
1.6728,-2.1867,0.14834,0.12407,-0.13849,-0.14237
1.6827,-1.9427,0.16198,0.12562,-0.14809,-0.14139
2.1252,-1.8048,0.18482,0.12806,-0.14924,-0.14502
2.028,-2.0924,0.17784,0.12787,-0.1504,-0.14645
1.8328,-2.1082,0.18223,0.12629,-0.15578,-0.15023
2.0893,-1.8724,0.17425,0.12423,-0.14864,-0.15194
1.7505,-2.0267,0.16331,0.12342,-0.14167,-0.15352
1.6542,-2.1981,0.16098,0.12521,-0.135,-0.14361
1.9985,-2.0994,0.17284,0.12617,-0.12009,-0.14252
1.5901,-1.9589,0.18791,0.12544,-0.12205,-0.14367
1.8258,-2.1136,0.20297,0.12344,-0.12385,-0.15185
2.1147,-2.2023,0.20791,0.12381,-0.1338,-0.16033
1.9481,-1.9683,0.2139,0.12593,-0.13521,-0.16453
1.9415,-1.8183,0.18654,0.12885,-0.14069,-0.16423
2.011,-2.105,0.19124,0.1296,-0.1377,-0.15691
1.5683,-2.2001,0.18527,0.12822,-0.13064,-0.15621
1.8829,-1.9119,0.18903,0.12746,-0.12785,-0.15774
1.9177,-2.0719,0.21484,0.1277,-0.14168,-0.16161
1.6231,-2.2457,0.24036,0.12924,-0.14276,-0.16565
2.1464,-2.0669,0.24786,0.13121,-0.15627,-0.16519
2.1243,-1.8822,0.2237,0.13186,-0.15297,-0.16695
1.8175,-2.0786,0.21827,0.12988,-0.15812,-0.16183
1.9355,-2.1783,0.20238,0.12647,-0.15076,-0.16107
1.6808,-1.9417,0.19649,0.12584,-0.14782,-0.16022
1.6969,-1.8653,0.21125,0.12727,-0.145,-0.16629
2.1816,-2.1742,0.23688,0.12856,-0.14225,-0.16785
1.7247,-2.1456,0.25628,0.12757,-0.15217,-0.17197
1.8417,-1.9337,0.26074,0.12598,-0.1534,-0.17146
2.131,-2.13,0.25773,0.12724,-0.15475,-0.16396
1.8602,-2.2103,0.24347,0.12954,-0.15195,-0.16073
1.9342,-1.9333,0.25016,0.13263,-0.14514,-0.16428
2.0062,-1.9338,0.22432,0.13303,-0.13429,-0.17027
1.5643,-2.1297,0.24067,0.13198,-0.12786,-0.17884
2.0968,-2.1124,0.24439,0.13041,-0.12558,-0.17612
1.8283,-1.8396,0.24066,0.13064,-0.13162,-0.17325
1.6878,-2.0419,0.2467,0.13221,-0.13742,-0.16326
2.0615,-2.2512,0.24037,0.13368,-0.14303,-0.16209
1.9388,-1.9578,0.2151,0.13232,-0.14433,-0.16548
1.9701,-1.9302,0.18669,0.12884,-0.13316,-0.16896
2.0725,-2.1847,0.16763,0.12652,-0.13048,-0.17029
1.591,-2.1579,0.16857,0.12725,-0.13199,-0.16703
1.9401,-1.9579,0.19149,0.12913,-0.13752,-0.16589
1.9008,-2.1043,0.19385,0.12856,-0.14706,-0.16007
1.7534,-2.2069,0.18459,0.12618,-0.15225,-0.16324
2.1251,-1.9268,0.16726,0.12574,-0.14904,-0.16652
1.9256,-1.8649,0.13641,0.12732,-0.15013,-0.1722
1.7773,-2.3212,0.12134,0.13038,-0.13875,-0.17828
2.0045,-2.0625,0.14447,0.1307,-0.13186,-0.17522
1.6694,-1.8822,0.16649,0.12957,-0.13751,-0.16969
2.0475,-2.1782,0.18897,0.12845,-0.14299,-0.16391
1.9626,-2.2388,0.20348,0.12788,-0.14419,-0.1671
1.6659,-2.0186,0.2062,0.12992,-0.14542,-0.17046
2.0796,-2.0251,0.18971,0.13115,-0.14663,-0.17856
1.811,-2.2145,0.20258,0.1307,-0.13535,-0.17311
1.8504,-2.0438,0.19683,0.12843,-0.12849,-0.16042
2.2163,-1.9614,0.21009,0.12645,-0.11756,-0.15414
1.7214,-2.3088,0.22408,0.12743,-0.11928,-0.1522
1.99,-2.2414,0.2405,0.12895,-0.12912,-0.15946
1.7678,-1.8886,0.24515,0.12812,-0.13455,-0.16245
1.668,-2.1325,0.23147,0.12499,-0.13977,-0.16324
2.2275,-2.3091,0.2136,0.12398,-0.12832,-0.15942
1.9846,-2.0229,0.20815,0.12566,-0.12124,-0.15545
2.0165,-2.0674,0.18978,0.12768,-0.1184,-0.15595
2.0488,-2.2539,0.20402,0.12776,-0.12382,-0.1611
1.6088,-2.0884,0.2384,0.12587,-0.13329,-0.16651
2.0345,-2.0047,0.24523,0.12469,-0.14664,-0.1721
1.8057,-2.3468,0.22154,0.12514,-0.1429,-0.16646
1.9997,-2.2039,0.20123,0.12681,-0.13975,-0.16048
2.2127,-1.8271,0.17389,0.12774,-0.12818,-0.15657
1.7598,-2.1788,0.16357,0.12593,-0.12519,-0.15948
1.9911,-2.3559,0.19815,0.12316,-0.12644,-0.16943
2.0254,-2.0922,0.22125,0.12242,-0.13593,-0.16828
1.876,-2.171,0.22627,0.12483,-0.13688,-0.16011
2.2461,-2.1969,0.21977,0.12463,-0.14203,-0.14922
1.6843,-2.0368,0.20278,0.12194,-0.13465,-0.14718
2.0337,-2.0101,0.2067,0.1207,-0.12332,-0.1497
1.9921,-2.3832,0.18898,0.12163,-0.11636,-0.15701
1.8466,-2.1271,0.20141,0.12417,-0.10949,-0.16001
2.3635,-1.8741,0.21622,0.12463,-0.11521,-0.15851
2.0114,-2.2544,0.21924,0.12299,-0.12479,-0.15698
1.9426,-2.2294,0.22409,0.12144,-0.12587,-0.15305
1.7692,-2.0334,0.19723,0.12161,-0.12275,-0.16057
1.7502,-2.1818,0.16719,0.12361,-0.11547,-0.1661
2.3462,-2.2719,0.13806,0.12477,-0.10419,-0.17188
2.1011,-1.9581,0.13685,0.12312,-0.10968,-0.17098
2.0955,-2.1918,0.14832,0.11992,-0.11915,-0.16533
2.1672,-2.3215,0.16661,0.11995,-0.13254,-0.16416
1.6508,-1.885,0.17069,0.12127,-0.13727,-0.16751
2.1158,-1.9539,0.14143,0.12136,-0.13787,-0.17795
1.7467,-2.1794,0.12074,0.11887,-0.12602,-0.18193
2.1998,-1.9783,0.12174,0.11722,-0.12702,-0.17908
2.2212,-2.1196,0.14061,0.11894,-0.12382,-0.16914
1.8795,-2.3243,0.18504,0.12207,-0.13738,-0.16568
2.2906,-2.1375,0.20846,0.12352,-0.13819,-0.16902
1.9481,-1.8592,0.20291,0.12264,-0.15155,-0.17715
2.0301,-2.1762,0.19787,0.1228,-0.14397,-0.18101
1.9619,-2.0048,0.19002,0.12429,-0.13252,-0.18035
1.7511,-1.8544,0.19436,0.12788,-0.12971,-0.17966
2.206,-2.2058,0.20819,0.12921,-0.12703,-0.1766
2.1177,-2.1257,0.2253,0.1272,-0.13683,-0.18033
2.33,-1.9652,0.23995,0.12548,-0.14648,-0.18654
2.1672,-2.2243,0.24609,0.12616,-0.14768,-0.19298
1.6921,-2.1854,0.24239,0.12916,-0.14895,-0.18811
2.0496,-1.8047,0.21821,0.12951,-0.13367,-0.18297
1.7228,-2.0457,0.19011,0.12788,-0.12705,-0.17524
2.3239,-2.122,0.19323,0.1281,-0.13309,-0.18108
2.265,-1.8022,0.23357,0.13078,-0.14301,-0.1895
2.1776,-2.1509,0.25673,0.13367,-0.1571,-0.19361
2.137,-2.2386,0.25165,0.13343,-0.15422,-0.19322
1.629,-1.9452,0.23862,0.1325,-0.15568,-0.18353
2.17,-2.133,0.21215,0.13273,-0.1489,-0.18032
1.8351,-2.2547,0.20435,0.13491,-0.14231,-0.18624
2.2836,-1.861,0.23225,0.13747,-0.1484,-0.19471
2.3033,-1.9956,0.26671,0.13644,-0.1502,-0.19656
2.0686,-2.067,0.26346,0.13329,-0.16027,-0.19616
2.3276,-1.7236,0.24897,0.13131,-0.16193,-0.19339
1.6988,-2.1943,0.22433,0.13348,-0.15946,-0.18812
2.2039,-2.2647,0.19658,0.13541,-0.14879,-0.19652
1.8349,-2.0535,0.19838,0.13443,-0.14256,-0.19831
2.1434,-2.2498,0.20282,0.13348,-0.14477,-0.20476
2.3926,-2.2645,0.21507,0.13533,-0.1593,-0.19758
2.1901,-1.8678,0.20866,0.13871,-0.16945,-0.18769
2.4443,-2.0055,0.21281,0.13938,-0.17522,-0.18198
1.7372,-2.168,0.1743,0.13805,-0.16851,-0.18994
2.0268,-1.7433,0.1547,0.13744,-0.15374,-0.20052
1.8908,-2.2664,0.14502,0.13958,-0.14765,-0.20231
2.1565,-2.3743,0.14241,0.14152,-0.15418,-0.19253
2.4802,-2.0738,0.19703,0.14114,-0.1645,-0.19156
2.1634,-2.2227,0.19925,0.13737,-0.17471,-0.19051
2.2732,-2.2767,0.19403,0.1338,-0.1723,-0.20104
1.794,-1.9688,0.17592,0.13476,-0.16995,-0.20037
2.1483,-2.205,0.17702,0.13686,-0.16776,-0.19968
1.8912,-2.2008,0.22279,0.13708,-0.16976,-0.19194
2.1605,-1.8247,0.24756,0.13589,-0.17595,-0.19081
2.4433,-2.2591,0.27447,0.13753,-0.182,-0.18963
2.0926,-2.4249,0.27249,0.14017,-0.18802,-0.19762
2.2778,-2.1257,0.23664,0.14026,-0.18568,-0.20135
1.7978,-2.2751,0.22223,0.13791,-0.17932,-0.19362
2.2222,-2.2896,0.2238,0.13592,-0.16489,-0.1855
1.8518,-1.9414,0.24055,0.13751,-0.1632,-0.18402
2.3052,-2.2721,0.27752,0.13955,-0.17398,-0.19401
2.4727,-2.1428,0.26346,0.1386,-0.18452,-0.20216
2.0503,-1.9539,0.26952,0.13546,-0.19896,-0.19906
2.0964,-2.4206,0.23292,0.13395,-0.19244,-0.19114
1.7767,-2.3762,0.20683,0.1364,-0.17366,-0.18519
2.4191,-2.2025,0.20954,0.13856,-0.17196,-0.18827
1.8934,-2.3084,0.23911,0.13764,-0.17437,-0.19375
2.3053,-2.0706,0.25958,0.13726,-0.1809,-0.19022
2.2552,-1.9766,0.26429,0.14004,-0.19143,-0.18188
2.1396,-2.3285,0.22881,0.14298,-0.19341,-0.17321
2.1051,-2.0896,0.20223,0.14163,-0.19126,-0.17341
1.9269,-2.1244,0.21285,0.13933,-0.18086,-0.1783
2.3411,-2.529,0.24929,0.13902,-0.1832,-0.18109
1.8184,-2.1046,0.26418,0.14076,-0.18962,-0.17941
2.383,-2.1882,0.24955,0.14127,-0.20008,-0.17067
2.182,-2.3272,0.21091,0.13919,-0.202,-0.16625
2.3249,-1.9725,0.1722,0.13573,-0.1998,-0.18017
1.9512,-2.1391,0.16167,0.1373,-0.18942,-0.18546
2.1485,-2.2857,0.17294,0.13927,-0.17515,-0.17946
2.1143,-1.9699,0.18409,0.13936,-0.1694,-0.16852
2.1168,-2.3933,0.20686,0.13751,-0.18451,-0.1617
2.3735,-2.2369,0.19899,0.13863,-0.19917,-0.16633
2.033,-2.0414,0.16927,0.14139,-0.20527,-0.16877
2.3356,-2.3792,0.15016,0.14099,-0.19458,-0.16214
1.9252,-2.2025,0.14944,0.13823,-0.18007,-0.15062
2.3438,-1.9374,0.2022,0.13753,-0.18238,-0.14559
1.8965,-2.3653,0.2247,0.13897,-0.18487,-0.14961
2.3139,-2.1116,0.22031,0.14087,-0.19516,-0.15853
2.1205,-2.2284,0.1816,0.13981,-0.20119,-0.16326
2.2683,-2.4362,0.17273,0.13765,-0.19886,-0.15436
2.1514,-2.0382,0.19539,0.13964,-0.18413,-0.14966
2.0435,-2.1962,0.24039,0.14417,-0.18213,-0.15883
2.0507,-2.3421,0.26685,0.14454,-0.18435,-0.16835
2.0192,-1.9531,0.25265,0.1424,-0.19888,-0.16677
2.4232,-2.348,0.21573,0.14335,-0.20478,-0.15354
2.0004,-2.3233,0.17671,0.14549,-0.19811,-0.14669
2.3723,-2.1548,0.1999,0.14576,-0.19165,-0.15351
1.8108,-2.4164,0.20255,0.14409,-0.17702,-0.15605
2.3044,-2.1252,0.22725,0.14318,-0.17511,-0.15178
1.8174,-2.1394,0.2306,0.14448,-0.1856,-0.14273
2.3456,-2.3692,0.20427,0.14633,-0.19998,-0.1379
1.9998,-2.0128,0.18614,0.14528,-0.20571,-0.14691
2.1863,-2.2827,0.17798,0.14426,-0.18643,-0.15865
2.1064,-2.4154,0.21062,0.14715,-0.18004,-0.16166
2.1412,-1.9848,0.23629,0.15075,-0.17373,-0.16023
1.9565,-2.442,0.25116,0.15104,-0.18829,-0.15158
2.0702,-2.2268,0.20307,0.14888,-0.19829,-0.16376
2.1072,-2.1462,0.15464,0.14985,-0.19562,-0.16943
1.9946,-2.4441,0.17632,0.15315,-0.18472,-0.16839
2.3974,-2.0793,0.20981,0.15378,-0.17819,-0.15571
1.9368,-2.1732,0.23426,0.15244,-0.17594,-0.14941
2.0206,-2.3893,0.21843,0.15239,-0.18192,-0.15448
1.6951,-1.9951,0.17941,0.15384,-0.19608,-0.16212
2.4073,-2.3857,0.16096,0.15641,-0.2016,-0.15615
2.0131,-2.3269,0.14115,0.15597,-0.19456,-0.15
2.4511,-2.1156,0.17206,0.15605,-0.18361,-0.14589
1.7692,-2.3122,0.19513,0.16038,-0.18114,-0.15553
2.0108,-2.0711,0.18841,0.16294,-0.1912,-0.1726
1.6846,-2.2314,0.19061,0.16033,-0.20939,-0.17648
2.3954,-2.475,0.16185,0.15772,-0.21472,-0.17356
2.0759,-2.0281,0.16352,0.16061,-0.20345,-0.16592
2.3253,-2.3442,0.2179,0.16373,-0.18836,-0.17408
1.7989,-2.2519,0.24381,0.16373,-0.18611,-0.18032
2.0349,-2.0892,0.23914,0.16307,-0.20052,-0.1752
1.7436,-2.3627,0.2022,0.16523,-0.21044,-0.1583
2.2324,-2.1795,0.16445,0.16898,-0.2078,-0.15435
2.1093,-2.333,0.19658,0.17055,-0.20101,-0.1621
2.2787,-2.3501,0.24353,0.16946,-0.19047,-0.16776
1.9709,-1.8938,0.25941,0.17024,-0.18425,-0.16675
1.9044,-2.4045,0.25591,0.17462,-0.19471,-0.16103
1.8407,-2.3446,0.20923,0.17563,-0.20908,-0.15964
2.1062,-2.2423,0.1927,0.17191,-0.21487,-0.17217
2.2775,-2.3916,0.18409,0.17129,-0.20814,-0.18523
2.2955,-1.9978,0.21876,0.17294,-0.19747,-0.18258
2.0623,-2.3981,0.23391,0.17408,-0.19535,-0.17519
1.7392,-2.2953,0.22843,0.1726,-0.20993,-0.16973
1.9085,-2.0311,0.20199,0.17251,-0.22414,-0.17561
2.171,-2.495,0.17323,0.17397,-0.22159,-0.17943
2.451,-2.2338,0.19587,0.1766,-0.21084,-0.16255
2.2794,-2.2619,0.24168,0.17513,-0.19621,-0.14951
2.0895,-2.3699,0.24753,0.17393,-0.19441,-0.1521
1.7694,-2.0973,0.22169,0.17622,-0.21341,-0.16182
2.015,-2.5913,0.16198,0.1778,-0.21941,-0.16736
2.1301,-2.1792,0.15323,0.17498,-0.21714,-0.16154
2.5632,-2.0713,0.2063,0.17163,-0.20236,-0.1554
2.2788,-2.4243,0.22116,0.17223,-0.19631,-0.16519
2.2037,-2.1445,0.2254,0.17416,-0.19467,-0.17558
1.8072,-2.5573,0.1984,0.17209,-0.21338,-0.17474
2.0911,-2.4424,0.1598,0.1709,-0.22772,-0.16922
2.1688,-2.1325,0.17039,0.17311,-0.22932,-0.15413
2.53,-2.4418,0.20435,0.17562,-0.21436,-0.16391
2.3256,-1.9797,0.21878,0.17344,-0.21227,-0.16944
2.2846,-2.4238,0.234,0.1694,-0.21431,-0.15905
1.8851,-2.432,0.20671,0.1689,-0.23298,-0.14351
2.095,-2.3049,0.19007,0.16935,-0.23472,-0.1435
2.1743,-2.5905,0.21413,0.16719,-0.22808,-0.15517
2.6119,-2.1158,0.26055,0.1664,-0.20521,-0.15811
2.2935,-2.2149,0.27752,0.16936,-0.20347,-0.15415
2.1839,-2.2977,0.24276,0.17018,-0.21004,-0.14777
2.011,-2.209,0.18494,0.16829,-0.2248,-0.15733
2.0993,-2.664,0.18696,0.16661,-0.22666,-0.16271
2.4014,-2.2349,0.21057,0.16893,-0.21193,-0.16367
2.5298,-2.4288,0.25653,0.17091,-0.20165,-0.14845
2.2584,-2.4157,0.25242,0.16769,-0.19988,-0.1349
1.9742,-2.1,0.20469,0.1639,-0.21879,-0.14861
2.3208,-2.4915,0.17698,0.16349,-0.23307,-0.1535
2.1315,-2.0324,0.17867,0.16284,-0.23499,-0.14265
2.3983,-2.4262,0.20133,0.15922,-0.22376,-0.13119
2.4255,-2.4823,0.22528,0.16057,-0.209,-0.13789
2.379,-2.3755,0.19841,0.16451,-0.21527,-0.14952
1.9761,-2.6627,0.16878,0.16432,-0.22147,-0.15237
2.4725,-2.2136,0.16026,0.1622,-0.22752,-0.14843
1.9906,-2.2677,0.20348,0.1636,-0.20422,-0.15135
2.5175,-2.2036,0.23821,0.16651,-0.18562,-0.15894
2.3575,-2.1875,0.23279,0.16506,-0.18389,-0.16695
2.5002,-2.7035,0.1959,0.16089,-0.19867,-0.15902
1.9466,-2.4013,0.13552,0.16077,-0.21298,-0.14612
2.521,-2.4659,0.16646,0.16254,-0.20616,-0.1489
2.0703,-2.3365,0.20005,0.16073,-0.19518,-0.16568
2.5964,-2.1896,0.23472,0.16014,-0.18435,-0.16933
2.1806,-2.5019,0.20864,0.16433,-0.19874,-0.15686
2.5196,-2.0803,0.18024,0.16658,-0.2167,-0.15314
2.1079,-2.6165,0.18223,0.16463,-0.22181,-0.16546
2.3809,-2.4351,0.21676,0.16402,-0.21024,-0.17139
2.1961,-2.3762,0.24228,0.16602,-0.19486,-0.17286
2.4592,-2.5085,0.23721,0.16778,-0.18801,-0.16975
2.3336,-2.1682,0.22208,0.16551,-0.19772,-0.17121
2.4136,-2.5195,0.19432,0.16464,-0.19916,-0.18189
2.1917,-2.0622,0.22849,0.16703,-0.19202,-0.18612
2.13,-2.4529,0.26496,0.16631,-0.16426,-0.17421
2.4318,-2.6246,0.27101,0.16383,-0.15773,-0.16641
2.3493,-2.3481,0.21547,0.16668,-0.17602,-0.17676
2.419,-2.5087,0.1652,0.17018,-0.1855,-0.19452
2.0825,-1.9665,0.16767,0.17033,-0.18224,-0.19215
2.39,-2.3791,0.18928,0.16856,-0.17048,-0.18038
1.9106,-2.2513,0.21256,0.17032,-0.16327,-0.1842
2.5864,-2.3991,0.19595,0.1725,-0.18094,-0.19053
2.051,-2.5616,0.15615,0.17058,-0.1981,-0.19939
2.5001,-2.1575,0.13522,0.16838,-0.19001,-0.19705
2.0437,-2.4187,0.16706,0.17036,-0.17384,-0.19216
2.2372,-2.0318,0.18985,0.17048,-0.15391,-0.19633
2.1604,-2.3132,0.20302,0.1681,-0.16327,-0.20754
2.27,-2.2873,0.14337,0.16885,-0.1724,-0.2053
2.2643,-2.1664,0.13302,0.17189,-0.17714,-0.19366
2.4042,-2.462,0.1546,0.17171,-0.15674,-0.19071
2.2083,-2.1109,0.20818,0.1697,-0.14104,-0.20142
1.7649,-2.4979,0.20399,0.17015,-0.15037,-0.21266
2.5289,-2.0484,0.15397,0.17244,-0.17189,-0.19879
2.2145,-2.178,0.13276,0.17058,-0.17619,-0.18422
2.6138,-2.205,0.15505,0.16728,-0.16385,-0.18993
1.9349,-2.2356,0.20895,0.16842,-0.16019,-0.19809
2.1049,-2.4418,0.23517,0.16842,-0.17315,-0.19505
2.0783,-2.0014,0.20857,0.1648,-0.19003,-0.1872
2.4845,-2.3182,0.19222,0.16511,-0.19415,-0.18819
2.4271,-1.9179,0.19682,0.16778,-0.17763,-0.19618
2.2355,-2.2792,0.25213,0.16779,-0.14902,-0.1999
2.1657,-2.3241,0.27009,0.1664,-0.15437,-0.19677
1.8101,-2.1805,0.25655,0.16728,-0.16782,-0.1819
2.455,-2.324,0.22112,0.16874,-0.17692,-0.19179
2.3996,-1.9247,0.20467,0.16565,-0.16074,-0.20447
2.6388,-2.3551,0.24024,0.16139,-0.14924,-0.19221
1.8175,-2.0242,0.26682,0.1634,-0.15045,-0.17701
2.1032,-2.4059,0.23254,0.16287,-0.17642,-0.1797
2.1101,-2.1399,0.18408,0.1588,-0.18112,-0.19176
2.5519,-2.1421,0.16529,0.16037,-0.17338,-0.19277
2.5251,-2.3787,0.20984,0.16223,-0.16576,-0.18458
1.9707,-2.1076,0.24725,0.16051,-0.17118,-0.18061
2.1299,-2.4784,0.25133,0.15831,-0.18855,-0.1927
1.8816,-2.0033,0.21476,0.16018,-0.19741,-0.19836
2.6289,-2.4277,0.17654,0.16063,-0.17721,-0.19268
2.3761,-2.111,0.20977,0.15618,-0.15351,-0.18208
2.367,-2.3748,0.2352,0.15357,-0.14683,-0.18953
1.8505,-2.4356,0.23972,0.15619,-0.16932,-0.19969
1.8023,-2.1593,0.20365,0.15551,-0.17882,-0.18938
2.4073,-2.4238,0.17437,0.15404,-0.17158,-0.1693
2.4576,-2.0811,0.19773,0.15753,-0.15196,-0.17857
2.5809,-2.6538,0.25353,0.15863,-0.16606,-0.19049
1.6457,-2.1606,0.24931,0.15634,-0.18395,-0.18676
2.0477,-2.4774,0.2019,0.15703,-0.19313,-0.18055
2.0521,-2.3517,0.17325,0.15996,-0.18155,-0.17872
2.5239,-2.3008,0.21705,0.15792,-0.17437,-0.19067
2.3866,-2.423,0.27421,0.15274,-0.17987,-0.19626
1.8981,-2.3768,0.30168,0.15294,-0.18951,-0.18352
2.0967,-2.6582,0.26829,0.15489,-0.20314,-0.18413
1.7357,-1.9998,0.24299,0.15319,-0.18328,-0.20099
2.5179,-2.6999,0.25866,0.15486,-0.15985,-0.20705
2.2377,-2.3728,0.29941,0.15796,-0.15323,-0.19012
2.1114,-2.4848,0.31463,0.15606,-0.17218,-0.18399
1.9297,-2.3645,0.26998,0.15376,-0.18617,-0.19387
1.7582,-2.4793,0.2332,0.15557,-0.17079,-0.20417
2.5722,-2.4306,0.21577,0.15711,-0.15985,-0.20105
2.2066,-2.1773,0.26167,0.15295,-0.16174,-0.19538
1.9426,-2.7112,0.25626,0.15173,-0.18409,-0.20109
1.878,-2.3748,0.19751,0.15541,-0.18935,-0.21166
1.9978,-2.6312,0.15693,0.15448,-0.1738,-0.21107
2.2146,-2.2386,0.16673,0.154,-0.16273,-0.20117
2.0886,-2.6589,0.23058,0.15719,-0.17271,-0.20009
2.1167,-2.2681,0.23452,0.15703,-0.18651,-0.21979
1.781,-2.3868,0.20671,0.15384,-0.18754,-0.2218
2.087,-2.4302,0.17695,0.1539,-0.16793,-0.20534
1.8919,-2.4926,0.18888,0.15639,-0.15275,-0.2066
2.1472,-2.7009,0.22174,0.15293,-0.1546,-0.21955
2.2773,-2.2154,0.23542,0.15002,-0.17279,-0.22143
1.5997,-2.5726,0.18721,0.15247,-0.17812,-0.21872
2.1321,-2.1424,0.14601,0.15282,-0.15413,-0.21815
1.9712,-2.6773,0.17705,0.15052,-0.14741,-0.22687
2.2217,-2.3185,0.23521,0.15289,-0.16536,-0.23586
2.0936,-2.7296,0.2259,0.15374,-0.18321,-0.22895
1.7605,-2.2845,0.15509,0.15073,-0.17558,-0.2148
2.2105,-2.3398,0.15526,0.14981,-0.1515,-0.22081
1.9414,-2.2313,0.20768,0.15153,-0.15706,-0.23864
2.1641,-2.4648,0.26435,0.14969,-0.16241,-0.23409
2.1902,-2.5954,0.23836,0.14741,-0.18415,-0.22227
1.9625,-2.4128,0.21172,0.15143,-0.16397,-0.22384
2.1521,-2.6283,0.20418,0.1535,-0.14426,-0.2347
1.7482,-2.0783,0.23829,0.15087,-0.13732,-0.22979
2.3509,-2.4823,0.26419,0.15247,-0.15537,-0.21996
2.2553,-2.0202,0.24943,0.15389,-0.16462,-0.21663
1.992,-2.7515,0.16947,0.15187,-0.14458,-0.22473
2.1451,-2.4336,0.16034,0.15006,-0.12906,-0.22621
1.8141,-2.643,0.19202,0.15227,-0.14697,-0.21382
2.3422,-2.2388,0.22596,0.15193,-0.16854,-0.20553
2.1768,-2.366,0.16679,0.14912,-0.16894,-0.22231
2.099,-2.107,0.12499,0.15227,-0.14858,-0.22366
2.2444,-2.4637,0.16677,0.15372,-0.14528,-0.21109
1.8361,-2.6522,0.21983,0.14947,-0.15862,-0.20734
2.2542,-2.4751,0.22083,0.15045,-0.17601,-0.21487
2.2082,-2.4963,0.16556,0.15308,-0.17197,-0.21118
2.2365,-2.2285,0.15562,0.14976,-0.1475,-0.19808
2.1576,-2.4682,0.18811,0.14807,-0.15275,-0.19368
1.7205,-2.1629,0.21155,0.14979,-0.17037,-0.20073
2.4757,-2.7706,0.21614,0.14962,-0.18339,-0.20807
2.3035,-2.4302,0.15625,0.14806,-0.16732,-0.19494
2.0747,-2.646,0.12587,0.15265,-0.14737,-0.18815
2.1549,-2.2156,0.18896,0.15356,-0.16129,-0.2066
1.8665,-2.5726,0.2342,0.14896,-0.18314,-0.20505
2.4287,-2.1511,0.20755,0.14966,-0.18803,-0.18723
2.4443,-2.7668,0.15879,0.15262,-0.17213,-0.18712
2.1002,-2.5773,0.2028,0.15066,-0.16505,-0.19407
2.1839,-2.5614,0.25898,0.15058,-0.17481,-0.1828
1.8936,-2.2963,0.25558,0.15296,-0.18864,-0.17105
2.4627,-2.3838,0.19809,0.15225,-0.18549,-0.17273
2.5879,-2.4344,0.18152,0.15088,-0.17021,-0.18622
1.9853,-2.5721,0.204,0.1551,-0.16362,-0.18632
2.19,-2.7053,0.24078,0.15465,-0.19452,-0.17497
2.0126,-2.4272,0.23543,0.14917,-0.20835,-0.1818
2.5672,-2.5274,0.1627,0.15079,-0.1932,-0.19566
2.6238,-2.2201,0.13657,0.1517,-0.1737,-0.18716
1.8416,-2.6546,0.17847,0.1493,-0.17578,-0.17364
2.1668,-2.3658,0.21311,0.15053,-0.1986,-0.18046
2.2088,-2.736,0.20597,0.15335,-0.20863,-0.18523
2.5757,-2.3681,0.15806,0.15128,-0.1977,-0.1718
2.6625,-2.7417,0.19079,0.15057,-0.19543,-0.16704
1.8043,-2.1624,0.25775,0.15363,-0.20165,-0.17834
2.0985,-2.6333,0.24346,0.15118,-0.22435,-0.19251
2.3273,-2.3893,0.19592,0.14852,-0.21776,-0.18885
2.5753,-2.7991,0.16883,0.15066,-0.19468,-0.17801
2.6648,-2.3176,0.20166,0.14971,-0.18889,-0.19225
1.8451,-2.6617,0.22667,0.14759,-0.21233,-0.1979
1.9505,-2.1639,0.25305,0.15176,-0.23529,-0.176
2.5201,-2.713,0.17487,0.15346,-0.22455,-0.17394
2.4986,-2.4234,0.15624,0.14949,-0.20188,-0.18813
2.5571,-2.7898,0.22115,0.14899,-0.19617,-0.18203
1.9987,-2.3407,0.24596,0.14997,-0.21987,-0.17346
1.8768,-2.5462,0.23172,0.14705,-0.22631,-0.17376
2.7022,-2.3712,0.18468,0.14787,-0.2202,-0.19742
2.4448,-2.6934,0.23637,0.15094,-0.21003,-0.20104
2.2988,-2.405,0.27699,0.14847,-0.21697,-0.19101
2.2678,-2.6316,0.2424,0.1491,-0.24029,-0.19447
1.9436,-2.4615,0.18477,0.15369,-0.23405,-0.20507
2.9137,-2.6162,0.16512,0.15296,-0.2073,-0.18821
2.4012,-2.4101,0.1991,0.14883,-0.19771,-0.17535
1.9669,-2.6025,0.24424,0.14934,-0.21735,-0.18972
2.6147,-2.4018,0.21828,0.14776,-0.23648,-0.19543
2.1635,-2.5983,0.16981,0.14679,-0.23445,-0.18753
2.6155,-2.5764,0.18257,0.15129,-0.20747,-0.18618
2.5306,-2.5192,0.24779,0.15322,-0.2062,-0.19645
2.0526,-2.4433,0.25397,0.1511,-0.22962,-0.21177
2.5156,-2.6394,0.19607,0.15366,-0.23177,-0.20226
2.4013,-2.4955,0.18916,0.15588,-0.22145,-0.1946
2.5496,-2.612,0.27605,0.15119,-0.20717,-0.20283
2.6167,-2.5924,0.29412,0.15132,-0.22217,-0.19751
2.1723,-2.5118,0.23864,0.15225,-0.23693,-0.17106
2.3041,-2.5079,0.21233,0.14989,-0.23456,-0.17592
2.7513,-2.6931,0.20471,0.15226,-0.20746,-0.19033
2.3324,-2.5052,0.25047,0.15534,-0.20167,-0.18921
2.5336,-2.562,0.26459,0.15357,-0.22921,-0.18083
2.5245,-2.6378,0.23072,0.15369,-0.24343,-0.18856
2.0883,-2.5514,0.21383,0.15739,-0.22009,-0.20585
2.6963,-2.5069,0.25902,0.15548,-0.20141,-0.19368
2.572,-2.6642,0.30751,0.15274,-0.2163,-0.17878
2.2755,-2.3844,0.2627,0.15542,-0.23088,-0.1909
2.4718,-2.5187,0.20475,0.15271,-0.22417,-0.18743
2.3621,-2.544,0.25032,0.15322,-0.20102,-0.16756
2.5138,-2.6426,0.30765,0.15831,-0.20333,-0.16302
2.6547,-2.4343,0.27385,0.15908,-0.22617,-0.18156
2.2422,-2.6591,0.21618,0.15836,-0.23193,-0.17775
2.2215,-2.2585,0.20781,0.16149,-0.21667,-0.17369
2.6704,-2.4666,0.2322,0.16253,-0.20186,-0.17887
2.2533,-2.3408,0.25667,0.15926,-0.22052,-0.18887
2.5531,-2.7137,0.23999,0.16217,-0.2428,-0.17612
2.4727,-2.3641,0.21309,0.16192,-0.23149,-0.15589
2.0312,-2.4409,0.23597,0.16045,-0.20806,-0.17418
2.5284,-2.0539,0.30341,0.16525,-0.21416,-0.17012
2.5158,-2.5607,0.25805,0.16864,-0.23671,-0.15437
2.2496,-2.349,0.19956,0.16818,-0.23385,-0.15654
2.1868,-2.6437,0.23066,0.17099,-0.21477,-0.1702
2.4028,-2.0038,0.28777,0.17405,-0.20791,-0.17071
2.2807,-2.3724,0.29336,0.17124,-0.22227,-0.16897
2.6395,-1.9303,0.22519,0.1718,-0.24452,-0.17869
2.0651,-2.6516,0.18515,0.17429,-0.23732,-0.18424
1.8566,-2.2187,0.22789,0.17214,-0.21376,-0.16689
2.5675,-2.4961,0.25079,0.17482,-0.2239,-0.16035
2.4242,-1.9378,0.23376,0.17948,-0.25051,-0.18136
2.0779,-2.1453,0.19393,0.17951,-0.24333,-0.18247
2.1545,-2.0177,0.22679,0.18112,-0.21564,-0.16499
2.0418,-2.5413,0.27035,0.18447,-0.21768,-0.17695
2.294,-2.3196,0.24443,0.18247,-0.2404,-0.19177
2.6037,-2.3726,0.15273,0.18093,-0.24606,-0.18869
1.8393,-1.9234,0.19308,0.18467,-0.2225,-0.19007
1.7851,-1.9861,0.24631,0.18459,-0.21205,-0.20076
2.5246,-2.2895,0.24032,0.18612,-0.23077,-0.20503
2.415,-2.4388,0.16925,0.19162,-0.24913,-0.18842
1.8795,-2.429,0.16873,0.19067,-0.25467,-0.18967
2.0353,-2.0589,0.21035,0.19106,-0.23105,-0.2118
2.1054,-2.3498,0.23378,0.1947,-0.23713,-0.20996
2.4043,-1.8561,0.2055,0.19448,-0.25588,-0.19757
2.4634,-2.6241,0.18569,0.19099,-0.25701,-0.20834
1.7471,-2.3055,0.24937,0.19438,-0.22523,-0.22182
1.7284,-2.507,0.27458,0.19405,-0.22334,-0.21503
2.6178,-2.0306,0.20614,0.19374,-0.24222,-0.21706
2.4621,-2.4622,0.15452,0.19838,-0.25227,-0.23084
1.814,-2.028,0.20734,0.19789,-0.22895,-0.22884
2.0117,-2.7837,0.2712,0.19692,-0.22277,-0.21741
2.1573,-2.3907,0.2356,0.20054,-0.23324,-0.21702
2.3978,-2.4139,0.18581,0.19927,-0.26,-0.23972
2.4062,-2.108,0.18586,0.1927,-0.25727,-0.22863
1.911,-2.3913,0.2083,0.19429,-0.23369,-0.21222
1.7388,-2.4559,0.22112,0.19529,-0.23992,-0.22293
2.6644,-2.649,0.18131,0.1953,-0.25013,-0.22715
2.3648,-2.4272,0.19275,0.19956,-0.23507,-0.21753
1.8366,-2.3027,0.24695,0.1976,-0.20788,-0.21435
2.1047,-2.3469,0.25163,0.19376,-0.20614,-0.22717
2.39,-2.3784,0.16069,0.19566,-0.23749,-0.22678
2.291,-2.7377,0.13917,0.19464,-0.23062,-0.20763
2.0584,-2.3364,0.20112,0.18999,-0.21546,-0.2143
2.3601,-2.6542,0.2399,0.19213,-0.21017,-0.22811
1.8924,-2.1005,0.18608,0.19009,-0.23566,-0.20435
2.4857,-2.6105,0.16587,0.18829,-0.24918,-0.19569
2.3839,-2.3214,0.20897,0.1905,-0.22915,-0.21206
1.8546,-2.6824,0.24276,0.18682,-0.20551,-0.21078
2.1601,-2.2002,0.20569,0.18485,-0.21966,-0.19988
2.3703,-2.5498,0.18591,0.18632,-0.22499,-0.20256
2.2746,-2.1816,0.23066,0.18148,-0.19694,-0.21692
2.0037,-2.523,0.27624,0.17804,-0.17773,-0.20184
2.332,-2.4588,0.23012,0.17998,-0.196,-0.1975
2.0942,-2.3853,0.13809,0.1771,-0.20961,-0.21622
2.197,-2.3777,0.16883,0.17836,-0.19769,-0.208
2.3635,-2.1282,0.22242,0.17938,-0.18604,-0.18538
2.0859,-2.5462,0.19411,0.17413,-0.20357,-0.20114
1.8624,-2.1679,0.15375,0.17362,-0.22055,-0.20623
2.4143,-2.5728,0.16379,0.17439,-0.20394,-0.19739
2.2739,-2.0754,0.19636,0.17058,-0.17515,-0.19299
1.9613,-2.4859,0.20894,0.17332,-0.18012,-0.20912
1.9598,-2.0755,0.14868,0.1754,-0.20143,-0.20512
2.3573,-2.5066,0.13728,0.17178,-0.18072,-0.19518
2.1107,-2.1486,0.21906,0.17383,-0.16178,-0.21256
2.1277,-2.3973,0.20418,0.17322,-0.18169,-0.22038
2.1501,-2.2548,0.11239,0.17061,-0.19408,-0.19827
1.9137,-2.1616,0.13122,0.17317,-0.18147,-0.19847
2.1303,-2.4427,0.19372,0.17238,-0.18122,-0.21487
2.3282,-2.1495,0.2068,0.1691,-0.20193,-0.20875
1.9708,-2.473,0.17858,0.17337,-0.21816,-0.20701
1.8197,-2.1741,0.15934,0.17106,-0.1924,-0.21676
2.255,-2.3884,0.21308,0.17002,-0.16316,-0.22703
2.1523,-2.1334,0.24797,0.17374,-0.17199,-0.20748
1.9488,-2.5512,0.19057,0.1716,-0.19294,-0.2125
1.7932,-2.0498,0.16191,0.17013,-0.1801,-0.23642
2.2654,-2.5067,0.21495,0.17244,-0.16361,-0.22194
2.0107,-2.3145,0.22975,0.17038,-0.17645,-0.2113
2.1396,-2.2632,0.15999,0.17282,-0.2013,-0.22578
1.8589,-2.5129,0.12926,0.17644,-0.18422,-0.22691
1.8519,-2.0664,0.20203,0.1715,-0.18001,-0.22114
2.1342,-2.4869,0.23727,0.1735,-0.19677,-0.22902
2.3968,-2.3404,0.18866,0.17513,-0.21314,-0.24184
1.8084,-2.5828,0.16003,0.17348,-0.19202,-0.23564
1.6379,-2.2019,0.18244,0.1754,-0.16056,-0.21718
2.2492,-2.6521,0.22629,0.17588,-0.16783,-0.23624
2.3966,-2.0877,0.1767,0.17362,-0.19357,-0.24456
1.6634,-2.4014,0.13738,0.17819,-0.18526,-0.22548
1.6713,-2.5327,0.17835,0.17624,-0.16884,-0.23333
2.3293,-2.5398,0.22292,0.1722,-0.18611,-0.23901
2.2504,-2.4666,0.16401,0.17376,-0.20706,-0.23109
1.6334,-2.1159,0.12201,0.17115,-0.19457,-0.22522
1.8249,-2.6138,0.19549,0.17042,-0.18247,-0.23747
2.1045,-2.3942,0.26091,0.17332,-0.19955,-0.23863
2.2163,-2.7832,0.23655,0.17061,-0.21649,-0.22136
1.9663,-2.1361,0.19853,0.17147,-0.19988,-0.2265
1.728,-2.4173,0.2336,0.17279,-0.16713,-0.24329
1.6533,-2.3695,0.26973,0.16665,-0.1767,-0.22388
2.2664,-2.6458,0.24384,0.16661,-0.19849,-0.21967
2.2596,-2.6034,0.18611,0.16663,-0.19053,-0.2316
1.5575,-2.3864,0.20838,0.16446,-0.17055,-0.21855
1.4605,-2.4177,0.26467,0.16846,-0.19232,-0.20712
2.3739,-2.0308,0.20712,0.1687,-0.20963,-0.21149
2.1343,-2.8164,0.13537,0.16375,-0.18908,-0.2245
1.4438,-2.4636,0.1938,0.16479,-0.17988,-0.20505
1.56,-2.734,0.25256,0.16226,-0.19492,-0.20235
2.2819,-2.1368,0.23633,0.16208,-0.20805,-0.22281
1.9667,-2.2238,0.18799,0.16582,-0.18771,-0.20482
1.5036,-2.3761,0.19957,0.16258,-0.16339,-0.1906
1.6846,-2.649,0.23365,0.16354,-0.16903,-0.20356
2.0288,-2.5989,0.22628,0.16707,-0.1908,-0.19176
1.948,-2.1465,0.14571,0.16312,-0.17465,-0.17474
1.4436,-2.456,0.1763,0.16302,-0.15881,-0.18722
1.9531,-2.0167,0.22925,0.16245,-0.18058,-0.19798
1.6575,-2.7282,0.20104,0.1593,-0.1935,-0.18136
1.8598,-2.3663,0.12961,0.16417,-0.17702,-0.18503
1.6809,-2.4519,0.17956,0.16397,-0.16072,-0.20049
1.879,-2.1945,0.25505,0.16334,-0.18232,-0.17948
1.3711,-2.0112,0.21739,0.16793,-0.1908,-0.17855
1.8809,-2.6028,0.18808,0.16593,-0.16586,-0.18456
1.9128,-2.3943,0.21051,0.16177,-0.14564,-0.17697
1.5108,-2.4739,0.24512,0.16262,-0.16294,-0.1644
1.3897,-1.835,0.22734,0.16,-0.17584,-0.18159
1.9992,-2.3852,0.15722,0.16404,-0.14646,-0.19611
1.8237,-2.2251,0.15788,0.16783,-0.14113,-0.18106
1.3667,-2.4696,0.22942,0.16522,-0.17651,-0.18746
1.5017,-2.2193,0.17966,0.16729,-0.18027,-0.2013
1.9183,-1.9834,0.12755,0.16839,-0.15478,-0.17843
1.6535,-2.2332,0.18825,0.16436,-0.1548,-0.1779
1.5154,-1.9857,0.24187,0.16589,-0.17138,-0.19124
1.4944,-2.453,0.20385,0.16382,-0.17913,-0.18211
1.7655,-2.053,0.15274,0.16236,-0.1579,-0.17477
1.6533,-2.2516,0.18334,0.16633,-0.14939,-0.19515
1.4743,-1.88,0.22619,0.16495,-0.18261,-0.20941
1.602,-2.0558,0.19827,0.16514,-0.18617,-0.20111
1.7176,-2.3626,0.13555,0.16704,-0.15215,-0.20411
1.4246,-1.9254,0.16527,0.16193,-0.15645,-0.21173
1.5939,-2.2058,0.23961,0.15984,-0.1938,-0.18744
1.6676,-1.7171,0.21086,0.15943,-0.1888,-0.18965
1.4916,-2.238,0.17121,0.15581,-0.1677,-0.2061
1.4619,-2.0679,0.24498,0.16034,-0.17172,-0.19765
1.8799,-2.0698,0.2812,0.1604,-0.18429,-0.19122
1.3896,-2.0722,0.23395,0.15714,-0.18808,-0.20758
1.2313,-1.8039,0.18398,0.15946,-0.15899,-0.22159
1.7619,-2.2554,0.24067,0.15649,-0.17747,-0.20082
1.937,-1.8254,0.2621,0.15374,-0.2094,-0.20614
1.3696,-2.2174,0.22449,0.15553,-0.19662,-0.20459
1.1427,-1.9816,0.14226,0.15077,-0.1757,-0.17981
1.7166,-1.9529,0.19298,0.15272,-0.17643,-0.1772
1.9648,-2.1201,0.24615,0.15468,-0.20199,-0.19294
1.3284,-1.8544,0.20764,0.15279,-0.20203,-0.19328
1.1674,-2.2487,0.17705,0.15581,-0.1899,-0.18428
1.8569,-1.9321,0.26122,0.15474,-0.20287,-0.20279
1.9473,-2.1353,0.27645,0.14953,-0.22014,-0.20822
1.1999,-1.9101,0.18604,0.15169,-0.20776,-0.18362
1.2382,-2.1564,0.17549,0.1494,-0.18367,-0.19057
1.9933,-2.1049,0.21694,0.15098,-0.19737,-0.19763
1.8947,-2.0714,0.26114,0.15434,-0.23579,-0.16802
1.1195,-2.1979,0.20177,0.15186,-0.22778,-0.17424
1.3084,-1.8946,0.13865,0.15224,-0.19511,-0.18774
1.9492,-2.3673,0.20998,0.15197,-0.205,-0.18558
1.8544,-1.8351,0.2538,0.14567,-0.22289,-0.18556
1.2617,-2.349,0.19364,0.14758,-0.21971,-0.20427
1.3346,-2.1588,0.19358,0.14757,-0.21257,-0.19951
1.7035,-1.9744,0.2708,0.14723,-0.22325,-0.17346
1.8524,-2.4449,0.25103,0.15026,-0.2399,-0.18453
1.4799,-1.7177,0.15902,0.14694,-0.2286,-0.1915
1.3452,-2.3655,0.15693,0.1478,-0.20055,-0.16642
1.5882,-2.0915,0.20778,0.15061,-0.20247,-0.17954
1.8038,-2.2874,0.22998,0.14439,-0.24175,-0.18871
1.5031,-2.2053,0.17939,0.14416,-0.23437,-0.18668
1.4049,-1.9864,0.15712,0.14503,-0.2065,-0.18917
1.4177,-2.1356,0.24006,0.14452,-0.21239,-0.20336
1.7957,-1.9863,0.24226,0.14964,-0.23057,-0.19049
1.5645,-2.5637,0.16129,0.14791,-0.22759,-0.1699
1.3839,-1.8467,0.21163,0.14718,-0.20815,-0.19249
1.2924,-2.1195,0.2875,0.14996,-0.21803,-0.19295
1.9263,-2.0116,0.24979,0.14708,-0.24012,-0.17489
1.4259,-2.0939,0.18886,0.1466,-0.23262,-0.19081
1.4377,-2.3914,0.18926,0.15012,-0.20043,-0.19808
1.3038,-1.7716,0.24145,0.14832,-0.20634,-0.19418
1.7517,-2.0263,0.25447,0.152,-0.24093,-0.19927
1.6263,-1.8175,0.20466,0.15093,-0.22917,-0.21158
1.3696,-2.3082,0.21512,0.14823,-0.2009,-0.19518
1.2376,-2.092,0.30848,0.15151,-0.21205,-0.18545
1.7662,-1.8924,0.26491,0.15013,-0.23242,-0.21093
1.6768,-1.9493,0.1944,0.14692,-0.21641,-0.20977
1.1958,-1.4688,0.24607,0.1512,-0.20073,-0.19224
1.3286,-2.2681,0.31151,0.14833,-0.21009,-0.21343
1.7412,-2.0284,0.25434,0.15008,-0.23584,-0.21686
1.5746,-2.0061,0.19303,0.15143,-0.22347,-0.21345
1.2855,-1.668,0.22458,0.14805,-0.19914,-0.2215
1.3344,-1.4699,0.24487,0.14943,-0.2167,-0.23443
1.6721,-2.2087,0.24775,0.1494,-0.24198,-0.22008
1.5505,-1.9047,0.20701,0.1466,-0.21695,-0.21207
1.3246,-1.9888,0.24934,0.15229,-0.20094,-0.24057
1.2678,-1.578,0.30324,0.15215,-0.22242,-0.23103
1.7501,-1.6734,0.23517,0.15266,-0.2351,-0.21394
1.4382,-1.9096,0.19224,0.15642,-0.21447,-0.22856
1.3367,-1.9218,0.26549,0.15489,-0.20224,-0.23212
1.4149,-2.0537,0.29992,0.15607,-0.21965,-0.22425
1.597,-1.5862,0.24112,0.15871,-0.2364,-0.22524
1.3377,-1.7578,0.19874,0.15694,-0.22809,-0.24003
1.4873,-1.7656,0.23011,0.16166,-0.20316,-0.22658
1.4392,-2.1438,0.25344,0.16217,-0.23393,-0.2148
1.447,-1.9526,0.22099,0.15994,-0.24542,-0.23593
1.3065,-1.5064,0.19934,0.16394,-0.21615,-0.22559
1.6043,-1.9178,0.27153,0.16212,-0.20834,-0.20317
1.2977,-1.6121,0.26404,0.16147,-0.22977,-0.21911
1.3095,-2.2683,0.18165,0.16388,-0.23833,-0.22173
1.4938,-1.8487,0.18888,0.16192,-0.21741,-0.21074
1.6323,-1.6621,0.26133,0.16393,-0.20981,-0.21293
1.2536,-1.835,0.24196,0.16668,-0.23111,-0.22457
1.1922,-1.733,0.18994,0.16167,-0.2479,-0.20886
1.5289,-2.1813,0.18845,0.16415,-0.23548,-0.20639
1.7332,-1.7374,0.22773,0.16501,-0.22318,-0.22231
1.2416,-1.9307,0.23855,0.16355,-0.24881,-0.2018
1.0698,-1.6214,0.19782,0.16702,-0.25295,-0.19203
1.6002,-1.844,0.22675,0.16751,-0.21991,-0.20956
1.7611,-2.1631,0.29053,0.16745,-0.2166,-0.20482
1.1213,-1.6819,0.24175,0.17199,-0.24234,-0.19047
1.0689,-1.9649,0.15741,0.16778,-0.2428,-0.20099
1.7767,-1.5803,0.20635,0.16811,-0.21817,-0.20748
1.7504,-2.0114,0.27911,0.1711,-0.21509,-0.19199
1.0397,-1.9601,0.2333,0.16933,-0.24213,-0.20634
1.0725,-1.7339,0.1777,0.17151,-0.25799,-0.21535
1.8613,-1.971,0.19682,0.17218,-0.23323,-0.19234
1.8287,-1.52,0.22798,0.17007,-0.2215,-0.19616
1.0095,-2.1493,0.19656,0.17476,-0.24323,-0.20705
1.0085,-1.6677,0.17349,0.17234,-0.23545,-0.2045
1.9489,-1.9488,0.23538,0.16956,-0.19874,-0.20189
1.8052,-1.8251,0.26751,0.17098,-0.20434,-0.21775
1.0234,-1.6468,0.17608,0.16767,-0.23038,-0.21573
1.1696,-2.032,0.14096,0.17029,-0.22243,-0.20203
1.8445,-1.6002,0.20111,0.17401,-0.20643,-0.22244
1.7074,-2.0288,0.23231,0.16969,-0.21134,-0.23218
1.188,-1.6703,0.17948,0.17046,-0.24099,-0.20756
1.2142,-1.7252,0.17839,0.16944,-0.2325,-0.21668
1.8092,-1.9062,0.21852,0.16765,-0.20768,-0.22837
1.6434,-1.5636,0.22937,0.17246,-0.20833,-0.22212
1.1633,-2.0251,0.18826,0.17169,-0.22107,-0.22243
1.4097,-1.5906,0.20795,0.17342,-0.20055,-0.24137
1.74,-1.7895,0.2708,0.17813,-0.17169,-0.23322
1.5435,-1.7779,0.253,0.17593,-0.19344,-0.21882
1.1552,-1.6324,0.1604,0.17591,-0.20751,-0.23876
1.6391,-1.8636,0.16815,0.17714,-0.19336,-0.24209
1.4523,-1.6619,0.2399,0.1754,-0.18082,-0.22227
1.5634,-1.894,0.21012,0.18034,-0.20992,-0.23166
1.2374,-1.5761,0.16774,0.18084,-0.21768,-0.23692
1.6529,-1.7762,0.18694,0.18028,-0.18765,-0.22376
1.2401,-1.5943,0.23796,0.18445,-0.16665,-0.22396
1.5144,-1.7141,0.20857,0.18387,-0.18755,-0.23795
1.3968,-1.8956,0.15567,0.17919,-0.19105,-0.22943
1.5125,-1.5468,0.19532,0.18027,-0.15717,-0.21359
1.2856,-1.9657,0.23639,0.17675,-0.15704,-0.23176
1.4054,-1.3811,0.17547,0.18088,-0.18573,-0.23219
1.4784,-1.7192,0.13095,0.1846,-0.18049,-0.21408
1.3988,-1.8533,0.19084,0.18199,-0.16697,-0.22292
1.1077,-1.6911,0.23228,0.18461,-0.18691,-0.22298
1.4502,-1.8012,0.20245,0.18449,-0.21058,-0.20676
1.5519,-1.3809,0.18103,0.18121,-0.18394,-0.20605
1.247,-1.8927,0.23287,0.18442,-0.1496,-0.22619
1,-1.8348,0.25563,0.18193,-0.16572,-0.20784
1.4906,-1.7614,0.21652,0.18293,-0.17741,-0.20316
1.5241,-1.5957,0.17473,0.18768,-0.16382,-0.22495
1.1676,-1.3888,0.24756,0.18579,-0.15034,-0.20894
1.0333,-2.0892,0.22815,0.18788,-0.17461,-0.19679
1.4449,-1.7109,0.15631,0.1901,-0.18574,-0.20501
1.4318,-1.9333,0.16334,0.18417,-0.16765,-0.1974
1.1637,-1.5439,0.25704,0.18483,-0.17075,-0.18026
1.0249,-1.4276,0.24914,0.18262,-0.19473,-0.19017
1.4393,-1.9432,0.19909,0.18163,-0.19313,-0.20289
1.4579,-1.8045,0.18786,0.18645,-0.15433,-0.18609
1.192,-2.1255,0.23993,0.18402,-0.14561,-0.19187
0.79359,-1.4212,0.2419,0.18228,-0.17851,-0.20239
1.588,-1.5434,0.16993,0.18326,-0.16917,-0.18338
1.4867,-1.7889,0.18898,0.17791,-0.15585,-0.17985
1.1089,-2.0009,0.25202,0.17838,-0.17185,-0.19
0.82953,-1.9748,0.21175,0.177,-0.19603,-0.1753
1.6174,-1.4708,0.14902,0.1732,-0.17389,-0.16682
1.4804,-1.8462,0.21992,0.17691,-0.17318,-0.1929
1.065,-1.5844,0.29478,0.17575,-0.18918,-0.19464
1.0089,-2.0821,0.25725,0.17595,-0.205,-0.18026
1.4261,-1.9095,0.23894,0.17875,-0.17474,-0.19581
1.6009,-1.6724,0.25061,0.17368,-0.14535,-0.19512
0.95234,-1.9097,0.29568,0.17262,-0.16651,-0.17164
1.0149,-1.4244,0.26788,0.17396,-0.18706,-0.1865
1.5719,-2.2912,0.20813,0.1721,-0.16156,-0.18819
1.5876,-1.9019,0.2602,0.17677,-0.15731,-0.1738
0.91309,-1.8581,0.27307,0.17573,-0.19066,-0.17962
1.0119,-1.7657,0.19154,0.17328,-0.18576,-0.20903
1.5739,-1.6364,0.15843,0.1753,-0.16451,-0.2049
1.5136,-2.2881,0.23959,0.17007,-0.16865,-0.19593
1.0997,-1.8473,0.2723,0.16725,-0.19352,-0.21678
1.0385,-1.9668,0.22225,0.16888,-0.18043,-0.19912
1.3838,-1.5986,0.20172,0.16554,-0.15522,-0.18298
1.5218,-1.9405,0.2528,0.16735,-0.14722,-0.20552
1.2104,-2.1175,0.24488,0.16523,-0.17245,-0.20598
1.111,-1.7961,0.19231,0.16297,-0.16803,-0.1994
1.3029,-2.1566,0.17046,0.16614,-0.14706,-0.20425
1.5563,-1.4949,0.2408,0.16168,-0.16386,-0.22776
1.2089,-1.9926,0.2213,0.15713,-0.18433,-0.21752
1.1107,-1.9846,0.16791,0.15962,-0.16699,-0.20919
1.197,-1.9073,0.19736,0.15789,-0.15014,-0.22163
1.5339,-1.9371,0.26925,0.16258,-0.16658,-0.19681
1.2532,-1.5593,0.24086,0.1626,-0.18286,-0.18285
1.1866,-2.0757,0.2205,0.15972,-0.15299,-0.20303
1.0798,-1.7614,0.23135,0.16298,-0.1322,-0.20557
1.6027,-2.0568,0.28441,0.16088,-0.15308,-0.19431
1.1788,-1.7368,0.24574,0.15918,-0.1569,-0.20578
1.3266,-1.681,0.17246,0.16332,-0.13139,-0.21777
1.108,-1.9882,0.20193,0.16133,-0.1313,-0.20007
1.4809,-1.6415,0.25326,0.16421,-0.16842,-0.19324
1.2492,-2.0609,0.20191,0.16406,-0.16324,-0.20456
1.3587,-1.6645,0.16914,0.16001,-0.13307,-0.17946
0.99452,-1.8315,0.24014,0.16192,-0.14517,-0.17395
1.4871,-1.8181,0.26212,0.16046,-0.16528,-0.18918
1.4679,-1.6744,0.22221,0.15542,-0.1598,-0.18657
1.1342,-2.0211,0.18971,0.1582,-0.12976,-0.18382
1.0713,-1.654,0.23069,0.15458,-0.14607,-0.195
1.5977,-1.8911,0.25209,0.15506,-0.17427,-0.19727
1.4659,-1.6681,0.19015,0.15529,-0.15212,-0.16724
1.2042,-1.8609,0.14579,0.15034,-0.13466,-0.17537
1.1069,-1.8238,0.22687,0.15085,-0.16321,-0.18427
1.5651,-1.7697,0.2469,0.14944,-0.17875,-0.15565
1.5065,-1.9248,0.18606,0.14655,-0.16089,-0.16803
1.3171,-1.654,0.21519,0.15083,-0.15173,-0.17862
1.1055,-2.0032,0.27834,0.14776,-0.16366,-0.17349
1.6382,-1.6122,0.24992,0.14919,-0.17538,-0.17974
1.5836,-2.0099,0.1879,0.15064,-0.15371,-0.19103
1.2139,-1.874,0.18592,0.14657,-0.145,-0.17725
1.2327,-1.7278,0.24738,0.1484,-0.18636,-0.16052
1.7186,-2.1142,0.22776,0.1485,-0.19795,-0.1849
1.4497,-1.4588,0.14353,0.14621,-0.15947,-0.18025
1.3433,-2.1021,0.13879,0.15102,-0.15522,-0.16373
1.32,-1.9642,0.21928,0.1484,-0.18863,-0.18598
1.6546,-1.9205,0.18744,0.1491,-0.18807,-0.19065
1.4287,-2.1404,0.14378,0.15118,-0.17935,-0.18632
1.4717,-1.6094,0.22392,0.14823,-0.1836,-0.19571
1.1816,-2.0231,0.24634,0.14871,-0.20425,-0.20774
1.6035,-1.9076,0.17328,0.14951,-0.19559,-0.1879
1.5174,-2.2842,0.13992,0.14673,-0.1749,-0.1857
1.4452,-1.9232,0.18847,0.15229,-0.18387,-0.21117
1.2284,-1.7715,0.23015,0.14968,-0.2175,-0.2035
1.5057,-2.1201,0.16677,0.14717,-0.22156,-0.19452
1.4912,-1.9307,0.12317,0.15023,-0.18422,-0.21114
1.5263,-2.4574,0.19206,0.14801,-0.1853,-0.21449
1.2997,-1.6772,0.22367,0.14794,-0.21118,-0.20864
1.3119,-1.9526,0.17171,0.14947,-0.20755,-0.22112
1.5359,-2.079,0.19047,0.1478,-0.19999,-0.23176
1.5643,-2.1468,0.24269,0.152,-0.20499,-0.21044
1.1566,-2.3221,0.22381,0.15125,-0.22674,-0.21113
1.3185,-1.8201,0.14036,0.14737,-0.21902,-0.23511
1.6527,-2.0402,0.14735,0.15106,-0.18241,-0.22068
1.4854,-1.793,0.18681,0.14879,-0.19655,-0.21024
1.0871,-2.3404,0.21718,0.14927,-0.22687,-0.22466
1.1805,-2.2685,0.13406,0.15237,-0.21935,-0.22355
1.7705,-2.025,0.1515,0.14969,-0.19513,-0.21542
1.5984,-1.9707,0.21291,0.15266,-0.20088,-0.22763
1.0397,-1.6186,0.20293,0.15321,-0.21877,-0.23352
0.99345,-2.4462,0.12892,0.14864,-0.21129,-0.21633
1.6687,-2.1397,0.1997,0.15022,-0.19579,-0.2169
1.6821,-2.0978,0.2421,0.14746,-0.20953,-0.23597
1.005,-1.8891,0.19223,0.14809,-0.23127,-0.21695
0.92598,-1.7156,0.1281,0.153,-0.21931,-0.20308
1.6694,-2.3423,0.16783,0.15001,-0.19112,-0.22616
1.5333,-2.0068,0.2086,0.14833,-0.20078,-0.21995
0.93103,-2.1916,0.1991,0.1487,-0.23097,-0.20895
0.95852,-1.8064,0.1361,0.14453,-0.21483,-0.21823
1.735,-1.762,0.21764,0.14799,-0.19055,-0.22325
1.4061,-2.1181,0.25077,0.14772,-0.20848,-0.20766
0.95915,-2.137,0.18056,0.14694,-0.21748,-0.21445
0.93868,-2.1144,0.16906,0.15186,-0.2055,-0.22389
1.7934,-1.5465,0.2318,0.14998,-0.18548,-0.19664
1.276,-2.0065,0.25428,0.14693,-0.20737,-0.19833
0.98611,-1.8832,0.18501,0.14852,-0.22438,-0.21163
1.114,-2.1419,0.15179,0.14466,-0.20785,-0.20468
1.5513,-1.9653,0.20296,0.14839,-0.18746,-0.19276
1.385,-1.5934,0.23514,0.15058,-0.20919,-0.20591
0.9761,-1.9968,0.18498,0.14888,-0.23433,-0.20798
1.1436,-1.7204,0.18414,0.15372,-0.19661,-0.19391
1.4743,-2.0682,0.26861,0.1529,-0.19313,-0.21399
1.4969,-1.8187,0.25134,0.14848,-0.2185,-0.21648
0.93592,-1.7586,0.19136,0.15011,-0.22277,-0.19162
1.2224,-1.7872,0.2007,0.14693,-0.19755,-0.20186
1.6146,-1.7148,0.28627,0.14953,-0.18982,-0.21086
1.301,-2.0521,0.2697,0.15256,-0.21535,-0.20144
1.1579,-1.6479,0.19992,0.14986,-0.2277,-0.20572
1.2434,-1.8099,0.19936,0.15174,-0.20669,-0.21937
1.465,-1.6928,0.24205,0.15206,-0.19866,-0.21282
1.3858,-1.6959,0.25386,0.14784,-0.22395,-0.19896
1.2363,-2.0691,0.20443,0.14917,-0.22793,-0.22851
1.2426,-1.5861,0.22535,0.1457,-0.19876,-0.22465
1.5077,-1.8606,0.30036,0.14694,-0.19918,-0.20435
1.3474,-1.5539,0.24152,0.15059,-0.22469,-0.22017
1.2801,-1.7951,0.17003,0.14833,-0.2203,-0.22516
1.3952,-1.8968,0.24088,0.14996,-0.19556,-0.21647
1.4678,-1.6519,0.28537,0.15063,-0.196,-0.22803
1.2068,-1.8862,0.22543,0.14502,-0.22985,-0.24497
1.5106,-1.4995,0.19486,0.1469,-0.22973,-0.23006
1.3943,-1.8926,0.2143,0.14439,-0.21294,-0.22146
1.32,-1.6912,0.2676,0.14302,-0.21336,-0.24713
1.2939,-1.8053,0.23803,0.1469,-0.23852,-0.24375
1.5918,-1.8141,0.20799,0.14469,-0.23021,-0.2292
1.2946,-1.491,0.29098,0.14473,-0.19283,-0.24301
1.149,-2.0357,0.30623,0.14638,-0.21052,-0.24411
1.4943,-1.5582,0.21536,0.14091,-0.23603,-0.2312
1.6649,-1.8743,0.19377,0.14119,-0.21935,-0.23622
1.2475,-1.7427,0.27652,0.13908,-0.19912,-0.25075
1.0793,-1.6002,0.29024,0.13687,-0.20817,-0.23332
1.5309,-2.0931,0.22975,0.14171,-0.23796,-0.22458
1.7766,-1.3507,0.20913,0.14136,-0.23794,-0.24772
1.1681,-2.0256,0.24957,0.14158,-0.2172,-0.23699
1.0437,-1.6606,0.26154,0.14502,-0.2178,-0.22142
1.5722,-1.7443,0.22071,0.14146,-0.23509,-0.23031
1.7417,-1.8915,0.23096,0.14262,-0.21036,-0.22586
1.0664,-1.398,0.3044,0.14512,-0.18203,-0.20966
1.0149,-1.913,0.29816,0.14474,-0.20398,-0.21342
1.7663,-1.6342,0.18465,0.15056,-0.22547,-0.22455
1.6977,-1.8615,0.21404,0.15161,-0.20495,-0.20805
0.91914,-1.6915,0.28631,0.15192,-0.19708,-0.20513
1.0567,-1.6199,0.26795,0.15667,-0.21029,-0.22276
1.8422,-1.6648,0.22702,0.15479,-0.2396,-0.20392
1.6612,-1.5683,0.24769,0.15343,-0.21437,-0.19432
0.95963,-2.0396,0.28962,0.15759,-0.19379,-0.20176
0.94492,-1.4775,0.27162,0.15748,-0.21105,-0.1916
1.8464,-1.5723,0.23066,0.16197,-0.21132,-0.17392
1.6619,-1.6512,0.29375,0.16438,-0.17813,-0.19047
0.91713,-1.6475,0.32749,0.1636,-0.1706,-0.19851
1.0233,-2.0099,0.24776,0.16933,-0.19626,-0.1743
1.7318,-1.2954,0.18368,0.16994,-0.20028,-0.19112
1.6276,-1.6354,0.22288,0.16566,-0.17527,-0.19686
0.9914,-1.5577,0.25254,0.17047,-0.18369,-0.17062
1.019,-1.7772,0.21112,0.17203,-0.20865,-0.17803
1.727,-1.8275,0.17666,0.17679,-0.19952,-0.18105
1.4793,-1.4721,0.21563,0.18228,-0.16585,-0.1636
0.96011,-1.6364,0.24507,0.18005,-0.16597,-0.16851
1.2018,-1.267,0.17147,0.18151,-0.18658,-0.19235
1.7156,-1.9284,0.1565,0.1857,-0.17354,-0.18023
1.3218,-1.8131,0.22618,0.1825,-0.14399,-0.17895
0.96055,-1.637,0.22499,0.186,-0.16485,-0.19649
1.4201,-1.5305,0.14009,0.18949,-0.18076,-0.1823
1.4813,-1.1776,0.14477,0.18799,-0.16729,-0.17211
1.3627,-2.1255,0.23522,0.19215,-0.16647,-0.18532
1.0391,-1.7095,0.22397,0.19124,-0.19047,-0.18413
1.4483,-1.7036,0.18229,0.18978,-0.20155,-0.16974
1.2573,-1.5878,0.20016,0.19402,-0.17087,-0.18687
1.4033,-1.3425,0.2624,0.19139,-0.141,-0.20738
1.1815,-2.006,0.25285,0.18864,-0.17395,-0.19635
1.4065,-1.7054,0.18092,0.19183,-0.17699,-0.19858
1.362,-1.8864,0.21981,0.18946,-0.15086,-0.21043
1.2156,-1.5733,0.25126,0.19294,-0.15447,-0.18323
1.3264,-1.4505,0.19952,0.19355,-0.18686,-0.1826
1.403,-1.923,0.15628,0.1893,-0.17713,-0.203
1.2104,-1.9348,0.2045,0.1902,-0.1677,-0.19639
1.2588,-1.9161,0.26685,0.19051,-0.17928,-0.18958
1.4762,-1.3856,0.21661,0.18759,-0.20307,-0.20563
1.2845,-1.8067,0.18417,0.1928,-0.18489,-0.21769
1.0678,-1.8406,0.21348,0.19182,-0.14658,-0.20261
1.3367,-1.9813,0.24531,0.1902,-0.15907,-0.20519
1.4416,-1.8869,0.17213,0.1919,-0.18355,-0.20817
1.28,-1.5168,0.15883,0.18778,-0.17015,-0.17852
1.0305,-1.9639,0.2185,0.18816,-0.15711,-0.18243
1.2989,-1.704,0.20881,0.18902,-0.18604,-0.19642
1.481,-2.0718,0.13301,0.18428,-0.19749,-0.19131
1.1988,-1.8606,0.16077,0.1869,-0.17585,-0.18903
1.0238,-1.7189,0.23185,0.18502,-0.17961,-0.20741
1.2878,-1.8491,0.25437,0.18144,-0.19998,-0.20806
1.5732,-1.7048,0.20327,0.18377,-0.20348,-0.18559
1.1127,-2.1646,0.20313,0.17996,-0.17366,-0.19448
0.794,-1.647,0.24465,0.1771,-0.15311,-0.19226
1.5101,-1.8993,0.24643,0.17824,-0.17854,-0.1668
1.5939,-1.6747,0.17427,0.17459,-0.19096,-0.17482
0.98935,-1.8023,0.18306,0.17844,-0.16571,-0.18582
0.82259,-2.0597,0.25505,0.17736,-0.17014,-0.18092
1.467,-1.6276,0.1839,0.17207,-0.19528,-0.18292
1.625,-1.9073,0.129,0.17411,-0.18666,-0.19657
0.97894,-1.597,0.16744,0.17275,-0.16979,-0.18518
0.85414,-1.8405,0.24893,0.17164,-0.17438,-0.16195
1.5641,-1.831,0.2206,0.17402,-0.19951,-0.18153
1.611,-1.7062,0.17848,0.17073,-0.1866,-0.17204
0.8233,-1.8966,0.19838,0.17313,-0.14921,-0.15524
0.96446,-1.4357,0.25055,0.17262,-0.15418,-0.17462
1.635,-1.9988,0.20049,0.16708,-0.17956,-0.18163
1.5757,-1.5777,0.15684,0.169,-0.171,-0.17164
0.81856,-1.8545,0.19791,0.16698,-0.14621,-0.18289
0.92891,-1.6861,0.24931,0.16587,-0.17163,-0.1896
1.6329,-1.4643,0.16818,0.16767,-0.18796,-0.1669
1.6074,-2.0104,0.16579,0.16389,-0.16664,-0.16609
0.89323,-1.4504,0.22725,0.16536,-0.15414,-0.18842
0.95546,-1.8818,0.28164,0.16628,-0.17077,-0.16805
1.5938,-1.6002,0.22251,0.16077,-0.183,-0.16495
1.5286,-1.644,0.21257,0.16202,-0.15733,-0.18758
0.96956,-1.9401,0.25587,0.15891,-0.13237,-0.18788
1.0263,-1.2467,0.27925,0.15864,-0.1618,-0.1811
1.55,-1.9959,0.20964,0.1621,-0.16134,-0.19975
1.4542,-1.5839,0.16722,0.15844,-0.13172,-0.20049
0.96964,-1.7038,0.24987,0.1572,-0.14423,-0.17827
1.1014,-1.813,0.25134,0.15777,-0.16888,-0.19204
1.3979,-1.3883,0.17,0.15468,-0.16772,-0.21094
1.3869,-1.8641,0.20943,0.15828,-0.14188,-0.19367
1.1204,-1.5835,0.27337,0.15693,-0.14559,-0.19884
1.1673,-1.8876,0.26595,0.15686,-0.17411,-0.21566
1.2764,-1.6551,0.20589,0.1616,-0.16032,-0.21529
1.462,-1.7181,0.23615,0.15955,-0.13458,-0.21365
1.0013,-1.6075,0.27022,0.15792,-0.15921,-0.23126
1.345,-1.5848,0.27288,0.15884,-0.17498,-0.23079
1.1888,-2.0721,0.19191,0.15551,-0.15706,-0.21176
1.376,-1.5167,0.20017,0.16012,-0.13967,-0.22661
1.1105,-1.7286,0.2951,0.16123,-0.16838,-0.24197
1.4496,-1.5414,0.26742,0.16088,-0.18399,-0.22096
0.99783,-1.7832,0.21747,0.16557,-0.162,-0.21988
1.3407,-2.0308,0.29082,0.16297,-0.15714,-0.23235
1.4093,-1.4752,0.32654,0.15937,-0.16921,-0.22935
1.2888,-1.6943,0.27913,0.15994,-0.1767,-0.21897
1.109,-1.4393,0.21885,0.15752,-0.15527,-0.2338
1.4814,-2.0191,0.25984,0.16175,-0.15496,-0.23753
1.3995,-1.7891,0.30433,0.1632,-0.188,-0.2135
1.3224,-1.6712,0.25531,0.16093,-0.19551,-0.22322
1.07,-1.6769,0.18245,0.1631,-0.16559,-0.23324
1.4564,-1.2726,0.21107,0.16193,-0.15729,-0.20436
1.5879,-2.0228,0.27328,0.15825,-0.19071,-0.20423
1.3278,-1.7931,0.23296,0.16102,-0.19023,-0.22012
0.97078,-1.939,0.21221,0.15687,-0.17329,-0.20979
1.5853,-1.4538,0.29453,0.15823,-0.18996,-0.20228
1.6379,-1.2707,0.28766,0.1608,-0.20235,-0.2113
1.1876,-2.0525,0.21637,0.15827,-0.19809,-0.2113
1.1684,-1.8182,0.19448,0.16022,-0.17729,-0.19302
1.6203,-1.8798,0.25465,0.15996,-0.18202,-0.20842
1.4987,-1.4933,0.27697,0.15476,-0.22002,-0.20597
1.2365,-1.5945,0.21553,0.15576,-0.21987,-0.17813
1.1068,-1.8334,0.1721,0.15201,-0.18248,-0.19287
1.6309,-1.8561,0.25286,0.15301,-0.19175,-0.19677
1.4714,-1.9852,0.27466,0.15582,-0.20928,-0.18472
1.2452,-1.5249,0.2131,0.15287,-0.21394,-0.18358
0.89458,-1.7449,0.24354,0.15335,-0.19786,-0.19653
1.6105,-1.6392,0.29626,0.1525,-0.21134,-0.18674
1.5148,-2.1335,0.25725,0.14731,-0.23277,-0.18576
1.1378,-1.9115,0.18404,0.14887,-0.21675,-0.21049
0.99876,-1.502,0.19129,0.14545,-0.18434,-0.19205
1.5287,-1.9109,0.25159,0.14441,-0.19846,-0.1822
1.4654,-1.5753,0.24211,0.14788,-0.23297,-0.1997
1.1276,-2.2296,0.17868,0.14645,-0.2251,-0.19937
1.0999,-1.796,0.20722,0.1485,-0.1928,-0.19275
1.3348,-1.712,0.26765,0.14945,-0.20678,-0.20558
1.5345,-1.7734,0.22805,0.14393,-0.2207,-0.21494
1.0073,-1.7081,0.17403,0.14582,-0.21713,-0.19675
0.98732,-2.089,0.25582,0.14539,-0.19762,-0.20808
1.4025,-1.7253,0.29845,0.1472,-0.20728,-0.22905
1.495,-1.9241,0.20716,0.15342,-0.23303,-0.20915
1.0027,-1.547,0.18351,0.1519,-0.21308,-0.20696
0.98274,-1.7621,0.21285,0.15301,-0.18912,-0.2209
1.2463,-2.0223,0.25314,0.15603,-0.20727,-0.21922
1.422,-1.6227,0.21243,0.15111,-0.22459,-0.21513
1.1816,-1.9353,0.18965,0.15351,-0.20876,-0.22928
0.92894,-1.4354,0.25059,0.15643,-0.18863,-0.2372
1.0881,-1.8784,0.27247,0.15529,-0.20653,-0.21288
1.4501,-1.8544,0.19,0.15948,-0.2155,-0.2247
1.2438,-1.6943,0.18747,0.1582,-0.19561,-0.24376
0.94634,-1.8048,0.26981,0.159,-0.18766,-0.22194
1.0351,-1.4251,0.26045,0.16354,-0.20506,-0.22234
1.4339,-1.9387,0.1677,0.15926,-0.22643,-0.23446
1.2338,-1.5724,0.16318,0.15616,-0.20136,-0.22605
1.0094,-1.8608,0.21277,0.15826,-0.1894,-0.21769
0.991,-1.6739,0.21094,0.15714,-0.2147,-0.22896
1.4621,-1.5312,0.16831,0.16189,-0.23158,-0.23426
1.2967,-1.9177,0.18604,0.16105,-0.2063,-0.21172
1.0339,-1.4423,0.25824,0.15832,-0.19418,-0.2232
0.93919,-1.9143,0.21718,0.1613,-0.21948,-0.23279
1.6425,-1.5923,0.14314,0.15804,-0.2237,-0.21474
1.1427,-1.599,0.21224,0.15508,-0.19844,-0.21478
1.1847,-1.8312,0.26508,0.15843,-0.19905,-0.22386
1.0414,-1.4795,0.20355,0.1554,-0.22009,-0.20779
1.5295,-1.9434,0.16088,0.15758,-0.23274,-0.2004
1.3627,-1.578,0.18866,0.15643,-0.20716,-0.21355
1.2138,-1.7761,0.21893,0.15225,-0.20354,-0.21337
1.0049,-1.7309,0.20804,0.1541,-0.22892,-0.19243
1.5332,-1.5771,0.16589,0.15266,-0.23293,-0.21199
1.5937,-1.855,0.22573,0.14767,-0.20356,-0.21197
1.067,-1.7263,0.25868,0.15049,-0.20448,-0.19074
1.1637,-1.8755,0.17612,0.14645,-0.22966,-0.19672
1.6459,-1.6431,0.15291,0.14719,-0.2257,-0.19589
1.4867,-1.8807,0.22311,0.14818,-0.20074,-0.17634
1.2301,-1.5918,0.23506,0.14377,-0.20593,-0.17765
1.2138,-1.8221,0.17194,0.14376,-0.23097,-0.19641
1.619,-2.0056,0.15964,0.14248,-0.23962,-0.18423
1.574,-1.652,0.20981,0.13808,-0.21875,-0.17606
1.2018,-2.0426,0.22038,0.14293,-0.22356,-0.19552
1.2242,-1.4692,0.17857,0.14029,-0.24467,-0.18113
1.7105,-1.8482,0.20889,0.1404,-0.23647,-0.17046
1.4415,-1.9523,0.27204,0.14197,-0.20342,-0.17838
1.2607,-1.8671,0.24447,0.13749,-0.22138,-0.17251
1.3862,-1.8628,0.16149,0.13844,-0.23858,-0.15481
1.6075,-1.4582,0.20132,0.13843,-0.23477,-0.17135
1.3457,-1.9816,0.26402,0.1355,-0.20598,-0.18852
1.3847,-1.8857,0.23557,0.14092,-0.21982,-0.172
1.3937,-1.986,0.19455,0.1382,-0.24934,-0.18236
1.5053,-1.5962,0.20465,0.13713,-0.24569,-0.19314
1.2838,-1.4797,0.23593,0.13956,-0.22504,-0.16763
1.5457,-2.031,0.21639,0.13681,-0.23018,-0.1733
1.251,-1.7735,0.19533,0.13687,-0.23902,-0.18868
1.3317,-2.0304,0.24794,0.13902,-0.21892,-0.17444
1.4479,-1.4834,0.30219,0.13607,-0.19493,-0.17131
1.5513,-1.4967,0.22312,0.14146,-0.21303,-0.1964
1.1722,-1.8367,0.17022,0.14052,-0.22611,-0.20539
1.1561,-1.7834,0.23176,0.13862,-0.21438,-0.1944
1.4191,-1.9895,0.26437,0.14327,-0.19838,-0.20846
1.5925,-1.4359,0.24658,0.1428,-0.22015,-0.20931
1.2179,-1.5079,0.20545,0.14412,-0.24548,-0.18223
1.0348,-1.5268,0.25787,0.14786,-0.22033,-0.19564
1.4507,-1.9342,0.28121,0.14736,-0.19575,-0.20515
1.5846,-1.8586,0.25361,0.1526,-0.21328,-0.19875
1.0614,-1.3516,0.23363,0.15437,-0.21758,-0.19455
1.0691,-1.7124,0.30875,0.15141,-0.18053,-0.22014
1.6322,-1.2985,0.31352,0.15537,-0.16879,-0.219
1.5326,-1.992,0.22337,0.15572,-0.19872,-0.20412
0.93706,-1.7172,0.19077,0.15609,-0.1987,-0.21134
1.0675,-1.5548,0.25307,0.16039,-0.18202,-0.20771
1.7094,-1.6404,0.26417,0.15989,-0.18193,-0.17576
1.6319,-1.1973,0.20351,0.16137,-0.21113,-0.1888
0.92843,-2.0906,0.20168,0.16486,-0.20603,-0.19792
0.92437,-1.6972,0.25317,0.16101,-0.16811,-0.18892
1.7476,-1.5815,0.25412,0.16223,-0.1678,-0.18874
1.7159,-1.5341,0.18233,0.16211,-0.19294,-0.20987
0.88725,-1.4192,0.18935,0.16058,-0.17506,-0.19624
0.96979,-1.9995,0.27212,0.16626,-0.14988,-0.18015
1.7865,-1.6224,0.21107,0.16732,-0.16625,-0.19121
1.6405,-1.773,0.15752,0.16445,-0.18224,-0.17954
0.97295,-1.3956,0.18516,0.16747,-0.17265,-0.15824
1.0064,-1.6892,0.26782,0.16434,-0.16768,-0.17283
1.7479,-1.8647,0.22726,0.16605,-0.1955,-0.17917
1.575,-1.661,0.20667,0.16971,-0.20253,-0.1695
1.0244,-1.9226,0.22616,0.16817,-0.1675,-0.18009
1.1145,-1.3457,0.29004,0.17165,-0.14616,-0.18906
1.819,-1.8343,0.25061,0.1744,-0.17033,-0.16358
1.3528,-1.784,0.19965,0.17006,-0.17768,-0.15802
1.0312,-1.7778,0.23962,0.17256,-0.14716,-0.17531
1.376,-1.7727,0.28307,0.17181,-0.15513,-0.15155
1.5946,-1.4803,0.19055,0.17144,-0.18318,-0.15029
1.4402,-1.9179,0.16729,0.1763,-0.18168,-0.1696
1.0301,-1.6373,0.23742,0.17513,-0.1636,-0.17137
1.4579,-1.9475,0.27029,0.17724,-0.17953,-0.16873
1.4115,-1.6677,0.20865,0.18177,-0.19879,-0.18435
1.4127,-1.6213,0.19695,0.17813,-0.18503,-0.18271
1.1092,-1.842,0.22694,0.17736,-0.14623,-0.15682
1.425,-1.5733,0.23773,0.17697,-0.15874,-0.17684
1.4135,-1.9993,0.18521,0.17517,-0.183,-0.18579
1.2647,-1.5586,0.17226,0.18063,-0.16955,-0.16545
1.2647,-1.7701,0.23269,0.18211,-0.1563,-0.1764
1.3848,-1.725,0.22209,0.18064,-0.18949,-0.19016
1.2618,-1.6126,0.13777,0.1847,-0.19637,-0.18849
1.2293,-1.8852,0.18549,0.18297,-0.17481,-0.19125
1.3842,-1.5664,0.26834,0.18189,-0.17832,-0.20564
1.298,-1.8025,0.24942,0.18456,-0.19868,-0.19529
1.1139,-1.4966,0.2193,0.18177,-0.20202,-0.17734
1.2314,-1.775,0.22911,0.18429,-0.17238,-0.20286
1.3818,-1.7246,0.27225,0.18741,-0.15556,-0.20847
1.2529,-1.6393,0.253,0.18607,-0.18108,-0.18866
1.0726,-1.7157,0.20275,0.18915,-0.18486,-0.20076
1.1936,-1.488,0.2111,0.18996,-0.15982,-0.21302
1.404,-1.9079,0.27375,0.1847,-0.16842,-0.20512
1.2056,-1.4001,0.19229,0.18649,-0.19761,-0.21075
1.0613,-1.7955,0.1475,0.18351,-0.18884,-0.22333
1.177,-1.7156,0.21763,0.18412,-0.16364,-0.2163
1.4662,-1.4691,0.25924,0.18862,-0.17621,-0.20078
1.1204,-1.8954,0.23011,0.186,-0.19741,-0.21996
0.79526,-1.2378,0.19849,0.18586,-0.17585,-0.22353
1.4345,-1.9129,0.22903,0.18641,-0.15149,-0.20193
1.5293,-1.6134,0.25036,0.18138,-0.15587,-0.21391
1.028,-1.5797,0.20978,0.18159,-0.17722,-0.21948
0.74508,-1.8416,0.1556,0.17953,-0.1643,-0.21141
1.4663,-1.3377,0.22629,0.1758,-0.14384,-0.21207
1.5896,-1.67,0.24757,0.17911,-0.17316,-0.22683
1.0159,-1.5491,0.16449,0.17767,-0.18536,-0.21895
0.77477,-1.8832,0.18236,0.17769,-0.15961,-0.20348
