thanhndv212/identification/identification/src/thanh/pos_read_data.csv
Joint_1,Joint_2,Joint_3,Joint_4,Joint_5,Joint_6
3.1958E-05,50.265,-70.685,0,0,-0.00028762
3.1958E-05,50.265,-70.685,0,0,-0.00028762
3.1958E-05,50.265,-70.685,0,0,-0.00028762
3.1958E-05,50.265,-70.685,0,0,-0.00028762
3.1958E-05,50.265,-70.685,0,0,-0.00028762
3.1958E-05,50.265,-70.685,0,0,-0.00028762
3.1958E-05,50.265,-70.685,0,0,-0.00028762
3.1958E-05,50.265,-70.685,0,0,-0.00028762
3.1958E-05,50.265,-70.685,0,0,-0.00028762
3.1958E-05,50.265,-70.685,0,0,-0.00028762
3.1958E-05,50.265,-70.685,0,0,-0.00028762
3.1958E-05,50.265,-70.685,0,0,-0.00028762
3.1958E-05,50.265,-70.685,0,0,-0.00028762
3.1958E-05,50.265,-70.685,0,0,-0.00028762
3.1958E-05,50.265,-70.685,0,0,-0.00028762
3.1958E-05,50.265,-70.685,0,0,-0.00028762
3.1958E-05,50.265,-70.685,0,9.5874E-05,-0.00028762
3.1958E-05,50.265,-70.685,0,0,-0.0003835
3.1958E-05,50.265,-70.685,0,9.5874E-05,-0.00028762
3.1958E-05,50.265,-70.685,0,0,-0.00028762
3.1958E-05,50.265,-70.685,0,0,-0.00028762
3.1958E-05,50.265,-70.685,0,0,-0.00028762
3.1958E-05,50.265,-70.685,0,0,-0.00028762
3.1958E-05,50.265,-70.685,0,0,-0.00028762
3.1958E-05,50.265,-70.685,0,0,-0.00028762
3.1958E-05,50.265,-70.685,0,0,-0.00028762
3.1958E-05,50.265,-70.685,0,0,-0.00028762
3.1958E-05,50.265,-70.685,0,0,-0.00028762
3.1958E-05,50.265,-70.685,0,0,-0.00028762
3.1958E-05,50.265,-70.685,0,0,-0.00028762
3.1958E-05,50.265,-70.685,0,0,-0.00028762
3.1958E-05,50.265,-70.685,0,0,-0.00028762
3.1958E-05,50.265,-70.685,0,0,-0.00028762
3.1958E-05,50.265,-70.685,0,9.5874E-05,-0.00028762
3.1958E-05,50.265,-70.685,0,0,-0.00028762
3.1958E-05,50.265,-70.685,0,0,-0.00028762
3.1958E-05,50.265,-70.685,0,0,-0.00028762
3.1958E-05,50.265,-70.685,0,0,-0.00028762
3.1958E-05,50.265,-70.685,0,0,-0.00028762
3.1958E-05,50.265,-70.685,0,0,-0.00028762
3.1958E-05,50.265,-70.685,0,0,-0.00028762
3.1958E-05,50.265,-70.685,0,0,-0.00028762
3.1958E-05,50.265,-70.685,0,0,-0.00028762
3.1958E-05,50.265,-70.685,0,0,-0.00028762
3.1958E-05,50.265,-70.685,0,0,-0.00028762
3.1958E-05,50.265,-70.685,0,0,-0.00028762
3.1958E-05,50.265,-70.685,0,0,-0.00028762
3.1958E-05,50.265,-70.685,0,0,-0.00028762
3.1958E-05,50.265,-70.685,0,0,-0.00028762
3.1958E-05,50.265,-70.685,0,0,-0.00028762
3.1958E-05,50.265,-70.685,0,0,-0.00028762
3.1958E-05,50.265,-70.685,0,0,-0.00028762
3.1958E-05,50.265,-70.685,0,9.5874E-05,-0.00028762
3.1958E-05,50.265,-70.685,0,0,-0.00028762
3.1958E-05,50.265,-70.685,0,0,-0.00028762
3.1958E-05,50.265,-70.685,0,0,-0.00028762
3.1958E-05,50.265,-70.685,0,0,-0.00028762
3.1958E-05,50.265,-70.685,0,0,-0.00028762
3.1958E-05,50.265,-70.685,0,0,-0.00028762
3.1958E-05,50.265,-70.686,0,0,-0.00028762
3.1958E-05,50.265,-70.685,0,0,-0.00028762
3.1958E-05,50.265,-70.685,0,0,-0.00028762
3.1958E-05,50.265,-70.685,0,0,-0.00028762
3.1958E-05,50.265,-70.685,0,0,-0.00028762
3.1958E-05,50.265,-70.685,0,0,-0.00028762
3.1958E-05,50.265,-70.685,0,0,-0.00028762
3.1958E-05,50.265,-70.686,0,0,-0.00028762
3.1958E-05,50.265,-70.685,0,0,-0.00028762
3.1958E-05,50.265,-70.685,0,0,-0.00028762
3.1958E-05,50.265,-70.685,0,0,-0.00028762
3.1958E-05,50.265,-70.685,0,0,-0.00028762
3.1958E-05,50.265,-70.685,0,0,-0.00028762
3.1958E-05,50.265,-70.685,0,0,-0.00028762
3.1958E-05,50.265,-70.685,0,0,-0.00028762
3.1958E-05,50.265,-70.685,0,0,-0.00028762
3.1958E-05,50.265,-70.685,0,0,-0.00028762
3.1958E-05,50.265,-70.685,0,0,-0.00028762
3.1958E-05,50.265,-70.685,0,0,-0.00028762
3.1958E-05,50.265,-70.685,0,0,-0.00028762
3.1958E-05,50.265,-70.685,0,0,-0.00028762
3.1958E-05,50.265,-70.685,0,0,-0.00028762
3.1958E-05,50.265,-70.685,0,0,-0.00028762
3.1958E-05,50.265,-70.685,0,0,-0.00028762
3.1958E-05,50.265,-70.685,0,0,-0.00028762
3.1958E-05,50.265,-70.685,0,0,-0.00028762
3.1958E-05,50.265,-70.685,0,0,-0.00028762
3.1958E-05,50.265,-70.685,0,0,-0.00028762
3.1958E-05,50.265,-70.685,0,0,-0.00028762
3.1958E-05,50.265,-70.686,0,0,-0.00028762
3.1958E-05,50.265,-70.685,0,9.5874E-05,-0.00028762
3.1958E-05,50.265,-70.685,0,0,-0.00028762
3.1958E-05,50.265,-70.685,0,0,-0.00028762
3.1958E-05,50.265,-70.685,0,0,-0.00028762
3.1958E-05,50.265,-70.685,0,0,-0.00028762
3.1958E-05,50.265,-70.685,0,0,-0.00028762
3.1958E-05,50.265,-70.686,0,0,-0.00028762
3.1958E-05,50.265,-70.685,0,0,-0.00028762
3.1958E-05,50.265,-70.685,0,0,-0.00028762
3.1958E-05,50.265,-70.685,0,0,-0.00028762
3.1958E-05,50.265,-70.685,0,0,-0.00028762
3.1958E-05,50.265,-70.685,0,0,-0.00028762
3.1958E-05,50.265,-70.685,0,0,-0.00028762
3.1958E-05,50.265,-70.685,0,0,-0.00028762
3.1958E-05,50.265,-70.685,0,0,-0.00028762
3.1958E-05,50.265,-70.685,0,0,-0.0003835
3.1958E-05,50.265,-70.685,0,0,-0.00028762
3.1958E-05,50.265,-70.685,0,0,-0.00028762
3.1958E-05,50.265,-70.686,0,0,-0.00028762
3.1958E-05,50.265,-70.685,0,0,-0.00028762
3.1958E-05,50.265,-70.685,0,0,-0.00028762
3.1958E-05,50.265,-70.685,0,0,-0.00028762
3.1958E-05,50.265,-70.685,0,0,-0.00028762
3.1958E-05,50.265,-70.685,0,0,-0.00028762
3.1958E-05,50.265,-70.685,0,0,-0.00028762
3.1958E-05,50.265,-70.685,0,0,-0.00028762
3.1958E-05,50.265,-70.685,0,0,-0.0003835
3.1958E-05,50.265,-70.685,0,0,-0.00028762
3.1958E-05,50.265,-70.685,0,0,-0.00028762
3.1958E-05,50.265,-70.685,0,0,-0.00028762
3.1958E-05,50.265,-70.685,0,0,-0.0003835
3.1958E-05,50.265,-70.685,0,9.5874E-05,-0.00028762
3.1958E-05,50.265,-70.686,0,9.5874E-05,-0.00028762
3.1958E-05,50.265,-70.686,0,9.5874E-05,-0.00028762
3.1958E-05,50.265,-70.685,0,0,-0.00028762
3.1958E-05,50.265,-70.686,0,0,-0.00028762
3.1958E-05,50.265,-70.686,0,9.5874E-05,-0.00028762
3.1958E-05,50.265,-70.686,0,0,-0.00028762
3.1958E-05,50.265,-70.685,0,0,-0.00028762
3.1958E-05,50.265,-70.686,0,0,-0.00028762
3.1958E-05,50.265,-70.685,0,9.5874E-05,-0.00028762
3.1958E-05,50.265,-70.686,0,9.5874E-05,-0.00028762
3.1958E-05,50.265,-70.685,0,0,-0.00028762
3.1958E-05,50.265,-70.686,0,0,-0.00028762
3.1958E-05,50.265,-70.685,0,0,-0.00028762
3.1958E-05,50.265,-70.685,0,0,-0.00028762
3.1958E-05,50.265,-70.685,0,0,-0.00028762
3.1958E-05,50.265,-70.686,0,0,-0.00028762
3.1958E-05,50.265,-70.685,0,0,-0.00028762
3.1958E-05,50.265,-70.686,0,0,-0.00028762
3.1958E-05,50.265,-70.685,0,0,-0.00028762
3.1958E-05,50.265,-70.686,0,0,-0.00028762
3.1958E-05,50.265,-70.686,0,0,-0.00028762
3.1958E-05,50.265,-70.686,0,0,-0.00028762
3.1958E-05,50.265,-70.686,0,0,-0.00028762
3.1958E-05,50.265,-70.686,0,0,-0.00028762
3.1958E-05,50.265,-70.685,0,0,-0.00028762
3.1958E-05,50.265,-70.686,0,9.5874E-05,-0.00028762
3.1958E-05,50.265,-70.686,0,0,-0.00028762
3.1958E-05,50.265,-70.685,0,0,-0.00028762
3.1958E-05,50.265,-70.685,0,0,-0.00028762
3.1958E-05,50.265,-70.686,0,0,-0.00028762
3.1958E-05,50.265,-70.686,0,0,-0.00028762
3.1958E-05,50.265,-70.685,0,0,-0.00028762
3.1958E-05,50.265,-70.686,0,0,-0.00028762
3.1958E-05,50.265,-70.686,0,0,-0.00028762
3.1958E-05,50.265,-70.686,0,0,-0.00028762
3.1958E-05,50.265,-70.685,0,0,-0.00028762
3.1958E-05,50.265,-70.685,0,0,-0.00028762
3.1958E-05,50.265,-70.686,0,0,-0.00028762
3.1958E-05,50.265,-70.686,0,0,-0.00028762
3.1958E-05,50.265,-70.686,0,0,-0.00028762
3.1958E-05,50.265,-70.685,0,0,-0.00028762
3.1958E-05,50.265,-70.686,0,0,-0.00028762
3.1958E-05,50.265,-70.686,0,0,-0.00028762
3.1958E-05,50.265,-70.686,0,0,-0.00028762
3.1958E-05,50.265,-70.686,0,9.5874E-05,-0.00028762
3.1958E-05,50.265,-70.686,0,9.5874E-05,-0.0003835
3.1958E-05,50.265,-70.685,0,0,-0.00028762
3.1958E-05,50.265,-70.685,0,0,-0.00028762
3.1958E-05,50.265,-70.685,0,0,-0.00028762
3.1958E-05,50.265,-70.685,0,0,-0.00028762
3.1958E-05,50.265,-70.685,0,0,-0.00028762
3.1958E-05,50.265,-70.686,0,0,-0.00028762
3.1958E-05,50.265,-70.685,0,0,-0.00028762
3.1958E-05,50.265,-70.686,0,0,-0.00028762
3.1958E-05,50.265,-70.685,0,9.5874E-05,-0.00028762
3.1958E-05,50.265,-70.686,0,0,-0.00028762
3.1958E-05,50.265,-70.686,0,0,-0.00028762
3.1958E-05,50.265,-70.686,0,0,-0.00028762
3.1958E-05,50.265,-70.686,0,0,-0.00028762
3.1958E-05,50.265,-70.686,0,9.5874E-05,-0.00028762
3.1958E-05,50.265,-70.685,0,0,-0.00028762
3.1958E-05,50.265,-70.685,0,0,-0.00028762
3.1958E-05,50.265,-70.686,0,0,-0.00028762
3.1958E-05,50.265,-70.686,0,0,-0.00028762
3.1958E-05,50.265,-70.685,0,0,-0.00028762
3.1958E-05,50.265,-70.686,0,0,-0.00028762
3.1958E-05,50.265,-70.686,0,0,-0.00028762
3.1958E-05,50.265,-70.685,0,0,-0.00028762
3.1958E-05,50.265,-70.685,0,0,-0.00028762
3.1958E-05,50.265,-70.686,0,0,-0.00028762
3.1958E-05,50.265,-70.686,0,0,-0.00028762
3.1958E-05,50.265,-70.686,0,0,-0.00028762
3.1958E-05,50.265,-70.686,0,0,-0.00028762
3.1958E-05,50.265,-70.686,0,0,-0.00028762
3.1958E-05,50.265,-70.686,0,0,-0.00028762
3.1958E-05,50.265,-70.686,0,0,-0.00028762
3.1958E-05,50.265,-70.685,0,0,-0.00028762
3.1958E-05,50.265,-70.686,0,0,-0.00028762
3.1958E-05,50.265,-70.686,0,0,-0.00028762
3.1958E-05,50.265,-70.686,0,9.5874E-05,-0.00028762
3.1958E-05,50.265,-70.686,0,9.5874E-05,-0.00028762
3.1958E-05,50.265,-70.685,0,9.5874E-05,-0.00028762
3.1958E-05,50.265,-70.685,0,0,-0.00028762
3.1958E-05,50.265,-70.686,0,0,-0.00028762
3.1958E-05,50.265,-70.686,0,9.5874E-05,-0.00028762
3.1958E-05,50.265,-70.686,0,0,-0.00028762
3.1958E-05,50.265,-70.686,0,0,-0.0003835
3.1958E-05,50.265,-70.686,0,0,-0.00028762
3.1958E-05,50.265,-70.686,0,9.5874E-05,-0.00028762
3.1958E-05,50.265,-70.686,0,9.5874E-05,-0.00028762
3.1958E-05,50.265,-70.686,0,9.5874E-05,-0.00028762
3.1958E-05,50.265,-70.686,0,0,-0.00028762
3.1958E-05,50.265,-70.686,0,0,-0.00028762
3.1958E-05,50.265,-70.686,0,0,-0.00028762
3.1958E-05,50.265,-70.686,0,0,-0.00028762
3.1958E-05,50.265,-70.686,0,0,-0.00028762
3.1958E-05,50.265,-70.686,0,0,-0.00028762
3.1958E-05,50.265,-70.686,0,9.5874E-05,-0.00028762
3.1958E-05,50.265,-70.686,0,0,-0.00028762
3.1958E-05,50.265,-70.686,0,0,-0.00028762
3.1958E-05,50.265,-70.686,0,0,-0.00028762
3.1958E-05,50.265,-70.686,0,0,-0.00028762
3.1958E-05,50.265,-70.686,0,0,-0.00028762
3.1958E-05,50.265,-70.686,0,0,-0.00028762
3.1958E-05,50.265,-70.686,0,0,-0.00028762
3.1958E-05,50.265,-70.686,0,0,-0.00028762
3.1958E-05,50.265,-70.686,0,9.5874E-05,-0.00028762
3.1958E-05,50.265,-70.686,0,0,-0.00028762
3.1958E-05,50.265,-70.686,0,0,-0.00028762
3.1958E-05,50.265,-70.686,0,0,-0.00028762
3.1958E-05,50.265,-70.686,0,0,-0.00028762
3.1958E-05,50.265,-70.686,0,0,-0.00028762
3.1958E-05,50.265,-70.686,0,0,-0.00028762
3.1958E-05,50.265,-70.685,0,0,-0.00028762
3.1958E-05,50.265,-70.686,0,0,-0.00028762
3.1958E-05,50.265,-70.686,0,9.5874E-05,-0.00028762
3.1958E-05,50.265,-70.686,0,0,-0.00028762
3.1958E-05,50.265,-70.686,0,0,-0.00028762
3.1958E-05,50.265,-70.686,0,0,-0.00028762
3.1958E-05,50.265,-70.686,0,0,-0.0003835
3.1958E-05,50.265,-70.686,0,9.5874E-05,-0.00028762
3.1958E-05,50.265,-70.686,0,9.5874E-05,-0.00028762
3.1958E-05,50.265,-70.686,0,0,-0.00028762
3.1958E-05,50.265,-70.686,0,0,-0.00028762
3.1958E-05,50.265,-70.686,0,0,-0.00028762
3.1958E-05,50.265,-70.686,0,0,-0.00028762
3.1958E-05,50.265,-70.686,0,0,-0.00028762
3.1958E-05,50.265,-70.686,0,0,-0.00028762
3.1958E-05,50.265,-70.686,0,0,-0.00028762
3.1958E-05,50.265,-70.686,0,0,-0.00028762
3.1958E-05,50.265,-70.686,0,0,-0.00028762
3.1958E-05,50.265,-70.686,0,9.5874E-05,-0.00028762
3.1958E-05,50.265,-70.686,0,0,-0.00028762
3.1958E-05,50.265,-70.686,0,0,-0.00028762
3.1958E-05,50.265,-70.686,0,0,-0.00028762
3.1958E-05,50.265,-70.686,0,0,-0.00028762
3.1958E-05,50.265,-70.686,0,0,-0.00028762
3.1958E-05,50.265,-70.686,0,9.5874E-05,-0.00028762
3.1958E-05,50.265,-70.686,0,0,-0.00028762
3.1958E-05,50.265,-70.686,0,0,-0.00028762
3.1958E-05,50.265,-70.686,0,0,-0.00028762
3.1958E-05,50.265,-70.686,0,0,-0.00028762
3.1958E-05,50.265,-70.686,0,0,-0.00028762
3.1958E-05,50.265,-70.685,0,0,-0.00028762
3.1958E-05,50.265,-70.685,0,0,-0.00028762
3.1958E-05,50.265,-70.686,0,0,-0.00028762
3.1958E-05,50.265,-70.686,0,0,-0.00028762
3.1958E-05,50.265,-70.686,0,0,-0.00028762
3.1958E-05,50.265,-70.686,0,0,-0.00028762
3.1958E-05,50.265,-70.686,0,0,-0.00028762
3.1958E-05,50.265,-70.686,0,0,-0.00028762
3.1958E-05,50.265,-70.686,0,0,-0.00028762
3.1958E-05,50.265,-70.686,0,0,-0.00028762
3.1958E-05,50.265,-70.686,0,9.5874E-05,-0.00028762
3.1958E-05,50.265,-70.686,0,0,-0.00028762
3.1958E-05,50.265,-70.686,0,0,-0.00028762
3.1958E-05,50.265,-70.686,0,0,-0.00028762
3.1958E-05,50.265,-70.686,0,0,-0.00028762
3.1958E-05,50.265,-70.686,0,0,-0.00028762
3.1958E-05,50.265,-70.686,0,0,-0.00028762
3.1958E-05,50.265,-70.686,0,0,-0.00028762
3.1958E-05,50.265,-70.685,0,0,-0.00028762
3.1958E-05,50.265,-70.686,0,0,-0.00028762
3.1958E-05,50.265,-70.685,0,0,-0.00028762
6.3916E-05,50.265,-70.686,0,0,-0.00028762
6.3916E-05,50.265,-70.685,0,0,-0.00028762
6.3916E-05,50.265,-70.686,0,0,-0.00028762
6.3916E-05,50.265,-70.685,0,0,-0.00028762
9.5874E-05,50.265,-70.685,0,0,-0.00028762
9.5874E-05,50.265,-70.685,0,0,-0.00028762
9.5874E-05,50.265,-70.685,9.5874E-05,0,-0.00028762
9.5874E-05,50.265,-70.685,0,0,-0.00028762
0.00012783,50.265,-70.685,0,0,-0.00028762
0.00015979,50.265,-70.685,9.5874E-05,0,-0.00028762
0.00019175,50.265,-70.685,9.5874E-05,0,-0.00028762
0.00022371,50.265,-70.685,9.5874E-05,0,-0.00028762
0.00025566,50.265,-70.685,9.5874E-05,0,-0.00028762
0.00028762,50.265,-70.685,9.5874E-05,0,-0.0003835
0.00031958,50.265,-70.685,9.5874E-05,0,-0.00028762
0.00035154,50.265,-70.685,9.5874E-05,0,-0.00028762
0.0003835,50.265,-70.685,9.5874E-05,0,-0.00028762
0.00041545,50.265,-70.685,9.5874E-05,0,-0.00028762
0.00047937,50.265,-70.685,9.5874E-05,0,-0.00028762
0.00051133,50.265,-70.685,9.5874E-05,0,-0.00028762
0.00057524,50.265,-70.685,9.5874E-05,0,-0.0003835
0.00063916,50.264,-70.685,9.5874E-05,0,-0.0003835
0.00070307,50.264,-70.685,9.5874E-05,0,-0.00028762
0.00076699,50.264,-70.685,0.00019175,0,-0.00028762
0.00083091,50.264,-70.685,0.00019175,0,-0.0003835
0.00089482,50.264,-70.685,0.00019175,0,-0.00028762
0.0009907,50.264,-70.685,0.00019175,0,-0.00028762
0.0010546,50.264,-70.685,0.00019175,0,-0.00028762
0.0011505,50.264,-70.685,0.00019175,0,-0.00028762
0.0012144,50.264,-70.685,0.00019175,0,-0.00028762
0.0013103,50.263,-70.685,0.00028762,0,-0.00028762
0.0014061,50.263,-70.685,0.00028762,0,-0.00028762
0.001502,50.263,-70.685,0.00028762,0,-0.00028762
0.0015979,50.263,-70.685,0.00028762,0,-0.00028762
0.0017257,50.263,-70.685,0.0003835,0,-0.00028762
0.0018216,50.263,-70.685,0.0003835,0,-0.00028762
0.0019494,50.262,-70.685,0.0003835,0,-0.00028762
0.0020773,50.262,-70.685,0.00047937,0,-0.0003835
0.0022371,50.262,-70.685,0.00047937,0,-0.0003835
0.0023968,50.262,-70.685,0.00057524,0,-0.00028762
0.0025566,50.262,-70.685,0.00057524,0,-0.0003835
0.0027484,50.261,-70.685,0.00067112,0,-0.00028762
0.0029401,50.261,-70.684,0.00067112,0,-0.0003835
0.0031319,50.261,-70.684,0.00067112,0,-0.00028762
0.0033556,50.261,-70.684,0.00076699,0,-0.00028762
0.0035793,50.261,-70.684,0.00076699,0,-0.0003835
0.003835,50.26,-70.684,0.00086286,0,-0.0003835
0.0040906,50.26,-70.684,0.00086286,0,-0.0003835
0.0043463,50.26,-70.684,0.00095874,0,-0.0003835
0.0046339,50.26,-70.684,0.0010546,-9.5874E-05,-0.0003835
0.0049215,50.259,-70.684,0.0011505,-9.5874E-05,-0.0003835
0.0052411,50.259,-70.684,0.0011505,-9.5874E-05,-0.0003835
0.0055607,50.259,-70.684,0.0012464,-9.5874E-05,-0.0003835
0.0058803,50.258,-70.683,0.0012464,-9.5874E-05,-0.0003835
0.0062318,50.258,-70.683,0.0013422,-9.5874E-05,-0.0003835
0.0065833,50.258,-70.683,0.0014381,-9.5874E-05,-0.0003835
0.0069668,50.258,-70.682,0.001534,-9.5874E-05,-0.0003835
0.0073184,50.257,-70.682,0.0016299,-9.5874E-05,-0.0003835
0.0077338,50.257,-70.681,0.0017257,-9.5874E-05,-0.0003835
0.0081173,50.257,-70.681,0.0018216,-9.5874E-05,-0.0003835
0.0085328,50.256,-70.68,0.0020133,-9.5874E-05,-0.0003835
0.0089482,50.256,-70.68,0.0021092,-9.5874E-05,-0.0003835
0.0093637,50.256,-70.679,0.0022051,-9.5874E-05,-0.0003835
0.0098111,50.255,-70.678,0.0023968,-9.5874E-05,-0.0003835
0.010258,50.255,-70.678,0.0024927,-0.00019175,-0.0003835
0.010706,50.254,-70.677,0.0025886,-0.00019175,-0.0003835
0.011185,50.254,-70.676,0.0027803,-0.00019175,-0.0003835
0.011633,50.254,-70.675,0.0029721,-0.00019175,-0.0003835
0.012112,50.253,-70.675,0.0031638,-0.00019175,-0.0003835
0.012623,50.253,-70.674,0.0032597,-0.00019175,-0.00047937
0.013103,50.252,-70.673,0.0034515,-0.00019175,-0.0003835
0.013582,50.252,-70.673,0.0036432,-0.00019175,-0.0003835
0.014093,50.251,-70.672,0.003835,-0.00019175,-0.00047937
0.014637,50.251,-70.671,0.0041226,-0.00019175,-0.00047937
0.015148,50.25,-70.67,0.0042184,-0.00028762,-0.00047937
0.015691,50.25,-70.669,0.0044102,-0.00028762,-0.00047937
0.016235,50.249,-70.668,0.0046978,-0.00028762,-0.00047937
0.01681,50.249,-70.668,0.0048896,-0.00028762,-0.00047937
0.017353,50.248,-70.667,0.0051772,-0.0003835,-0.00047937
0.01796,50.248,-70.666,0.0053689,-0.0003835,-0.00047937
0.018536,50.247,-70.665,0.0056566,-0.0003835,-0.00047937
0.019143,50.247,-70.664,0.0059442,-0.0003835,-0.00057524
0.01975,50.246,-70.664,0.0063277,-0.00047937,-0.00057524
0.020357,50.246,-70.663,0.0066153,-0.00047937,-0.00067112
0.020996,50.245,-70.662,0.0069988,-0.00047937,-0.00067112
0.021636,50.244,-70.661,0.0072864,-0.00057524,-0.00067112
0.022275,50.244,-70.66,0.0077658,-0.00057524,-0.00067112
0.022946,50.243,-70.659,0.0081493,-0.00067112,-0.00067112
0.023617,50.243,-70.658,0.0086286,-0.00067112,-0.00067112
0.02432,50.242,-70.657,0.0090121,-0.00076699,-0.00067112
0.025055,50.241,-70.656,0.0094915,-0.00076699,-0.00076699
0.025726,50.241,-70.655,0.0099709,-0.00076699,-0.00076699
0.026461,50.24,-70.654,0.01045,-0.00086286,-0.00076699
0.027196,50.239,-70.653,0.01093,-0.00086286,-0.00076699
0.027963,50.239,-70.652,0.011505,-0.00095874,-0.00076699
0.02873,50.238,-70.651,0.011984,-0.0010546,-0.00086286
0.029529,50.237,-70.65,0.012559,-0.0011505,-0.00086286
0.030328,50.236,-70.649,0.013135,-0.0012464,-0.00086286
0.031127,50.236,-70.648,0.013806,-0.0013422,-0.00086286
0.03199,50.235,-70.647,0.014573,-0.0014381,-0.00095874
0.032853,50.234,-70.645,0.01534,-0.001534,-0.0010546
0.033716,50.233,-70.644,0.016203,-0.0016299,-0.0010546
0.03461,50.233,-70.643,0.017257,-0.0017257,-0.0011505
0.035505,50.232,-70.642,0.018408,-0.0018216,-0.0012464
0.036432,50.231,-70.641,0.019558,-0.0019175,-0.0012464
0.037359,50.23,-70.64,0.0209,-0.0021092,-0.0013422
0.038318,50.229,-70.638,0.022243,-0.002301,-0.001534
0.039276,50.228,-70.637,0.023681,-0.0023968,-0.0016299
0.040299,50.227,-70.636,0.025311,-0.0024927,-0.0017257
0.041322,50.227,-70.635,0.026941,-0.0026845,-0.0019175
0.042344,50.226,-70.633,0.028666,-0.0027803,-0.0020133
0.043399,50.225,-70.632,0.030392,-0.0029721,-0.0022051
0.044485,50.224,-70.631,0.032214,-0.0031638,-0.002301
0.045604,50.223,-70.63,0.034131,-0.0032597,-0.0024927
0.046722,50.222,-70.628,0.036049,-0.0034515,-0.0025886
0.047841,50.221,-70.627,0.037966,-0.0036432,-0.0027803
0.048992,50.22,-70.626,0.039979,-0.0037391,-0.0028762
0.050142,50.219,-70.624,0.041993,-0.0039308,-0.003068
0.051356,50.218,-70.623,0.044102,-0.0041226,-0.0032597
0.052571,50.217,-70.622,0.046115,-0.0043143,-0.0033556
0.053785,50.216,-70.62,0.04832,-0.0045061,-0.0035473
0.055032,50.214,-70.619,0.05043,-0.0046978,-0.0037391
0.056278,50.213,-70.617,0.052635,-0.0048896,-0.0039308
0.057556,50.212,-70.616,0.05484,-0.0051772,-0.0041226
0.058867,50.211,-70.614,0.057045,-0.0053689,-0.0043143
0.060177,50.21,-70.613,0.05925,-0.0056566,-0.0046019
0.061519,50.209,-70.611,0.061455,-0.0059442,-0.0048896
0.062893,50.207,-70.61,0.063756,-0.0062318,-0.0050813
0.064267,50.206,-70.608,0.066057,-0.0065194,-0.0053689
0.065674,50.205,-70.607,0.068358,-0.0069029,-0.0056566
0.06708,50.204,-70.605,0.070755,-0.0071905,-0.0059442
0.068518,50.202,-70.603,0.073056,-0.007574,-0.0063277
0.07002,50.201,-70.602,0.075549,-0.0079575,-0.0066153
0.07149,50.2,-70.6,0.07785,-0.0084369,-0.0069988
0.073024,50.199,-70.598,0.080342,-0.0088204,-0.0073823
0.07459,50.197,-70.597,0.082739,-0.0092039,-0.0078617
0.076156,50.196,-70.595,0.085232,-0.0096833,-0.008341
0.077786,50.195,-70.593,0.087725,-0.010067,-0.0090121
0.079447,50.193,-70.591,0.090313,-0.01045,-0.0096833
0.081109,50.192,-70.59,0.092806,-0.01093,-0.010546
0.082835,50.191,-70.588,0.095394,-0.011313,-0.011505
0.084561,50.189,-70.586,0.097983,-0.011792,-0.012751
0.08635,50.188,-70.584,0.10067,-0.012272,-0.014093
0.08814,50.186,-70.582,0.10326,-0.012655,-0.015627
0.08993,50.185,-70.58,0.10604,-0.013039,-0.017449
0.091783,50.183,-70.578,0.10872,-0.013518,-0.019271
0.093637,50.182,-70.577,0.1116,-0.013998,-0.02138
0.095522,50.18,-70.575,0.11428,-0.014573,-0.023585
0.097408,50.179,-70.572,0.11716,-0.015052,-0.026078
0.099293,50.177,-70.57,0.12013,-0.015532,-0.028475
0.10121,50.176,-70.568,0.12301,-0.016107,-0.031159
0.10313,50.174,-70.566,0.12598,-0.016682,-0.033748
0.10508,50.173,-70.564,0.12905,-0.017257,-0.036528
0.10703,50.171,-70.562,0.13202,-0.017928,-0.039404
0.10901,50.169,-70.56,0.13518,-0.018504,-0.042184
0.11099,50.167,-70.558,0.13835,-0.019367,-0.045061
0.113,50.166,-70.555,0.14151,-0.020229,-0.047937
0.11508,50.164,-70.553,0.14477,-0.021476,-0.050813
0.11716,50.162,-70.551,0.14813,-0.022914,-0.053689
0.1193,50.16,-70.548,0.15138,-0.02464,-0.05647
0.12147,50.159,-70.546,0.15484,-0.026653,-0.059346
0.12371,50.157,-70.544,0.15838,-0.028954,-0.062222
0.12598,50.155,-70.541,0.16183,-0.031447,-0.065002
0.12828,50.153,-70.539,0.16548,-0.034227,-0.067783
0.13061,50.151,-70.536,0.16912,-0.037199,-0.070563
0.13301,50.149,-70.534,0.17286,-0.040363,-0.073343
0.13544,50.148,-70.531,0.1766,-0.043814,-0.076124
0.13787,50.146,-70.529,0.18043,-0.047362,-0.078904
0.14033,50.144,-70.526,0.18427,-0.051005,-0.081684
0.14279,50.142,-70.523,0.1882,-0.054744,-0.084561
0.14525,50.14,-70.52,0.19213,-0.058675,-0.087341
0.14774,50.138,-70.518,0.19616,-0.062701,-0.090121
0.15023,50.136,-70.515,0.20028,-0.066728,-0.092998
0.15276,50.134,-70.512,0.2044,-0.070851,-0.09597
0.15535,50.132,-70.509,0.20862,-0.074973,-0.098942
0.1579,50.13,-70.506,0.21284,-0.079288,-0.10191
0.16056,50.128,-70.503,0.21715,-0.083602,-0.10498
0.16321,50.126,-70.5,0.22156,-0.08782,-0.10815
0.16589,50.123,-70.498,0.22588,-0.092135,-0.11131
0.16864,50.121,-70.494,0.23038,-0.096449,-0.11457
0.17145,50.119,-70.492,0.23489,-0.10076,-0.11783
0.17427,50.117,-70.488,0.2394,-0.10517,-0.12109
0.17714,50.115,-70.485,0.244,-0.10949,-0.12454
0.18002,50.112,-70.482,0.2486,-0.11371,-0.1279
0.18293,50.11,-70.479,0.2533,-0.11802,-0.13144
0.18587,50.108,-70.476,0.2579,-0.12233,-0.13489
0.18881,50.105,-70.473,0.2626,-0.12655,-0.13844
0.19178,50.103,-70.47,0.2673,-0.13087,-0.14199
0.19475,50.101,-70.467,0.27199,-0.13509,-0.14563
0.19772,50.098,-70.464,0.27679,-0.1393,-0.14937
0.20073,50.096,-70.46,0.28149,-0.14352,-0.15301
0.20376,50.094,-70.457,0.28628,-0.14774,-0.15666
0.20686,50.091,-70.454,0.29107,-0.15196,-0.1604
0.21,50.089,-70.451,0.29577,-0.15627,-0.16423
0.21316,50.086,-70.447,0.30066,-0.16049,-0.16807
0.21642,50.084,-70.444,0.30555,-0.16481,-0.17181
0.21971,50.081,-70.441,0.31044,-0.16912,-0.17564
0.22303,50.079,-70.437,0.31533,-0.17344,-0.17948
0.22636,50.076,-70.434,0.32031,-0.17785,-0.18331
0.22968,50.073,-70.43,0.3254,-0.18235,-0.18724
0.23304,50.071,-70.427,0.33048,-0.18676,-0.19108
0.23636,50.068,-70.423,0.33565,-0.19136,-0.19501
0.23972,50.066,-70.42,0.34083,-0.19587,-0.19894
0.24307,50.063,-70.416,0.3461,-0.20057,-0.20296
0.24646,50.06,-70.412,0.35147,-0.20517,-0.2069
0.24991,50.058,-70.408,0.35684,-0.20987,-0.21092
0.25343,50.055,-70.404,0.36231,-0.21457,-0.21504
0.25704,50.052,-70.401,0.36777,-0.21926,-0.21907
0.26068,50.049,-70.397,0.37333,-0.22406,-0.22329
0.26436,50.047,-70.393,0.37899,-0.22875,-0.22741
0.26806,50.044,-70.389,0.38465,-0.23345,-0.23163
0.27177,50.041,-70.385,0.3903,-0.23815,-0.23595
0.27548,50.038,-70.381,0.39605,-0.24285,-0.24016
0.27918,50.035,-70.377,0.40171,-0.24755,-0.24457
0.28286,50.032,-70.373,0.40746,-0.25215,-0.24898
0.2866,50.029,-70.369,0.41322,-0.25685,-0.25339
0.29037,50.026,-70.365,0.41897,-0.26135,-0.258
0.29417,50.023,-70.361,0.42472,-0.26605,-0.2625
0.29801,50.02,-70.357,0.43047,-0.27065,-0.2672
0.30194,50.017,-70.353,0.43623,-0.27516,-0.2718
0.3059,50.014,-70.349,0.44207,-0.27976,-0.2765
0.3099,50.011,-70.345,0.44792,-0.28436,-0.28129
0.31392,50.007,-70.341,0.45377,-0.28896,-0.28609
0.31798,50.004,-70.337,0.45971,-0.29357,-0.29098
0.32204,50.001,-70.333,0.46566,-0.29826,-0.29587
0.3261,49.998,-70.328,0.4717,-0.30287,-0.30085
0.33019,49.995,-70.324,0.47784,-0.30766,-0.30584
0.33431,49.991,-70.32,0.48397,-0.31236,-0.31082
0.33843,49.988,-70.316,0.4903,-0.31715,-0.3159
0.34265,49.984,-70.311,0.49663,-0.32204,-0.32108
0.34694,49.981,-70.307,0.50305,-0.32683,-0.32626
0.35128,49.978,-70.303,0.50947,-0.33172,-0.33144
0.35566,49.974,-70.298,0.51609,-0.33671,-0.33671
0.36001,49.971,-70.294,0.5227,-0.34169,-0.34198
0.36438,49.967,-70.289,0.52932,-0.34668,-0.34725
0.36873,49.964,-70.284,0.53603,-0.35167,-0.35262
0.37311,49.961,-70.28,0.54274,-0.35675,-0.35809
0.37752,49.957,-70.275,0.54945,-0.36183,-0.36355
0.38199,49.953,-70.27,0.55616,-0.36691,-0.36911
0.3865,49.95,-70.265,0.56288,-0.37199,-0.37477
0.3911,49.946,-70.26,0.56949,-0.37717,-0.38062
0.3957,49.943,-70.255,0.5762,-0.38234,-0.38637
0.40031,49.939,-70.25,0.58301,-0.38752,-0.39241
0.40491,49.935,-70.245,0.58972,-0.39279,-0.39845
0.40948,49.932,-70.24,0.59662,-0.39797,-0.40459
0.41408,49.928,-70.235,0.60362,-0.40325,-0.41082
0.41868,49.925,-70.23,0.61052,-0.40852,-0.41724
0.42328,49.921,-70.225,0.61752,-0.41389,-0.42367
0.42795,49.917,-70.221,0.62471,-0.41916,-0.43009
0.43271,49.914,-70.216,0.6319,-0.42463,-0.43671
0.4375,49.91,-70.211,0.63919,-0.43009,-0.44322
0.44236,49.906,-70.206,0.64657,-0.43555,-0.44984
0.44725,49.902,-70.201,0.65405,-0.44121,-0.45636
0.45211,49.899,-70.196,0.66143,-0.44677,-0.46288
0.457,49.895,-70.191,0.66891,-0.45252,-0.4693
0.46189,49.891,-70.186,0.67639,-0.45828,-0.47582
0.46684,49.887,-70.181,0.68387,-0.46413,-0.48225
0.47186,49.883,-70.176,0.69135,-0.47007,-0.48867
0.47694,49.879,-70.171,0.69882,-0.47601,-0.49509
0.48212,49.875,-70.166,0.7064,-0.48205,-0.50152
0.48733,49.871,-70.161,0.71407,-0.48809,-0.50794
0.49254,49.867,-70.156,0.72174,-0.49413,-0.51446
0.49771,49.863,-70.15,0.72941,-0.50017,-0.52107
0.50289,49.859,-70.145,0.73727,-0.50621,-0.52769
0.50813,49.855,-70.14,0.74523,-0.51225,-0.5343
0.51347,49.851,-70.134,0.75318,-0.5182,-0.54111
0.51884,49.847,-70.129,0.76133,-0.52414,-0.54792
0.52433,49.842,-70.123,0.76948,-0.52999,-0.55482
0.52977,49.838,-70.118,0.77773,-0.53584,-0.56182
0.5352,49.834,-70.112,0.78597,-0.54178,-0.56872
0.54063,49.83,-70.106,0.79431,-0.54763,-0.57572
0.54603,49.825,-70.1,0.80266,-0.55358,-0.58282
0.55147,49.821,-70.095,0.811,-0.55952,-0.58982
0.55696,49.817,-70.089,0.81934,-0.56546,-0.59681
0.56252,49.812,-70.083,0.82768,-0.5715,-0.60391
0.56812,49.808,-70.077,0.83621,-0.57754,-0.611
0.5738,49.803,-70.072,0.84465,-0.58368,-0.6181
0.57946,49.799,-70.066,0.85309,-0.58991,-0.62529
0.58515,49.794,-70.06,0.86171,-0.59614,-0.63248
0.59077,49.79,-70.054,0.87034,-0.60247,-0.63967
0.5964,49.785,-70.049,0.87907,-0.6088,-0.64696
0.60212,49.781,-70.043,0.88779,-0.61513,-0.65434
0.6079,49.776,-70.037,0.8968,-0.62155,-0.66182
0.61382,49.772,-70.031,0.90582,-0.62788,-0.6693
0.61973,49.767,-70.025,0.91492,-0.6343,-0.67696
0.62561,49.763,-70.02,0.92413,-0.64063,-0.68463
0.63149,49.758,-70.013,0.93333,-0.64696,-0.6923
0.63737,49.753,-70.007,0.94244,-0.65328,-0.70007
0.64335,49.749,-70.001,0.95164,-0.65952,-0.70784
0.64945,49.744,-69.995,0.96085,-0.66584,-0.7157
0.65562,49.739,-69.989,0.96996,-0.67208,-0.72356
0.66175,49.735,-69.982,0.97926,-0.6784,-0.73142
0.66786,49.73,-69.976,0.98846,-0.68463,-0.73938
0.67393,49.725,-69.97,0.99785,-0.69096,-0.74734
0.68003,49.72,-69.963,1.0073,-0.69739,-0.75529
0.68617,49.715,-69.957,1.0168,-0.70381,-0.76335
0.69237,49.711,-69.95,1.0264,-0.71033,-0.7714
0.69863,49.706,-69.944,1.0361,-0.71685,-0.77965
0.70493,49.701,-69.938,1.0459,-0.72356,-0.78799
0.71126,49.696,-69.931,1.0557,-0.73017,-0.79642
0.71752,49.691,-69.925,1.0654,-0.73698,-0.80486
0.72378,49.686,-69.918,1.0751,-0.74379,-0.81349
0.73008,49.681,-69.912,1.0848,-0.7506,-0.82221
0.73647,49.676,-69.905,1.0946,-0.7575,-0.83094
0.74293,49.671,-69.899,1.1044,-0.7644,-0.83966
0.74951,49.666,-69.892,1.1142,-0.7713,-0.84839
0.75603,49.661,-69.885,1.1241,-0.7783,-0.85692
0.76252,49.656,-69.878,1.1342,-0.78521,-0.86545
0.76907,49.651,-69.871,1.1443,-0.79211,-0.87389
0.77575,49.646,-69.864,1.1545,-0.79911,-0.88233
0.78249,49.64,-69.857,1.165,-0.80601,-0.89067
0.78927,49.635,-69.849,1.1753,-0.81311,-0.89891
0.79601,49.63,-69.842,1.1858,-0.8201,-0.90725
0.80266,49.625,-69.835,1.1963,-0.8273,-0.91559
0.8093,49.62,-69.828,1.2068,-0.83449,-0.92394
0.81598,49.614,-69.82,1.2172,-0.84168,-0.93237
0.82279,49.609,-69.813,1.2277,-0.84906,-0.94081
0.82963,49.604,-69.806,1.2381,-0.85654,-0.94925
0.8365,49.598,-69.799,1.2486,-0.86411,-0.95788
0.8434,49.593,-69.792,1.259,-0.87178,-0.96641
0.85027,49.587,-69.785,1.2696,-0.87945,-0.97494
0.85711,49.582,-69.778,1.2803,-0.88712,-0.98357
0.86405,49.576,-69.77,1.2911,-0.89498,-0.9921
0.87114,49.571,-69.763,1.302,-0.90265,-1.0008
0.87833,49.565,-69.756,1.313,-0.91042,-1.0096
0.88549,49.56,-69.749,1.3239,-0.91809,-1.0183
0.89259,49.554,-69.741,1.3349,-0.92566,-1.0271
0.89971,49.548,-69.734,1.3459,-0.93333,-1.0361
0.90697,49.542,-69.726,1.3568,-0.941,-1.0452
0.91435,49.537,-69.718,1.3676,-0.94858,-1.0544
0.92176,49.531,-69.711,1.3786,-0.95634,-1.0638
0.92905,49.526,-69.703,1.3897,-0.96401,-1.0733
0.93627,49.52,-69.695,1.4008,-0.97178,-1.083
0.94353,49.514,-69.688,1.412,-0.97973,-1.0928
0.95081,49.509,-69.68,1.4234,-0.98769,-1.1026
0.95823,49.503,-69.672,1.4348,-0.99575,-1.1125
0.96567,49.497,-69.664,1.4462,-1.0038,-1.1225
0.97309,49.491,-69.657,1.4575,-1.0119,-1.1324
0.98041,49.485,-69.649,1.4687,-1.0201,-1.1422
0.98776,49.48,-69.641,1.4798,-1.0282,-1.1522
0.9952,49.474,-69.633,1.4909,-1.0363,-1.1622
1.0029,49.468,-69.625,1.5021,-1.0444,-1.1722
1.0106,49.462,-69.617,1.5132,-1.0525,-1.1823
1.0183,49.456,-69.609,1.5244,-1.0606,-1.1925
1.0259,49.45,-69.6,1.5356,-1.0685,-1.2026
1.0336,49.444,-69.592,1.5469,-1.0766,-1.213
1.0414,49.438,-69.583,1.5582,-1.0846,-1.2233
1.0494,49.431,-69.575,1.5696,-1.0928,-1.2336
1.0573,49.425,-69.567,1.5811,-1.1009,-1.2438
1.0651,49.419,-69.558,1.5925,-1.1092,-1.2539
1.0728,49.413,-69.55,1.6039,-1.1174,-1.264
1.0806,49.407,-69.542,1.6152,-1.1258,-1.2741
1.0885,49.401,-69.534,1.6266,-1.1342,-1.284
1.0964,49.394,-69.525,1.6381,-1.1427,-1.2941
1.1043,49.388,-69.517,1.6496,-1.1513,-1.3043
1.1121,49.382,-69.509,1.6612,-1.1597,-1.3144
1.12,49.376,-69.5,1.673,-1.1682,-1.3248
1.128,49.369,-69.492,1.6849,-1.1768,-1.3352
1.1362,49.363,-69.483,1.697,-1.1852,-1.3457
1.1445,49.357,-69.475,1.7091,-1.1937,-1.3562
1.1527,49.35,-69.466,1.7214,-1.2022,-1.3668
1.1609,49.344,-69.457,1.7336,-1.2106,-1.3773
1.1691,49.337,-69.448,1.7458,-1.219,-1.388
1.1775,49.331,-69.44,1.7578,-1.2277,-1.3986
1.1859,49.324,-69.431,1.7701,-1.2362,-1.4092
1.1943,49.318,-69.422,1.7824,-1.2449,-1.4201
1.2025,49.311,-69.413,1.7949,-1.2536,-1.431
1.2107,49.305,-69.405,1.8074,-1.2626,-1.442
1.219,49.298,-69.396,1.8201,-1.2714,-1.4533
1.2273,49.292,-69.388,1.8328,-1.2803,-1.4646
1.2358,49.285,-69.379,1.8455,-1.2892,-1.4759
1.2442,49.278,-69.37,1.8581,-1.2981,-1.4874
1.2525,49.272,-69.362,1.8706,-1.307,-1.4989
1.261,49.265,-69.353,1.8832,-1.3159,-1.5104
1.2698,49.259,-69.344,1.8956,-1.3247,-1.5217
1.2785,49.252,-69.335,1.9083,-1.3335,-1.5331
1.2872,49.245,-69.326,1.921,-1.3422,-1.5444
1.2958,49.238,-69.317,1.934,-1.3511,-1.5557
1.3046,49.231,-69.308,1.947,-1.36,-1.5671
1.3135,49.224,-69.299,1.9601,-1.369,-1.5785
1.3223,49.218,-69.29,1.9734,-1.3781,-1.5899
1.331,49.211,-69.28,1.9867,-1.3872,-1.6015
1.3396,49.204,-69.271,1.9999,-1.3963,-1.6131
1.3484,49.197,-69.262,2.0132,-1.4056,-1.6246
1.3572,49.19,-69.253,2.0265,-1.4148,-1.6361
1.366,49.183,-69.244,2.0399,-1.4241,-1.6475
1.3748,49.176,-69.234,2.0534,-1.4333,-1.6589
1.3837,49.169,-69.225,2.0672,-1.4426,-1.6703
1.3926,49.162,-69.215,2.0812,-1.4518,-1.6818
1.4019,49.155,-69.205,2.0953,-1.461,-1.6934
1.411,49.148,-69.195,2.1095,-1.4703,-1.7052
1.4201,49.141,-69.186,2.1236,-1.4796,-1.7172
1.4292,49.134,-69.176,2.1377,-1.4891,-1.7294
1.4386,49.127,-69.166,2.1516,-1.4986,-1.7416
1.4479,49.119,-69.156,2.1656,-1.5083,-1.7539
1.4571,49.112,-69.147,2.1797,-1.518,-1.7663
1.4661,49.105,-69.137,2.1939,-1.5278,-1.7787
1.4752,49.098,-69.127,2.2082,-1.5377,-1.7911
1.4844,49.09,-69.117,2.2226,-1.5476,-1.8037
1.4937,49.083,-69.108,2.237,-1.5576,-1.8162
1.5029,49.076,-69.098,2.2512,-1.5674,-1.829
1.512,49.068,-69.088,2.2654,-1.5773,-1.8417
1.5214,49.061,-69.078,2.2796,-1.5871,-1.8548
1.531,49.053,-69.067,2.2939,-1.597,-1.8677
1.5407,49.046,-69.057,2.3082,-1.6067,-1.8809
1.5502,49.039,-69.047,2.3227,-1.6166,-1.8938
1.5597,49.031,-69.037,2.3375,-1.6265,-1.9066
1.5694,49.023,-69.026,2.3523,-1.6364,-1.9194
1.5792,49.016,-69.016,2.3671,-1.6464,-1.932
1.5888,49.008,-69.006,2.3819,-1.6566,-1.9446
1.5983,49.001,-68.996,2.3966,-1.6668,-1.9572
1.6078,48.993,-68.986,2.4113,-1.6769,-1.9698
1.6175,48.986,-68.975,2.4261,-1.6871,-1.9825
1.6272,48.978,-68.965,2.4409,-1.6972,-1.9952
1.6369,48.97,-68.955,2.456,-1.7073,-2.008
1.6465,48.963,-68.944,2.4713,-1.7174,-2.0207
1.6563,48.955,-68.934,2.4868,-1.7274,-2.0334
1.6664,48.947,-68.923,2.5024,-1.7375,-2.046
1.6764,48.94,-68.912,2.5177,-1.7477,-2.0586
1.6863,48.932,-68.902,2.5331,-1.7579,-2.0714
1.6963,48.924,-68.891,2.5481,-1.7683,-2.0842
1.7066,48.916,-68.881,2.5633,-1.7788,-2.0972
1.7166,48.908,-68.87,2.5785,-1.7893,-2.1105
1.7265,48.9,-68.86,2.5939,-1.7999,-2.124
1.7364,48.893,-68.849,2.6093,-1.8106,-2.1375
1.7464,48.885,-68.838,2.6247,-1.8212,-2.1511
1.7566,48.877,-68.827,2.64,-1.8318,-2.1646
1.7666,48.869,-68.816,2.6552,-1.8423,-2.1783
1.7767,48.861,-68.805,2.6705,-1.8529,-2.1921
1.7869,48.853,-68.794,2.6858,-1.8634,-2.2059
1.7974,48.845,-68.782,2.7013,-1.874,-2.2198
1.8077,48.837,-68.771,2.7171,-1.8848,-2.2338
1.8179,48.829,-68.76,2.733,-1.8955,-2.2479
1.8283,48.821,-68.749,2.749,-1.9064,-2.262
1.8389,48.812,-68.738,2.765,-1.9173,-2.276
1.8493,48.804,-68.727,2.781,-1.9283,-2.29
1.8595,48.796,-68.716,2.7969,-1.9392,-2.3038
1.8698,48.788,-68.705,2.8127,-1.9503,-2.3175
1.8803,48.78,-68.694,2.8288,-1.9612,-2.3309
1.8909,48.771,-68.683,2.845,-1.972,-2.3443
1.9014,48.763,-68.672,2.8613,-1.9829,-2.3577
1.9119,48.755,-68.66,2.8778,-1.9936,-2.3712
1.9227,48.746,-68.649,2.8945,-2.0043,-2.3849
1.9335,48.738,-68.638,2.9109,-2.0153,-2.3985
1.9441,48.73,-68.627,2.9272,-2.0262,-2.4121
1.9547,48.721,-68.616,2.9434,-2.0372,-2.4257
1.9657,48.713,-68.604,2.9596,-2.0483,-2.4392
1.9766,48.704,-68.593,2.976,-2.0596,-2.4528
1.9872,48.696,-68.582,2.9926,-2.0709,-2.4665
1.9979,48.687,-68.571,3.0093,-2.0822,-2.4805
2.0088,48.679,-68.559,3.026,-2.0935,-2.4947
2.0197,48.67,-68.548,3.0426,-2.1047,-2.5092
2.0306,48.662,-68.536,3.0591,-2.116,-2.5239
2.0415,48.653,-68.525,3.0757,-2.1273,-2.5385
2.0527,48.645,-68.513,3.0925,-2.1388,-2.5532
2.0639,48.636,-68.502,3.1097,-2.1503,-2.5679
2.0748,48.627,-68.49,3.1269,-2.162,-2.5826
2.0859,48.618,-68.478,3.1444,-2.1738,-2.5973
2.0972,48.61,-68.467,3.1618,-2.1857,-2.6121
2.1085,48.601,-68.455,3.1793,-2.1977,-2.6269
2.1196,48.592,-68.443,3.1966,-2.2097,-2.6419
2.1307,48.583,-68.431,3.214,-2.2217,-2.6568
2.1419,48.575,-68.418,3.2314,-2.2336,-2.6717
2.1532,48.566,-68.406,3.2492,-2.2455,-2.6863
2.1644,48.557,-68.393,3.2671,-2.2574,-2.7009
2.1757,48.548,-68.381,3.285,-2.2694,-2.7151
2.1873,48.539,-68.369,3.3029,-2.2814,-2.7292
2.1988,48.53,-68.357,3.3205,-2.2937,-2.7434
2.2101,48.521,-68.345,3.3378,-2.306,-2.7576
2.2216,48.512,-68.333,3.3553,-2.3183,-2.772
2.2333,48.503,-68.32,3.373,-2.3307,-2.7865
2.2448,48.494,-68.308,3.3909,-2.3431,-2.801
2.2562,48.485,-68.296,3.4088,-2.3553,-2.8155
2.2678,48.476,-68.283,3.4265,-2.3677,-2.83
2.2795,48.466,-68.271,3.4442,-2.3799,-2.8447
2.2911,48.457,-68.258,3.4618,-2.3921,-2.8595
2.3027,48.448,-68.246,3.4795,-2.4044,-2.8746
2.3145,48.439,-68.233,3.4975,-2.4169,-2.8901
2.3264,48.43,-68.221,3.5157,-2.4294,-2.9058
2.3381,48.42,-68.208,3.5341,-2.4421,-2.9216
2.3499,48.411,-68.196,3.5524,-2.4548,-2.9374
2.362,48.402,-68.184,3.5707,-2.4677,-2.9531
2.3739,48.393,-68.171,3.5888,-2.4805,-2.9687
2.3857,48.383,-68.158,3.607,-2.4934,-2.9844
2.3977,48.374,-68.146,3.6252,-2.5062,-3
2.4097,48.364,-68.133,3.6435,-2.5192,-3.0156
2.4217,48.355,-68.121,3.662,-2.5322,-3.0312
2.4336,48.345,-68.108,3.6805,-2.5455,-3.0469
2.4458,48.336,-68.096,3.6986,-2.5591,-3.0625
2.4581,48.326,-68.084,3.7165,-2.5727,-3.0779
2.4701,48.317,-68.071,3.7343,-2.5864,-3.0932
2.4824,48.308,-68.058,3.7521,-2.6001,-3.1081
2.4948,48.298,-68.046,3.7701,-2.6136,-3.1231
2.5069,48.289,-68.033,3.7885,-2.6271,-3.1382
2.5191,48.279,-68.019,3.8067,-2.6405,-3.1534
2.5315,48.269,-68.006,3.8248,-2.654,-3.1688
2.5439,48.26,-67.993,3.8428,-2.6673,-3.1844
2.5561,48.25,-67.98,3.8606,-2.6808,-3.2001
2.5685,48.24,-67.967,3.8789,-2.6944,-3.2157
2.5811,48.23,-67.954,3.8973,-2.7081,-3.2314
2.5935,48.221,-67.942,3.9159,-2.7217,-3.2472
2.6059,48.211,-67.929,3.9346,-2.7354,-3.2633
2.6187,48.201,-67.915,3.9533,-2.7488,-3.2797
2.6314,48.191,-67.902,3.9719,-2.7622,-3.2965
2.6439,48.182,-67.889,3.9904,-2.7756,-3.3132
2.6565,48.172,-67.876,4.0089,-2.7891,-3.33
2.6693,48.162,-67.863,4.0276,-2.8026,-3.3465
2.682,48.152,-67.849,4.0465,-2.8163,-3.3629
2.6946,48.142,-67.836,4.0655,-2.8301,-3.3792
2.7074,48.132,-67.823,4.0845,-2.8442,-3.3956
2.7204,48.122,-67.81,4.1032,-2.8583,-3.4119
2.7331,48.112,-67.797,4.1218,-2.8724,-3.4283
2.7461,48.102,-67.783,4.1405,-2.8865,-3.4446
2.7592,48.092,-67.769,4.1596,-2.9007,-3.4609
2.7721,48.082,-67.756,4.1789,-2.9149,-3.4771
2.785,48.072,-67.742,4.1983,-2.9292,-3.4932
2.7981,48.061,-67.728,4.2177,-2.9439,-3.5091
2.8111,48.051,-67.714,4.2369,-2.9587,-3.5252
2.824,48.041,-67.701,4.2559,-2.9735,-3.5414
2.8371,48.031,-67.687,4.2753,-2.9885,-3.5579
2.8504,48.021,-67.673,4.295,-3.0032,-3.5748
2.8635,48.01,-67.659,4.3147,-3.0179,-3.5916
2.8769,48,-67.644,4.3346,-3.0325,-3.6084
2.8902,47.99,-67.63,4.3543,-3.0472,-3.6251
2.9033,47.979,-67.615,4.374,-3.0618,-3.6419
2.9165,47.969,-67.601,4.3936,-3.0766,-3.659
2.9299,47.958,-67.587,4.4134,-3.0914,-3.6764
2.9432,47.948,-67.573,4.4334,-3.1062,-3.6939
2.9564,47.937,-67.558,4.4537,-3.121,-3.7115
2.9699,47.927,-67.544,4.474,-3.1356,-3.729
2.9834,47.917,-67.529,4.494,-3.1503,-3.7463
2.9967,47.906,-67.515,4.5138,-3.1648,-3.7635
3.0104,47.896,-67.5,4.5339,-3.1795,-3.7808
3.0241,47.885,-67.486,4.5544,-3.1942,-3.798
3.0375,47.874,-67.471,4.5753,-3.2091,-3.8154
3.051,47.864,-67.457,4.5962,-3.2242,-3.8328
3.0647,47.853,-67.443,4.6169,-3.2396,-3.8502
3.0781,47.842,-67.428,4.6373,-3.2549,-3.8675
3.0916,47.832,-67.414,4.6578,-3.2703,-3.8846
3.1055,47.821,-67.4,4.6784,-3.2855,-3.9017
3.1192,47.81,-67.385,4.6994,-3.3007,-3.9189
3.133,47.8,-67.371,4.7204,-3.316,-3.9364
3.147,47.789,-67.356,4.7412,-3.3314,-3.9542
3.1608,47.778,-67.341,4.7621,-3.347,-3.9722
3.1745,47.767,-67.327,4.7828,-3.3626,-3.9902
3.1883,47.756,-67.313,4.8036,-3.3782,-4.0079
3.2021,47.746,-67.298,4.8247,-3.3936,-4.0255
3.2158,47.735,-67.284,4.8459,-3.409,-4.0433
3.2298,47.724,-67.269,4.8672,-3.4242,-4.0612
3.244,47.712,-67.254,4.8882,-3.4394,-4.0793
3.2579,47.702,-67.239,4.9091,-3.4546,-4.0976
3.2721,47.691,-67.224,4.9303,-3.4698,-4.1156
3.2863,47.68,-67.21,4.9519,-3.4852,-4.1334
3.3002,47.669,-67.195,4.9738,-3.5004,-4.151
3.3142,47.658,-67.18,4.9956,-3.5156,-4.1686
3.3284,47.647,-67.166,5.0172,-3.5307,-4.1862
3.3424,47.636,-67.151,5.0386,-3.5457,-4.2039
3.3566,47.624,-67.136,5.06,-3.5608,-4.2216
3.3711,47.613,-67.121,5.0818,-3.5758,-4.2393
3.3854,47.602,-67.106,5.1037,-3.591,-4.2568
3.3998,47.591,-67.091,5.1255,-3.6066,-4.2742
3.4144,47.579,-67.076,5.1473,-3.6224,-4.2916
3.4286,47.568,-67.061,5.1689,-3.6382,-4.309
3.4429,47.557,-67.046,5.1906,-3.6541,-4.3269
3.4574,47.546,-67.031,5.2127,-3.67,-4.3448
3.4717,47.534,-67.016,5.235,-3.6856,-4.3631
3.4861,47.523,-67.001,5.2573,-3.7013,-4.3812
3.501,47.512,-66.985,5.2795,-3.7171,-4.3993
3.5156,47.5,-66.97,5.3014,-3.7331,-4.417
3.5303,47.489,-66.954,5.3237,-3.7491,-4.4347
3.5452,47.477,-66.938,5.3463,-3.7652,-4.4528
3.5597,47.466,-66.923,5.3692,-3.7812,-4.4711
3.5742,47.454,-66.907,5.3919,-3.7969,-4.4895
3.5889,47.443,-66.892,5.4144,-3.8124,-4.5078
3.6035,47.431,-66.876,5.4367,-3.8281,-4.5259
3.6183,47.42,-66.86,5.4593,-3.8437,-4.5439
3.6334,47.408,-66.844,5.4823,-3.8594,-4.5622
3.6482,47.397,-66.827,5.5052,-3.8752,-4.5804
3.6633,47.385,-66.811,5.5279,-3.8911,-4.5988
3.6784,47.373,-66.796,5.5504,-3.9069,-4.6173
3.6931,47.362,-66.78,5.5728,-3.9226,-4.6357
3.7079,47.35,-66.764,5.5955,-3.9383,-4.6541
3.7229,47.338,-66.749,5.6185,-3.9539,-4.6724
3.7378,47.326,-66.733,5.6417,-3.9698,-4.6907
3.7529,47.314,-66.717,5.6648,-3.9858,-4.709
3.7682,47.303,-66.701,5.6875,-4.002,-4.7278
3.7832,47.291,-66.685,5.7103,-4.0186,-4.7467
3.7986,47.279,-66.669,5.7334,-4.0351,-4.7656
3.8139,47.267,-66.653,5.7568,-4.0517,-4.7842
3.8289,47.255,-66.638,5.7799,-4.0681,-4.8025
3.8441,47.243,-66.622,5.8028,-4.0845,-4.8207
3.8593,47.231,-66.606,5.8254,-4.1008,-4.839
3.8745,47.219,-66.59,5.8483,-4.1172,-4.8577
3.89,47.207,-66.574,5.8716,-4.1338,-4.8765
3.9054,47.195,-66.558,5.8949,-4.1505,-4.8953
3.9208,47.183,-66.542,5.9181,-4.1669,-4.914
3.9365,47.171,-66.526,5.9411,-4.1833,-4.9326
3.9517,47.159,-66.51,5.964,-4.1994,-4.9513
3.967,47.147,-66.494,5.9871,-4.2156,-4.97
3.9825,47.135,-66.478,6.0107,-4.2317,-4.989
3.998,47.123,-66.462,6.0347,-4.248,-5.0081
4.0138,47.11,-66.446,6.0584,-4.2644,-5.0272
4.0296,47.098,-66.429,6.0818,-4.2809,-5.0462
4.045,47.086,-66.413,6.1051,-4.2974,-5.0652
4.0608,47.074,-66.397,6.1289,-4.3138,-5.0841
4.0766,47.061,-66.381,6.1529,-4.3302,-5.1031
4.0921,47.049,-66.365,6.1765,-4.3466,-5.1224
4.1079,47.037,-66.349,6.1999,-4.3631,-5.142
4.1236,47.024,-66.332,6.2231,-4.3798,-5.1615
4.1394,47.012,-66.316,6.2467,-4.3968,-5.1807
4.1555,47,-66.299,6.2705,-4.4139,-5.1997
4.1712,46.987,-66.283,6.2946,-4.4312,-5.2189
4.1872,46.974,-66.266,6.3185,-4.4484,-5.2383
4.2033,46.962,-66.25,6.3421,-4.4654,-5.2581
4.2192,46.95,-66.233,6.3658,-4.4824,-5.278
4.2352,46.937,-66.216,6.39,-4.4994,-5.2979
4.2511,46.924,-66.199,6.4146,-4.5166,-5.3176
4.2671,46.912,-66.181,6.4393,-4.534,-5.3374
4.2834,46.899,-66.164,6.4635,-4.5513,-5.3573
4.2995,46.887,-66.147,6.4876,-4.5686,-5.3774
4.3157,46.874,-66.129,6.512,-4.5856,-5.3977
4.332,46.861,-66.112,6.5369,-4.6026,-5.4179
4.3481,46.849,-66.094,6.5615,-4.6197,-5.4381
4.3643,46.836,-66.077,6.5859,-4.6367,-5.458
4.3807,46.823,-66.059,6.6099,-4.6541,-5.4777
4.3969,46.81,-66.041,6.6344,-4.6716,-5.4977
4.4135,46.797,-66.023,6.6591,-4.6891,-5.5179
4.4298,46.785,-66.006,6.6839,-4.7064,-5.5384
4.4461,46.772,-65.989,6.7088,-4.7238,-5.5589
4.4628,46.759,-65.972,6.7332,-4.7412,-5.5792
4.4791,46.746,-65.954,6.7578,-4.7585,-5.5992
4.4957,46.733,-65.937,6.7826,-4.7761,-5.6195
4.5123,46.72,-65.919,6.8078,-4.794,-5.6404
4.5286,46.707,-65.902,6.8331,-4.8121,-5.6616
4.5453,46.694,-65.885,6.858,-4.8302,-5.6829
4.5619,46.681,-65.868,6.8829,-4.8481,-5.7039
4.5786,46.668,-65.85,6.9081,-4.866,-5.7248
4.5956,46.655,-65.833,6.9338,-4.8837,-5.7457
4.612,46.642,-65.815,6.9593,-4.9017,-5.7668
4.6287,46.629,-65.798,6.9844,-4.92,-5.7881
4.6454,46.616,-65.78,7.0094,-4.9383,-5.8094
4.6621,46.603,-65.762,7.0347,-4.9565,-5.8305
4.6792,46.59,-65.745,7.0604,-4.9745,-5.8514
4.6959,46.576,-65.727,7.0861,-4.9922,-5.8721
4.7129,46.563,-65.71,7.1116,-5.0101,-5.8931
4.7298,46.55,-65.692,7.1369,-5.028,-5.9144
4.7465,46.537,-65.673,7.1623,-5.0462,-5.9358
4.7636,46.523,-65.655,7.1882,-5.0645,-5.9572
4.7806,46.51,-65.637,7.2144,-5.0828,-5.9782
4.7976,46.497,-65.619,7.2404,-5.101,-5.9993
4.8147,46.484,-65.601,7.2659,-5.1191,-6.0208
4.8316,46.47,-65.584,7.2918,-5.1371,-6.0427
4.8489,46.457,-65.565,7.3181,-5.1553,-6.0648
4.866,46.443,-65.547,7.3444,-5.1738,-6.0867
4.8832,46.43,-65.529,7.3704,-5.1925,-6.1084
4.9005,46.417,-65.511,7.3961,-5.2114,-6.13
4.9174,46.403,-65.493,7.4221,-5.2302,-6.1516
4.9346,46.389,-65.475,7.4484,-5.2488,-6.1734
4.9519,46.376,-65.456,7.4749,-5.2674,-6.1954
4.9695,46.362,-65.438,7.5012,-5.2861,-6.217
4.987,46.349,-65.419,7.5271,-5.305,-6.2385
5.0041,46.335,-65.4,7.5532,-5.3242,-6.2598
5.0215,46.321,-65.381,7.5798,-5.3432,-6.2812
5.0388,46.308,-65.362,7.6067,-5.3621,-6.3028
5.0561,46.294,-65.344,7.6333,-5.3807,-6.3246
5.0739,46.28,-65.325,7.6596,-5.3992,-6.3463
5.0914,46.266,-65.306,7.6862,-5.4177,-6.3676
5.1092,46.252,-65.287,7.7132,-5.4365,-6.3887
5.1266,46.238,-65.268,7.7403,-5.4553,-6.4101
5.1441,46.225,-65.249,7.7668,-5.4742,-6.432
5.1618,46.211,-65.23,7.7931,-5.4928,-6.454
5.1793,46.197,-65.212,7.8196,-5.5114,-6.476
5.1971,46.183,-65.193,7.8464,-5.5297,-6.4977
5.2148,46.169,-65.175,7.8732,-5.5482,-6.5192
5.2326,46.155,-65.156,7.8997,-5.567,-6.5409
5.2507,46.141,-65.137,7.9259,-5.5859,-6.5627
5.2684,46.127,-65.119,7.9523,-5.6049,-6.5846
5.2862,46.113,-65.1,7.9794,-5.6237,-6.6065
5.3038,46.098,-65.082,8.0065,-5.6423,-6.6281
5.3216,46.084,-65.063,8.0334,-5.6609,-6.6496
5.3399,46.07,-65.045,8.0598,-5.6795,-6.6714
5.3579,46.056,-65.026,8.0867,-5.6985,-6.6934
5.3762,46.042,-65.007,8.1139,-5.7176,-6.7159
5.394,46.028,-64.988,8.1409,-5.7367,-6.7381
5.4119,46.013,-64.969,8.1676,-5.7556,-6.7601
5.4299,45.999,-64.95,8.1941,-5.7742,-6.7819
5.448,45.985,-64.932,8.2212,-5.7929,-6.8039
5.4665,45.97,-64.913,8.2484,-5.8116,-6.8263
5.4846,45.956,-64.894,8.2755,-5.8305,-6.8489
5.5031,45.942,-64.874,8.3024,-5.8495,-6.8714
5.5211,45.927,-64.855,8.3291,-5.8685,-6.8935
5.5392,45.913,-64.837,8.3565,-5.8875,-6.9157
5.5575,45.898,-64.818,8.3843,-5.9063,-6.9379
5.5757,45.884,-64.799,8.4121,-5.9251,-6.9603
5.5944,45.869,-64.779,8.4393,-5.944,-6.9831
5.6127,45.855,-64.76,8.4665,-5.9632,-7.0055
5.6313,45.84,-64.74,8.4942,-5.9825,-7.0279
5.6498,45.826,-64.72,8.522,-6.0019,-7.0502
5.668,45.812,-64.701,8.5495,-6.021,-7.0728
5.6865,45.797,-64.681,8.5766,-6.0399,-7.0959
5.7047,45.782,-64.661,8.6041,-6.0586,-7.1193
5.7236,45.768,-64.641,8.632,-6.0776,-7.1424
5.7423,45.753,-64.621,8.6599,-6.097,-7.1651
5.7612,45.738,-64.601,8.6874,-6.1166,-7.1879
5.7798,45.724,-64.58,8.7149,-6.136,-7.2111
5.7982,45.709,-64.561,8.7428,-6.1553,-7.2343
5.8169,45.694,-64.541,8.7714,-6.1744,-7.2577
5.8356,45.68,-64.521,8.8002,-6.1935,-7.2808
5.8546,45.665,-64.501,8.8283,-6.2128,-7.3039
5.8735,45.65,-64.481,8.8563,-6.2322,-7.3271
5.8925,45.635,-64.461,8.8846,-6.2515,-7.3506
5.9114,45.62,-64.441,8.9132,-6.2708,-7.3743
5.9301,45.605,-64.422,8.9414,-6.29,-7.3981
5.9491,45.591,-64.402,8.9694,-6.3091,-7.4216
5.9679,45.576,-64.383,8.9978,-6.3282,-7.445
5.9872,45.561,-64.363,9.0266,-6.3476,-7.4688
6.0062,45.546,-64.343,9.0556,-6.3674,-7.4929
6.0255,45.531,-64.323,9.084,-6.3872,-7.5172
6.0445,45.516,-64.303,9.1124,-6.4069,-7.541
6.0634,45.501,-64.283,9.1413,-6.4263,-7.5646
6.0826,45.486,-64.263,9.1706,-6.4455,-7.5884
6.1019,45.471,-64.243,9.1999,-6.4649,-7.6126
6.1214,45.456,-64.223,9.2285,-6.4847,-7.637
6.1405,45.441,-64.202,9.2572,-6.5047,-7.6614
6.16,45.426,-64.182,9.2863,-6.5246,-7.6855
6.1792,45.41,-64.162,9.3155,-6.5444,-7.7099
6.1985,45.395,-64.141,9.3441,-6.5641,-7.7346
6.2179,45.38,-64.121,9.3727,-6.5837,-7.7597
6.2373,45.365,-64.1,9.402,-6.6035,-7.7849
6.257,45.349,-64.079,9.4315,-6.6235,-7.8098
6.2763,45.334,-64.059,9.4608,-6.6436,-7.8346
6.2961,45.319,-64.039,9.4899,-6.6635,-7.8595
6.3155,45.304,-64.018,9.5191,-6.6833,-7.8849
6.3351,45.288,-63.997,9.5488,-6.703,-7.9104
6.3545,45.273,-63.976,9.5789,-6.7229,-7.9353
6.3743,45.257,-63.955,9.6084,-6.743,-7.96
6.394,45.242,-63.933,9.6377,-6.7635,-7.985
6.4138,45.226,-63.912,9.6673,-6.7842,-8.0105
6.4335,45.211,-63.891,9.6973,-6.8046,-8.0363
6.4531,45.195,-63.87,9.727,-6.8248,-8.0619
6.473,45.18,-63.849,9.7563,-6.8448,-8.0874
6.4927,45.164,-63.827,9.7861,-6.8651,-8.1132
6.5128,45.149,-63.805,9.8164,-6.8858,-8.1395
6.5326,45.133,-63.784,9.8465,-6.9066,-8.166
6.5527,45.118,-63.763,9.8763,-6.9273,-8.1922
6.5726,45.102,-63.742,9.9061,-6.9478,-8.2181
6.5926,45.086,-63.721,9.9363,-6.9682,-8.2438
6.6125,45.071,-63.7,9.9668,-6.9887,-8.2699
6.6326,45.055,-63.678,9.9967,-7.0096,-8.2962
6.6528,45.039,-63.657,10.026,-7.0306,-8.322
6.673,45.023,-63.637,10.056,-7.0516,-8.3475
6.6933,45.007,-63.616,10.087,-7.0723,-8.3731
6.7133,44.992,-63.595,10.117,-7.0929,-8.3993
6.7337,44.976,-63.573,10.147,-7.1137,-8.4258
6.7537,44.96,-63.551,10.177,-7.1347,-8.4519
6.7743,44.944,-63.53,10.207,-7.1561,-8.478
6.7945,44.928,-63.509,10.238,-7.1776,-8.5043
6.8152,44.912,-63.487,10.268,-7.1989,-8.5309
6.8354,44.896,-63.466,10.298,-7.2199,-8.5578
6.8559,44.88,-63.444,10.329,-7.2408,-8.5843
6.8764,44.864,-63.422,10.36,-7.2622,-8.6102
6.8969,44.848,-63.401,10.39,-7.2837,-8.6361
6.9174,44.832,-63.379,10.42,-7.3055,-8.6621
6.9381,44.816,-63.358,10.451,-7.327,-8.6885
6.9587,44.8,-63.336,10.482,-7.3482,-8.7144
6.9794,44.784,-63.314,10.512,-7.3696,-8.74
7.0002,44.768,-63.292,10.542,-7.3913,-8.7658
7.0206,44.752,-63.27,10.573,-7.4132,-8.7922
7.0415,44.735,-63.249,10.604,-7.4351,-8.8189
7.0623,44.719,-63.227,10.635,-7.457,-8.8453
7.0835,44.703,-63.205,10.665,-7.4785,-8.8715
7.1041,44.687,-63.182,10.696,-7.5,-8.898
7.125,44.67,-63.16,10.727,-7.5217,-8.9247
7.1456,44.654,-63.138,10.758,-7.5436,-8.9516
7.1668,44.638,-63.115,10.788,-7.5657,-8.9782
7.1878,44.621,-63.093,10.819,-7.5875,-9.0041
7.2091,44.605,-63.071,10.85,-7.609,-9.0299
7.2299,44.588,-63.049,10.882,-7.6304,-9.0559
7.251,44.572,-63.026,10.912,-7.6521,-9.0822
7.2718,44.555,-63.004,10.943,-7.6741,-9.1083
7.2932,44.539,-62.983,10.974,-7.6963,-9.1342
7.3144,44.522,-62.961,11.006,-7.7181,-9.1604
7.3358,44.506,-62.938,11.037,-7.7398,-9.1873
7.3569,44.489,-62.916,11.067,-7.7616,-9.2144
7.3782,44.473,-62.894,11.098,-7.7835,-9.2413
7.3993,44.456,-62.872,11.13,-7.8058,-9.2679
7.4206,44.439,-62.85,11.161,-7.8282,-9.2947
7.4421,44.423,-62.828,11.192,-7.8504,-9.3217
7.4637,44.406,-62.805,11.223,-7.8724,-9.3488
7.4851,44.389,-62.783,11.255,-7.8942,-9.3755
7.5063,44.373,-62.76,11.286,-7.9163,-9.4017
7.5276,44.356,-62.738,11.318,-7.9386,-9.428
7.549,44.339,-62.715,11.349,-7.9611,-9.4548
7.5708,44.322,-62.693,11.381,-7.9832,-9.4818
7.5925,44.305,-62.67,11.413,-8.0051,-9.5087
7.614,44.289,-62.647,11.445,-8.027,-9.5354
7.6353,44.272,-62.624,11.477,-8.0493,-9.5629
7.6568,44.255,-62.602,11.509,-8.0719,-9.591
7.6784,44.238,-62.579,11.541,-8.0946,-9.619
7.7004,44.221,-62.557,11.573,-8.117,-9.6466
7.7222,44.204,-62.533,11.605,-8.1392,-9.6741
7.7439,44.187,-62.51,11.638,-8.1615,-9.7018
7.7653,44.17,-62.487,11.671,-8.1843,-9.7298
7.7869,44.153,-62.464,11.703,-8.2072,-9.7574
7.8086,44.136,-62.441,11.735,-8.2302,-9.7846
7.8307,44.119,-62.418,11.768,-8.2528,-9.8119
7.8527,44.102,-62.395,11.801,-8.2752,-9.8395
7.8746,44.085,-62.371,11.834,-8.2975,-9.8678
7.8962,44.067,-62.348,11.866,-8.3202,-9.8957
7.918,44.05,-62.325,11.899,-8.343,-9.9234
7.9398,44.033,-62.302,11.933,-8.3659,-9.9516
7.9621,44.016,-62.279,11.966,-8.3883,-9.9805
7.9842,43.999,-62.256,12,-8.4107,-10.009
8.0063,43.981,-62.233,12.033,-8.4333,-10.038
8.028,43.964,-62.21,12.067,-8.4565,-10.066
8.05,43.947,-62.187,12.1,-8.4798,-10.094
8.0722,43.929,-62.164,12.133,-8.503,-10.123
8.0945,43.912,-62.14,12.167,-8.526,-10.152
8.1168,43.895,-62.117,12.201,-8.5489,-10.18
8.1389,43.877,-62.093,12.234,-8.5722,-10.208
8.1609,43.86,-62.07,12.267,-8.5958,-10.237
8.1831,43.842,-62.047,12.301,-8.6194,-10.266
8.2056,43.825,-62.023,12.336,-8.6427,-10.295
8.2279,43.807,-61.999,12.37,-8.6657,-10.324
8.2504,43.79,-61.975,12.404,-8.6888,-10.353
8.2727,43.772,-61.951,12.439,-8.7121,-10.383
8.2949,43.755,-61.928,12.473,-8.7357,-10.412
8.3173,43.737,-61.904,12.506,-8.7593,-10.441
8.34,43.72,-61.88,12.54,-8.7828,-10.47
8.3623,43.702,-61.855,12.575,-8.8062,-10.498
8.3851,43.684,-61.832,12.609,-8.8302,-10.527
8.4075,43.666,-61.808,12.643,-8.8546,-10.556
8.43,43.648,-61.784,12.677,-8.8792,-10.584
8.4525,43.631,-61.76,12.712,-8.9034,-10.613
8.4754,43.613,-61.736,12.747,-8.9274,-10.642
8.4979,43.595,-61.711,12.781,-8.9515,-10.671
8.5208,43.578,-61.687,12.816,-8.976,-10.7
8.5433,43.56,-61.663,12.85,-9.0007,-10.728
8.5662,43.542,-61.639,12.884,-9.0252,-10.757
8.5888,43.524,-61.615,12.918,-9.0492,-10.786
8.6118,43.506,-61.591,12.953,-9.0732,-10.815
8.6347,43.488,-61.567,12.988,-9.0975,-10.843
8.6577,43.47,-61.543,13.022,-9.1221,-10.872
8.6805,43.452,-61.519,13.056,-9.1469,-10.9
8.7034,43.434,-61.495,13.091,-9.1716,-10.929
8.7263,43.416,-61.47,13.126,-9.1962,-10.957
8.7495,43.398,-61.446,13.161,-9.221,-10.986
8.7727,43.38,-61.422,13.196,-9.2465,-11.014
8.7957,43.362,-61.398,13.231,-9.2722,-11.044
8.8188,43.344,-61.374,13.265,-9.2976,-11.072
8.8419,43.326,-61.349,13.3,-9.3227,-11.1
8.8653,43.307,-61.324,13.335,-9.3479,-11.129
8.8885,43.289,-61.299,13.37,-9.3734,-11.158
8.9121,43.27,-61.275,13.405,-9.3991,-11.186
8.9352,43.252,-61.25,13.439,-9.4244,-11.215
8.9587,43.234,-61.225,13.474,-9.4493,-11.243
8.9819,43.215,-61.2,13.51,-9.4744,-11.272
9.0055,43.197,-61.174,13.545,-9.4999,-11.3
9.029,43.179,-61.15,13.58,-9.5259,-11.329
9.0526,43.16,-61.125,13.616,-9.5517,-11.357
9.0761,43.142,-61.1,13.651,-9.5773,-11.386
9.0997,43.123,-61.074,13.686,-9.6028,-11.415
9.1231,43.105,-61.049,13.721,-9.6288,-11.444
9.1468,43.086,-61.024,13.757,-9.6552,-11.473
9.1708,43.067,-60.999,13.792,-9.6813,-11.501
9.1943,43.049,-60.974,13.828,-9.707,-11.531
9.218,43.03,-60.949,13.863,-9.7326,-11.56
9.2415,43.011,-60.923,13.9,-9.7585,-11.59
9.2655,42.992,-60.898,13.935,-9.7845,-11.619
9.2894,42.974,-60.874,13.971,-9.8102,-11.649
9.3134,42.955,-60.849,14.008,-9.8355,-11.679
9.3371,42.936,-60.824,14.044,-9.8607,-11.709
9.3609,42.917,-60.799,14.079,-9.8863,-11.738
9.3848,42.898,-60.774,14.115,-9.9126,-11.768
9.4088,42.879,-60.749,14.152,-9.9388,-11.798
9.4332,42.861,-60.725,14.188,-9.9646,-11.828
9.4571,42.842,-60.7,14.224,-9.9903,-11.858
9.481,42.823,-60.674,14.261,-10.016,-11.887
9.5048,42.804,-60.649,14.298,-10.043,-11.918
9.5292,42.785,-60.624,14.334,-10.069,-11.948
9.5535,42.766,-60.599,14.371,-10.095,-11.979
9.5779,42.747,-60.574,14.408,-10.121,-12.009
9.6018,42.728,-60.548,14.444,-10.147,-12.039
9.6258,42.709,-60.522,14.481,-10.173,-12.07
9.6503,42.689,-60.497,14.518,-10.199,-12.101
9.6748,42.67,-60.472,14.555,-10.224,-12.131
9.6994,42.651,-60.446,14.592,-10.25,-12.161
9.7235,42.632,-60.42,14.628,-10.275,-12.192
9.7478,42.613,-60.394,14.666,-10.302,-12.222
9.7721,42.594,-60.369,14.704,-10.329,-12.253
9.7969,42.575,-60.343,14.741,-10.355,-12.283
9.8218,42.556,-60.318,14.778,-10.381,-12.314
9.8462,42.536,-60.291,14.815,-10.407,-12.345
9.8706,42.517,-60.265,14.852,-10.434,-12.377
9.8949,42.498,-60.24,14.889,-10.46,-12.407
9.92,42.479,-60.214,14.927,-10.486,-12.438
9.9448,42.459,-60.188,14.964,-10.512,-12.469
9.9697,42.44,-60.162,15.001,-10.538,-12.501
9.9942,42.421,-60.136,15.038,-10.564,-12.531
10.019,42.401,-60.11,15.076,-10.59,-12.562
10.044,42.382,-60.085,15.114,-10.616,-12.593
10.069,42.363,-60.059,15.151,-10.642,-12.624
10.094,42.343,-60.033,15.189,-10.668,-12.655
10.119,42.324,-60.008,15.227,-10.695,-12.685
10.144,42.305,-59.982,15.264,-10.722,-12.716
10.169,42.285,-59.956,15.302,-10.748,-12.747
10.194,42.266,-59.93,15.34,-10.775,-12.778
10.219,42.246,-59.904,15.377,-10.801,-12.809
10.244,42.227,-59.878,15.415,-10.828,-12.84
10.269,42.207,-59.851,15.453,-10.855,-12.871
10.294,42.187,-59.825,15.491,-10.882,-12.902
10.32,42.168,-59.798,15.529,-10.908,-12.932
10.345,42.148,-59.771,15.567,-10.935,-12.963
10.37,42.129,-59.744,15.605,-10.962,-12.994
10.396,42.109,-59.717,15.642,-10.989,-13.025
10.421,42.089,-59.691,15.68,-11.015,-13.055
10.447,42.069,-59.664,15.719,-11.042,-13.086
10.472,42.05,-59.637,15.757,-11.069,-13.117
10.498,42.03,-59.61,15.795,-11.096,-13.148
10.523,42.01,-59.583,15.833,-11.124,-13.179
10.548,41.99,-59.556,15.872,-11.151,-13.209
10.574,41.971,-59.529,15.91,-11.178,-13.24
10.6,41.95,-59.502,15.949,-11.205,-13.271
10.625,41.931,-59.474,15.987,-11.233,-13.302
10.651,41.911,-59.448,16.026,-11.26,-13.332
10.676,41.891,-59.421,16.064,-11.287,-13.363
10.702,41.871,-59.393,16.103,-11.314,-13.395
10.728,41.851,-59.366,16.142,-11.342,-13.426
10.754,41.83,-59.339,16.18,-11.369,-13.456
10.779,41.81,-59.312,16.219,-11.397,-13.487
10.805,41.79,-59.285,16.258,-11.424,-13.519
10.831,41.77,-59.258,16.297,-11.452,-13.55
10.857,41.75,-59.231,16.335,-11.48,-13.581
10.883,41.73,-59.204,16.374,-11.508,-13.613
10.908,41.71,-59.177,16.413,-11.536,-13.644
10.934,41.689,-59.15,16.452,-11.563,-13.676
10.96,41.669,-59.123,16.491,-11.591,-13.708
10.986,41.649,-59.095,16.53,-11.62,-13.74
11.012,41.629,-59.067,16.569,-11.648,-13.772
11.038,41.608,-59.04,16.608,-11.675,-13.805
11.064,41.588,-59.012,16.648,-11.703,-13.837
11.09,41.567,-58.984,16.686,-11.731,-13.869
11.116,41.547,-58.956,16.725,-11.759,-13.902
11.143,41.527,-58.929,16.765,-11.787,-13.934
11.169,41.506,-58.902,16.804,-11.815,-13.967
11.195,41.486,-58.874,16.843,-11.842,-14
11.221,41.465,-58.846,16.883,-11.871,-14.033
11.247,41.445,-58.818,16.923,-11.899,-14.066
11.274,41.424,-58.791,16.962,-11.926,-14.099
11.3,41.404,-58.763,17.002,-11.954,-14.132
11.326,41.383,-58.735,17.042,-11.982,-14.166
11.352,41.363,-58.707,17.081,-12.01,-14.2
11.379,41.342,-58.679,17.12,-12.038,-14.233
11.405,41.321,-58.651,17.16,-12.065,-14.266
11.432,41.3,-58.624,17.2,-12.093,-14.299
11.458,41.28,-58.595,17.239,-12.121,-14.333
11.484,41.259,-58.568,17.28,-12.149,-14.367
11.511,41.239,-58.54,17.319,-12.176,-14.401
11.538,41.218,-58.513,17.359,-12.204,-14.435
11.564,41.197,-58.485,17.399,-12.231,-14.47
11.59,41.176,-58.457,17.439,-12.259,-14.504
11.617,41.155,-58.429,17.478,-12.288,-14.538
11.644,41.135,-58.401,17.518,-12.315,-14.572
11.67,41.114,-58.373,17.559,-12.342,-14.606
11.697,41.093,-58.345,17.599,-12.37,-14.639
11.723,41.072,-58.316,17.639,-12.398,-14.673
11.75,41.051,-58.288,17.68,-12.426,-14.708
11.777,41.03,-58.26,17.72,-12.454,-14.742
11.804,41.009,-58.231,17.76,-12.481,-14.776
11.83,40.988,-58.203,17.801,-12.509,-14.81
11.857,40.967,-58.174,17.841,-12.537,-14.845
11.884,40.946,-58.147,17.881,-12.564,-14.879
11.911,40.925,-58.119,17.922,-12.592,-14.913
11.938,40.903,-58.09,17.963,-12.619,-14.947
11.965,40.882,-58.061,18.003,-12.647,-14.981
11.992,40.861,-58.033,18.044,-12.675,-15.015
12.019,40.84,-58.005,18.085,-12.703,-15.048
12.046,40.819,-57.976,18.126,-12.73,-15.083
12.073,40.797,-57.948,18.166,-12.758,-15.117
12.1,40.776,-57.919,18.207,-12.786,-15.151
12.127,40.755,-57.89,18.249,-12.814,-15.186
12.154,40.734,-57.862,18.289,-12.842,-15.22
12.182,40.712,-57.833,18.331,-12.87,-15.255
12.209,40.691,-57.804,18.372,-12.898,-15.289
12.236,40.67,-57.776,18.413,-12.926,-15.323
12.263,40.648,-57.748,18.454,-12.954,-15.357
12.291,40.627,-57.719,18.495,-12.981,-15.391
12.318,40.605,-57.69,18.536,-13.009,-15.424
12.345,40.584,-57.661,18.577,-13.038,-15.459
12.373,40.562,-57.632,18.619,-13.066,-15.494
12.4,40.541,-57.603,18.66,-13.095,-15.528
12.428,40.519,-57.574,18.702,-13.123,-15.562
12.455,40.497,-57.545,18.744,-13.151,-15.597
12.483,40.476,-57.515,18.784,-13.18,-15.632
12.51,40.454,-57.486,18.825,-13.209,-15.666
12.538,40.433,-57.458,18.867,-13.237,-15.7
12.565,40.411,-57.428,18.908,-13.265,-15.734
12.593,40.389,-57.399,18.95,-13.294,-15.769
12.62,40.368,-57.37,18.992,-13.323,-15.803
12.648,40.346,-57.342,19.034,-13.352,-15.838
12.676,40.324,-57.312,19.075,-13.38,-15.873
12.704,40.302,-57.283,19.117,-13.409,-15.909
12.731,40.281,-57.254,19.159,-13.438,-15.944
12.759,40.259,-57.224,19.2,-13.467,-15.979
12.787,40.237,-57.195,19.242,-13.496,-16.014
12.814,40.215,-57.166,19.284,-13.525,-16.05
12.843,40.193,-57.136,19.325,-13.554,-16.084
12.87,40.171,-57.107,19.368,-13.584,-16.119
12.898,40.149,-57.078,19.41,-13.613,-16.155
12.926,40.127,-57.049,19.452,-13.642,-16.19
12.954,40.105,-57.019,19.494,-13.671,-16.226
12.982,40.083,-56.989,19.537,-13.701,-16.262
13.01,40.061,-56.96,19.578,-13.731,-16.299
13.038,40.039,-56.931,19.62,-13.76,-16.334
13.067,40.017,-56.901,19.662,-13.79,-16.37
13.095,39.994,-56.871,19.704,-13.819,-16.406
13.123,39.972,-56.841,19.746,-13.849,-16.442
13.151,39.949,-56.811,19.789,-13.879,-16.478
13.18,39.927,-56.781,19.831,-13.908,-16.514
13.208,39.905,-56.751,19.873,-13.937,-16.551
13.237,39.883,-56.721,19.916,-13.967,-16.587
13.265,39.86,-56.692,19.957,-13.997,-16.624
13.293,39.838,-56.662,19.999,-14.027,-16.661
13.322,39.815,-56.631,20.042,-14.056,-16.698
13.351,39.793,-56.601,20.083,-14.086,-16.734
13.379,39.77,-56.571,20.125,-14.116,-16.771
13.408,39.747,-56.542,20.168,-14.146,-16.807
13.436,39.724,-56.511,20.21,-14.176,-16.843
13.465,39.702,-56.48,20.252,-14.205,-16.879
13.494,39.679,-56.45,20.295,-14.236,-16.916
13.523,39.657,-56.42,20.338,-14.266,-16.953
13.551,39.634,-56.389,20.379,-14.295,-16.989
13.58,39.611,-56.359,20.422,-14.325,-17.025
13.609,39.588,-56.328,20.464,-14.355,-17.062
13.638,39.565,-56.298,20.506,-14.385,-17.099
13.667,39.543,-56.268,20.549,-14.415,-17.135
13.696,39.52,-56.236,20.592,-14.445,-17.171
13.725,39.497,-56.206,20.634,-14.475,-17.207
13.755,39.474,-56.175,20.677,-14.506,-17.242
13.783,39.451,-56.145,20.719,-14.536,-17.278
13.812,39.428,-56.113,20.761,-14.566,-17.314
13.842,39.406,-56.082,20.804,-14.595,-17.351
13.871,39.383,-56.052,20.847,-14.626,-17.386
13.9,39.36,-56.021,20.889,-14.656,-17.422
13.929,39.336,-55.99,20.932,-14.686,-17.458
13.958,39.314,-55.959,20.976,-14.716,-17.494
13.988,39.291,-55.929,21.018,-14.746,-17.529
14.017,39.268,-55.898,21.061,-14.777,-17.565
14.046,39.245,-55.867,21.105,-14.807,-17.601
14.075,39.222,-55.836,21.147,-14.837,-17.636
14.105,39.199,-55.805,21.19,-14.868,-17.672
14.135,39.176,-55.774,21.234,-14.899,-17.708
14.164,39.153,-55.744,21.276,-14.929,-17.744
14.193,39.13,-55.712,21.32,-14.96,-17.779
14.222,39.107,-55.681,21.365,-14.99,-17.815
14.252,39.084,-55.65,21.408,-15.021,-17.852
14.282,39.061,-55.619,21.452,-15.051,-17.888
14.311,39.038,-55.588,21.495,-15.082,-17.924
14.34,39.015,-55.557,21.539,-15.113,-17.961
14.37,38.992,-55.526,21.583,-15.144,-17.997
14.4,38.969,-55.495,21.627,-15.176,-18.034
14.429,38.946,-55.463,21.671,-15.207,-18.07
14.459,38.923,-55.432,21.715,-15.238,-18.107
14.488,38.899,-55.4,21.76,-15.269,-18.145
14.518,38.877,-55.369,21.805,-15.301,-18.181
14.548,38.853,-55.338,21.849,-15.332,-18.219
14.577,38.83,-55.306,21.894,-15.363,-18.257
14.607,38.807,-55.275,21.939,-15.395,-18.294
14.637,38.784,-55.244,21.984,-15.426,-18.331
14.667,38.76,-55.213,22.029,-15.458,-18.369
14.696,38.737,-55.181,22.074,-15.49,-18.407
14.726,38.713,-55.15,22.119,-15.522,-18.444
14.756,38.69,-55.119,22.165,-15.555,-18.482
14.786,38.667,-55.088,22.21,-15.587,-18.52
14.816,38.643,-55.056,22.256,-15.619,-18.557
14.845,38.62,-55.024,22.301,-15.651,-18.595
14.875,38.596,-54.993,22.346,-15.684,-18.634
14.905,38.573,-54.961,22.392,-15.716,-18.672
14.935,38.549,-54.929,22.438,-15.748,-18.709
14.965,38.526,-54.897,22.483,-15.78,-18.748
14.995,38.502,-54.865,22.53,-15.813,-18.786
15.025,38.479,-54.834,22.575,-15.846,-18.824
15.056,38.455,-54.802,22.62,-15.878,-18.861
15.085,38.432,-54.77,22.666,-15.911,-18.9
15.116,38.408,-54.738,22.712,-15.944,-18.937
15.146,38.384,-54.706,22.757,-15.977,-18.975
15.176,38.361,-54.674,22.803,-16.009,-19.013
15.206,38.337,-54.642,22.849,-16.042,-19.051
15.236,38.313,-54.61,22.895,-16.075,-19.089
15.266,38.29,-54.578,22.941,-16.107,-19.127
15.297,38.266,-54.546,22.986,-16.139,-19.165
15.327,38.242,-54.514,23.032,-16.172,-19.202
15.358,38.219,-54.482,23.078,-16.205,-19.239
15.388,38.195,-54.451,23.124,-16.238,-19.277
15.418,38.171,-54.419,23.17,-16.27,-19.315
15.449,38.147,-54.387,23.216,-16.303,-19.352
15.479,38.124,-54.355,23.261,-16.336,-19.39
15.51,38.1,-54.324,23.307,-16.369,-19.428
15.54,38.076,-54.291,23.353,-16.402,-19.465
15.571,38.052,-54.259,23.398,-16.434,-19.503
15.601,38.028,-54.227,23.445,-16.467,-19.541
15.632,38.005,-54.195,23.491,-16.499,-19.578
15.662,37.981,-54.163,23.536,-16.531,-19.615
15.693,37.957,-54.131,23.582,-16.564,-19.653
15.723,37.933,-54.098,23.628,-16.597,-19.691
15.754,37.909,-54.067,23.674,-16.63,-19.728
15.784,37.885,-54.034,23.72,-16.663,-19.765
15.815,37.861,-54.002,23.765,-16.695,-19.803
15.846,37.838,-53.969,23.812,-16.729,-19.841
15.876,37.814,-53.937,23.858,-16.761,-19.878
15.907,37.79,-53.905,23.904,-16.793,-19.916
15.938,37.766,-53.872,23.951,-16.826,-19.954
15.969,37.742,-53.84,23.997,-16.859,-19.992
15.999,37.718,-53.808,24.043,-16.891,-20.03
16.03,37.695,-53.776,24.09,-16.923,-20.068
16.061,37.67,-53.744,24.136,-16.956,-20.106
16.092,37.646,-53.712,24.182,-16.989,-20.144
16.123,37.622,-53.68,24.229,-17.022,-20.182
16.153,37.598,-53.648,24.276,-17.054,-20.221
16.184,37.575,-53.616,24.323,-17.087,-20.259
16.215,37.55,-53.583,24.37,-17.12,-20.298
16.246,37.526,-53.551,24.416,-17.153,-20.337
16.277,37.502,-53.519,24.462,-17.185,-20.376
16.308,37.478,-53.486,24.51,-17.218,-20.415
16.339,37.454,-53.453,24.556,-17.251,-20.454
16.37,37.43,-53.421,24.603,-17.284,-20.493
16.401,37.406,-53.388,24.65,-17.316,-20.532
16.432,37.382,-53.356,24.696,-17.349,-20.571
16.463,37.357,-53.323,24.744,-17.382,-20.611
16.495,37.333,-53.29,24.79,-17.416,-20.65
16.526,37.309,-53.258,24.837,-17.449,-20.69
16.557,37.285,-53.225,24.884,-17.482,-20.731
16.588,37.261,-53.192,24.931,-17.516,-20.771
16.619,37.236,-53.159,24.978,-17.549,-20.81
16.65,37.212,-53.126,25.025,-17.582,-20.85
16.681,37.188,-53.093,25.071,-17.615,-20.89
16.713,37.164,-53.06,25.118,-17.649,-20.929
16.744,37.139,-53.028,25.165,-17.682,-20.969
16.775,37.115,-52.995,25.211,-17.715,-21.009
16.807,37.09,-52.962,25.259,-17.748,-21.049
16.838,37.066,-52.929,25.306,-17.782,-21.089
16.869,37.042,-52.897,25.353,-17.816,-21.13
16.901,37.017,-52.864,25.4,-17.849,-21.17
16.932,36.993,-52.831,25.447,-17.883,-21.209
16.963,36.968,-52.797,25.493,-17.918,-21.249
16.995,36.944,-52.765,25.54,-17.951,-21.288
17.026,36.919,-52.731,25.587,-17.984,-21.327
17.057,36.895,-52.698,25.634,-18.018,-21.367
17.089,36.87,-52.665,25.681,-18.052,-21.407
17.12,36.845,-52.632,25.728,-18.085,-21.446
17.152,36.821,-52.599,25.775,-18.119,-21.486
17.183,36.796,-52.566,25.823,-18.152,-21.526
17.215,36.772,-52.533,25.869,-18.186,-21.565
17.246,36.747,-52.5,25.917,-18.219,-21.603
17.278,36.722,-52.467,25.964,-18.253,-21.642
17.309,36.697,-52.433,26.01,-18.286,-21.681
17.341,36.673,-52.4,26.058,-18.32,-21.72
17.373,36.648,-52.367,26.106,-18.353,-21.759
17.404,36.623,-52.334,26.154,-18.386,-21.799
17.436,36.598,-52.301,26.202,-18.419,-21.838
17.467,36.574,-52.268,26.248,-18.453,-21.877
17.499,36.549,-52.236,26.296,-18.486,-21.916
17.53,36.524,-52.203,26.344,-18.519,-21.955
17.562,36.499,-52.169,26.391,-18.553,-21.993
17.594,36.475,-52.136,26.439,-18.586,-22.033
17.625,36.45,-52.104,26.487,-18.618,-22.072
17.657,36.425,-52.071,26.534,-18.651,-22.111
17.689,36.4,-52.037,26.583,-18.684,-22.151
17.72,36.375,-52.003,26.63,-18.718,-22.191
17.752,36.351,-51.971,26.677,-18.75,-22.231
17.783,36.326,-51.937,26.725,-18.783,-22.27
17.815,36.301,-51.904,26.772,-18.816,-22.31
17.847,36.276,-51.871,26.82,-18.849,-22.35
17.878,36.251,-51.838,26.869,-18.881,-22.389
17.91,36.226,-51.805,26.916,-18.914,-22.429
17.942,36.202,-51.771,26.964,-18.947,-22.469
17.973,36.177,-51.738,27.012,-18.98,-22.508
18.005,36.152,-51.705,27.059,-19.012,-22.549
18.037,36.127,-51.671,27.107,-19.044,-22.589
18.069,36.102,-51.637,27.155,-19.077,-22.629
18.1,36.078,-51.604,27.202,-19.11,-22.669
18.132,36.053,-51.571,27.251,-19.142,-22.709
18.164,36.028,-51.537,27.299,-19.175,-22.748
18.195,36.003,-51.504,27.347,-19.207,-22.788
18.227,35.979,-51.471,27.395,-19.24,-22.828
18.259,35.954,-51.438,27.442,-19.272,-22.868
18.29,35.929,-51.404,27.49,-19.304,-22.908
18.322,35.904,-51.37,27.538,-19.337,-22.949
18.354,35.879,-51.337,27.586,-19.37,-22.989
18.386,35.855,-51.303,27.634,-19.403,-23.029
18.417,35.83,-51.27,27.682,-19.435,-23.069
18.449,35.805,-51.236,27.73,-19.468,-23.109
18.481,35.78,-51.202,27.778,-19.501,-23.148
18.513,35.755,-51.169,27.825,-19.534,-23.188
18.545,35.731,-51.135,27.873,-19.566,-23.229
18.576,35.705,-51.102,27.921,-19.6,-23.269
18.608,35.681,-51.069,27.969,-19.633,-23.309
18.64,35.656,-51.036,28.017,-19.665,-23.349
18.672,35.631,-51.002,28.065,-19.698,-23.389
18.704,35.606,-50.968,28.112,-19.731,-23.429
18.736,35.581,-50.935,28.16,-19.765,-23.468
18.767,35.556,-50.902,28.207,-19.797,-23.508
18.799,35.531,-50.868,28.255,-19.83,-23.547
18.831,35.506,-50.835,28.303,-19.864,-23.587
18.863,35.481,-50.802,28.351,-19.897,-23.627
18.895,35.456,-50.769,28.399,-19.93,-23.666
18.927,35.431,-50.735,28.447,-19.963,-23.706
18.959,35.405,-50.702,28.494,-19.997,-23.746
18.991,35.38,-50.669,28.542,-20.03,-23.785
19.022,35.355,-50.635,28.59,-20.063,-23.824
19.054,35.33,-50.602,28.637,-20.096,-23.863
19.086,35.305,-50.568,28.686,-20.13,-23.902
19.118,35.28,-50.534,28.733,-20.163,-23.941
19.15,35.255,-50.501,28.781,-20.196,-23.98
19.182,35.23,-50.467,28.83,-20.23,-24.02
19.214,35.205,-50.434,28.877,-20.263,-24.058
19.246,35.179,-50.401,28.924,-20.297,-24.097
19.278,35.154,-50.367,28.972,-20.33,-24.137
19.309,35.129,-50.333,29.019,-20.363,-24.176
19.342,35.104,-50.3,29.067,-20.397,-24.215
19.373,35.079,-50.267,29.114,-20.43,-24.254
19.405,35.054,-50.233,29.161,-20.463,-24.294
19.437,35.029,-50.199,29.209,-20.496,-24.333
19.469,35.003,-50.165,29.256,-20.53,-24.372
19.501,34.978,-50.132,29.304,-20.563,-24.412
19.533,34.953,-50.098,29.351,-20.596,-24.451
19.565,34.928,-50.064,29.398,-20.629,-24.491
19.597,34.903,-50.03,29.446,-20.663,-24.531
19.629,34.878,-49.997,29.494,-20.696,-24.571
19.661,34.853,-49.963,29.541,-20.729,-24.611
19.693,34.828,-49.928,29.589,-20.763,-24.651
19.725,34.803,-49.895,29.636,-20.796,-24.692
19.757,34.777,-49.861,29.683,-20.829,-24.731
19.789,34.752,-49.827,29.731,-20.862,-24.772
19.821,34.727,-49.793,29.779,-20.895,-24.812
19.852,34.702,-49.759,29.826,-20.929,-24.852
19.885,34.677,-49.726,29.874,-20.961,-24.892
19.917,34.652,-49.692,29.921,-20.994,-24.934
19.949,34.627,-49.658,29.968,-21.028,-24.974
19.98,34.602,-49.625,30.016,-21.061,-25.014
20.012,34.577,-49.591,30.063,-21.094,-25.055
20.045,34.552,-49.557,30.111,-21.127,-25.096
20.076,34.526,-49.523,30.158,-21.161,-25.136
20.108,34.501,-49.489,30.206,-21.194,-25.177
20.14,34.477,-49.456,30.253,-21.227,-25.217
20.172,34.451,-49.422,30.301,-21.26,-25.257
20.204,34.426,-49.387,30.348,-21.293,-25.298
20.236,34.401,-49.354,30.396,-21.327,-25.339
20.268,34.376,-49.32,30.443,-21.36,-25.379
20.3,34.351,-49.285,30.491,-21.393,-25.419
20.332,34.326,-49.252,30.539,-21.427,-25.459
20.363,34.301,-49.218,30.587,-21.461,-25.499
20.396,34.275,-49.184,30.635,-21.495,-25.539
20.428,34.25,-49.15,30.682,-21.529,-25.579
20.459,34.225,-49.116,30.73,-21.563,-25.619
20.491,34.2,-49.082,30.778,-21.597,-25.658
20.523,34.175,-49.048,30.826,-21.63,-25.698
20.555,34.15,-49.014,30.874,-21.663,-25.738
20.587,34.125,-48.98,30.922,-21.697,-25.777
20.619,34.099,-48.946,30.969,-21.731,-25.817
20.651,34.074,-48.912,31.017,-21.765,-25.856
20.683,34.049,-48.879,31.065,-21.799,-25.895
20.715,34.024,-48.845,31.112,-21.834,-25.934
20.747,33.999,-48.812,31.16,-21.869,-25.974
20.779,33.973,-48.778,31.207,-21.903,-26.013
20.811,33.948,-48.743,31.255,-21.937,-26.052
20.842,33.923,-48.71,31.303,-21.972,-26.092
20.874,33.898,-48.676,31.35,-22.006,-26.131
20.906,33.873,-48.642,31.398,-22.04,-26.171
20.938,33.848,-48.608,31.445,-22.074,-26.21
20.97,33.822,-48.574,31.492,-22.109,-26.25
21.002,33.797,-48.54,31.54,-22.144,-26.289
21.034,33.772,-48.506,31.588,-22.178,-26.329
21.066,33.747,-48.472,31.636,-22.213,-26.369
21.098,33.722,-48.438,31.684,-22.249,-26.409
21.13,33.696,-48.404,31.732,-22.283,-26.448
21.162,33.671,-48.37,31.779,-22.318,-26.489
21.194,33.646,-48.336,31.827,-22.353,-26.528
21.227,33.621,-48.302,31.874,-22.387,-26.568
21.259,33.596,-48.268,31.922,-22.421,-26.609
21.291,33.57,-48.234,31.97,-22.455,-26.649
21.323,33.545,-48.201,32.018,-22.49,-26.689
21.355,33.52,-48.167,32.066,-22.525,-26.73
21.387,33.495,-48.134,32.114,-22.56,-26.77
21.419,33.47,-48.1,32.161,-22.595,-26.81
21.451,33.444,-48.066,32.209,-22.63,-26.85
21.484,33.419,-48.032,32.256,-22.664,-26.891
21.516,33.394,-47.998,32.304,-22.698,-26.932
21.548,33.369,-47.964,32.352,-22.733,-26.972
21.58,33.344,-47.931,32.4,-22.768,-27.014
21.612,33.318,-47.897,32.448,-22.801,-27.055
21.644,33.293,-47.863,32.497,-22.835,-27.095
21.676,33.268,-47.829,32.544,-22.87,-27.136
21.708,33.243,-47.796,32.592,-22.905,-27.177
21.741,33.218,-47.762,32.641,-22.939,-27.217
21.773,33.193,-47.728,32.689,-22.974,-27.258
21.805,33.167,-47.694,32.738,-23.009,-27.299
21.837,33.142,-47.66,32.786,-23.043,-27.34
21.869,33.118,-47.626,32.834,-23.077,-27.381
21.901,33.092,-47.592,32.883,-23.111,-27.423
21.933,33.067,-47.558,32.931,-23.145,-27.463
21.965,33.042,-47.525,32.98,-23.179,-27.503
21.998,33.017,-47.492,33.028,-23.212,-27.544
22.03,32.992,-47.458,33.076,-23.247,-27.584
22.061,32.967,-47.425,33.125,-23.281,-27.625
22.094,32.942,-47.391,33.173,-23.316,-27.666
22.126,32.916,-47.358,33.222,-23.349,-27.706
22.158,32.891,-47.324,33.27,-23.384,-27.746
22.19,32.866,-47.29,33.318,-23.418,-27.787
22.222,32.841,-47.257,33.366,-23.452,-27.828
22.255,32.816,-47.223,33.415,-23.486,-27.867
22.287,32.791,-47.188,33.463,-23.52,-27.907
22.318,32.766,-47.154,33.512,-23.555,-27.947
22.351,32.741,-47.121,33.561,-23.588,-27.986
22.383,32.716,-47.087,33.61,-23.622,-28.026
22.415,32.691,-47.053,33.659,-23.657,-28.067
22.447,32.666,-47.019,33.707,-23.691,-28.106
22.479,32.641,-46.985,33.756,-23.726,-28.146
22.511,32.616,-46.951,33.805,-23.76,-28.186
22.543,32.591,-46.917,33.853,-23.794,-28.225
22.575,32.565,-46.883,33.902,-23.829,-28.264
22.607,32.54,-46.849,33.952,-23.863,-28.303
22.64,32.515,-46.815,34,-23.897,-28.343
22.672,32.49,-46.781,34.049,-23.931,-28.382
22.704,32.465,-46.747,34.097,-23.966,-28.422
22.736,32.44,-46.713,34.146,-24,-28.463
22.768,32.415,-46.679,34.195,-24.034,-28.503
22.8,32.39,-46.646,34.243,-24.069,-28.543
22.832,32.365,-46.612,34.292,-24.104,-28.583
22.864,32.34,-46.578,34.34,-24.138,-28.623
22.896,32.314,-46.544,34.388,-24.173,-28.662
22.929,32.289,-46.51,34.437,-24.208,-28.702
22.96,32.264,-46.476,34.485,-24.242,-28.742
22.993,32.239,-46.442,34.533,-24.276,-28.782
23.025,32.214,-46.408,34.582,-24.311,-28.823
23.057,32.189,-46.374,34.63,-24.346,-28.864
23.089,32.163,-46.34,34.679,-24.38,-28.905
23.121,32.138,-46.306,34.728,-24.414,-28.945
23.153,32.113,-46.272,34.776,-24.449,-28.986
23.185,32.088,-46.238,34.825,-24.484,-29.026
23.217,32.063,-46.205,34.874,-24.517,-29.066
23.249,32.038,-46.171,34.922,-24.552,-29.108
23.281,32.012,-46.136,34.972,-24.586,-29.149
23.313,31.987,-46.102,35.02,-24.62,-29.189
23.345,31.962,-46.068,35.069,-24.654,-29.231
23.377,31.937,-46.034,35.118,-24.688,-29.272
23.409,31.912,-46,35.167,-24.722,-29.313
23.442,31.887,-45.967,35.216,-24.756,-29.353
23.473,31.861,-45.933,35.264,-24.79,-29.394
23.505,31.836,-45.899,35.312,-24.824,-29.434
23.537,31.811,-45.865,35.362,-24.858,-29.475
23.569,31.786,-45.831,35.41,-24.892,-29.516
23.601,31.761,-45.797,35.458,-24.925,-29.556
23.633,31.736,-45.763,35.507,-24.959,-29.597
23.665,31.711,-45.728,35.555,-24.993,-29.638
23.697,31.686,-45.694,35.604,-25.026,-29.678
23.729,31.661,-45.66,35.652,-25.059,-29.718
23.761,31.636,-45.626,35.7,-25.093,-29.758
23.793,31.611,-45.592,35.749,-25.126,-29.798
23.825,31.586,-45.558,35.797,-25.159,-29.837
23.857,31.561,-45.524,35.845,-25.192,-29.877
23.889,31.536,-45.49,35.894,-25.226,-29.918
23.921,31.511,-45.455,35.942,-25.259,-29.957
23.953,31.486,-45.422,35.99,-25.292,-29.997
23.985,31.461,-45.388,36.039,-25.324,-30.036
24.017,31.436,-45.353,36.087,-25.358,-30.076
24.049,31.411,-45.319,36.136,-25.391,-30.115
24.081,31.386,-45.285,36.184,-25.424,-30.155
24.113,31.361,-45.251,36.232,-25.457,-30.194
24.145,31.336,-45.217,36.28,-25.49,-30.232
24.177,31.311,-45.184,36.328,-25.523,-30.272
24.209,31.286,-45.15,36.376,-25.555,-30.311
24.241,31.261,-45.116,36.425,-25.588,-30.35
24.273,31.236,-45.081,36.473,-25.621,-30.389
24.305,31.21,-45.048,36.521,-25.655,-30.429
24.338,31.186,-45.014,36.569,-25.687,-30.468
24.37,31.161,-44.979,36.617,-25.72,-30.508
24.402,31.136,-44.945,36.665,-25.753,-30.547
24.433,31.111,-44.912,36.713,-25.787,-30.587
24.466,31.085,-44.878,36.761,-25.82,-30.626
24.498,31.06,-44.843,36.81,-25.853,-30.665
24.53,31.036,-44.81,36.858,-25.886,-30.705
24.562,31.011,-44.776,36.906,-25.919,-30.744
24.594,30.985,-44.742,36.954,-25.952,-30.784
24.627,30.96,-44.708,37.002,-25.985,-30.824
24.658,30.935,-44.674,37.05,-26.019,-30.864
24.69,30.91,-44.64,37.099,-26.052,-30.904
24.723,30.885,-44.607,37.147,-26.085,-30.944
24.755,30.86,-44.572,37.196,-26.118,-30.984
24.787,30.835,-44.539,37.244,-26.152,-31.024
24.819,30.81,-44.505,37.292,-26.185,-31.064
24.851,30.785,-44.472,37.34,-26.218,-31.104
24.884,30.76,-44.438,37.387,-26.252,-31.144
24.916,30.734,-44.404,37.436,-26.286,-31.185
24.948,30.709,-44.371,37.484,-26.319,-31.225
24.98,30.684,-44.337,37.532,-26.352,-31.266
25.012,30.659,-44.303,37.581,-26.386,-31.306
25.044,30.634,-44.269,37.629,-26.42,-31.347
25.076,30.608,-44.235,37.676,-26.453,-31.387
25.109,30.583,-44.201,37.725,-26.486,-31.428
25.141,30.558,-44.168,37.772,-26.52,-31.468
25.173,30.533,-44.134,37.82,-26.554,-31.508
25.205,30.507,-44.101,37.869,-26.587,-31.548
25.237,30.482,-44.067,37.917,-26.62,-31.589
25.269,30.457,-44.033,37.965,-26.654,-31.63
25.301,30.432,-44,38.013,-26.688,-31.67
25.333,30.407,-43.967,38.061,-26.721,-31.71
25.365,30.381,-43.933,38.109,-26.754,-31.75
25.398,30.356,-43.899,38.157,-26.788,-31.79
25.43,30.331,-43.865,38.205,-26.821,-31.83
25.462,30.305,-43.832,38.253,-26.855,-31.871
25.494,30.28,-43.798,38.301,-26.888,-31.91
25.526,30.255,-43.764,38.35,-26.921,-31.949
25.558,30.23,-43.731,38.398,-26.955,-31.99
25.59,30.204,-43.698,38.446,-26.988,-32.03
25.622,30.179,-43.663,38.494,-27.022,-32.069
25.654,30.154,-43.63,38.542,-27.055,-32.109
25.686,30.128,-43.596,38.59,-27.089,-32.148
25.718,30.103,-43.562,38.639,-27.122,-32.187
25.75,30.078,-43.528,38.687,-27.155,-32.226
25.782,30.053,-43.494,38.735,-27.189,-32.266
25.814,30.027,-43.461,38.784,-27.222,-32.305
25.846,30.002,-43.427,38.831,-27.255,-32.344
25.878,29.977,-43.393,38.88,-27.288,-32.383
25.91,29.951,-43.36,38.928,-27.322,-32.423
25.943,29.926,-43.327,38.976,-27.356,-32.462
25.975,29.901,-43.293,39.025,-27.389,-32.501
26.006,29.876,-43.258,39.074,-27.422,-32.541
26.038,29.851,-43.225,39.122,-27.456,-32.579
26.071,29.825,-43.192,39.171,-27.49,-32.619
26.103,29.8,-43.158,39.219,-27.523,-32.659
26.134,29.775,-43.124,39.267,-27.556,-32.698
26.167,29.75,-43.09,39.315,-27.589,-32.737
26.199,29.724,-43.056,39.363,-27.623,-32.778
26.231,29.699,-43.022,39.412,-27.656,-32.817
26.263,29.674,-42.988,39.46,-27.689,-32.857
26.295,29.648,-42.955,39.507,-27.724,-32.898
26.327,29.623,-42.922,39.556,-27.757,-32.938
26.359,29.598,-42.887,39.603,-27.791,-32.978
26.391,29.573,-42.853,39.65,-27.825,-33.019
26.423,29.548,-42.82,39.698,-27.859,-33.06
26.456,29.522,-42.786,39.745,-27.892,-33.1
26.487,29.497,-42.752,39.793,-27.926,-33.141
26.519,29.472,-42.718,39.841,-27.959,-33.182
26.551,29.447,-42.685,39.888,-27.993,-33.222
26.584,29.421,-42.651,39.936,-28.027,-33.264
26.616,29.396,-42.617,39.982,-28.061,-33.305
26.647,29.37,-42.583,40.03,-28.095,-33.346
26.68,29.345,-42.55,40.077,-28.13,-33.387
26.712,29.32,-42.516,40.124,-28.164,-33.429
26.744,29.295,-42.482,40.171,-28.198,-33.47
26.776,29.269,-42.448,40.219,-28.233,-33.51
26.808,29.244,-42.414,40.265,-28.267,-33.552
26.84,29.219,-42.38,40.313,-28.301,-33.593
26.872,29.194,-42.345,40.359,-28.335,-33.634
26.904,29.168,-42.311,40.405,-28.37,-33.676
26.937,29.143,-42.277,40.453,-28.405,-33.717
26.969,29.117,-42.243,40.499,-28.439,-33.757
27.001,29.092,-42.208,40.546,-28.474,-33.798
27.033,29.067,-42.174,40.593,-28.509,-33.839
27.065,29.042,-42.14,40.64,-28.544,-33.879
27.097,29.016,-42.105,40.687,-28.578,-33.92
27.129,28.991,-42.071,40.734,-28.613,-33.961
27.161,28.966,-42.037,40.78,-28.648,-34.001
27.193,28.941,-42.003,40.827,-28.682,-34.042
27.225,28.916,-41.969,40.875,-28.716,-34.083
27.258,28.89,-41.935,40.921,-28.75,-34.123
27.29,28.865,-41.901,40.969,-28.785,-34.163
27.322,28.84,-41.868,41.017,-28.82,-34.202
27.354,28.815,-41.834,41.063,-28.854,-34.242
27.386,28.79,-41.8,41.111,-28.889,-34.281
27.418,28.764,-41.766,41.158,-28.924,-34.322
27.45,28.739,-41.732,41.205,-28.958,-34.362
27.482,28.714,-41.698,41.253,-28.992,-34.402
27.514,28.689,-41.664,41.301,-29.026,-34.442
27.547,28.664,-41.631,41.348,-29.06,-34.482
27.578,28.638,-41.597,41.397,-29.094,-34.522
27.611,28.613,-41.563,41.443,-29.128,-34.561
27.643,28.588,-41.529,41.491,-29.163,-34.6
27.675,28.563,-41.495,41.539,-29.197,-34.64
27.707,28.538,-41.461,41.587,-29.231,-34.679
27.739,28.513,-41.427,41.635,-29.265,-34.72
27.771,28.488,-41.393,41.683,-29.3,-34.761
27.804,28.463,-41.359,41.731,-29.334,-34.801
27.836,28.438,-41.324,41.779,-29.367,-34.841
27.868,28.413,-41.29,41.827,-29.401,-34.881
27.9,28.388,-41.257,41.875,-29.435,-34.921
27.932,28.363,-41.223,41.924,-29.469,-34.96
27.964,28.337,-41.189,41.972,-29.502,-35.001
27.996,28.312,-41.156,42.021,-29.536,-35.041
28.029,28.287,-41.122,42.069,-29.571,-35.081
28.061,28.262,-41.089,42.118,-29.605,-35.122
28.093,28.237,-41.055,42.167,-29.638,-35.163
28.125,28.212,-41.021,42.214,-29.673,-35.203
28.157,28.187,-40.987,42.263,-29.707,-35.244
28.189,28.162,-40.953,42.312,-29.74,-35.284
28.221,28.137,-40.919,42.36,-29.774,-35.324
28.253,28.111,-40.885,42.409,-29.808,-35.364
28.286,28.086,-40.851,42.458,-29.842,-35.406
28.318,28.061,-40.818,42.506,-29.876,-35.446
28.35,28.036,-40.783,42.555,-29.909,-35.487
28.382,28.011,-40.75,42.603,-29.944,-35.529
28.414,27.985,-40.716,42.652,-29.978,-35.569
28.446,27.96,-40.682,42.701,-30.012,-35.61
28.478,27.935,-40.648,42.749,-30.047,-35.65
28.511,27.91,-40.614,42.798,-30.081,-35.691
28.543,27.885,-40.581,42.847,-30.115,-35.731
28.575,27.859,-40.547,42.895,-30.149,-35.772
28.607,27.834,-40.513,42.945,-30.183,-35.813
28.639,27.809,-40.479,42.993,-30.218,-35.852
28.671,27.784,-40.446,43.041,-30.252,-35.893
28.703,27.759,-40.412,43.091,-30.286,-35.934
28.735,27.733,-40.379,43.139,-30.32,-35.974
28.767,27.708,-40.345,43.189,-30.355,-36.014
28.8,27.683,-40.312,43.237,-30.39,-36.054
28.832,27.658,-40.278,43.285,-30.424,-36.094
28.863,27.633,-40.244,43.335,-30.459,-36.133
28.896,27.607,-40.211,43.384,-30.494,-36.174
28.928,27.582,-40.177,43.432,-30.528,-36.214
28.96,27.557,-40.143,43.481,-30.562,-36.253
28.992,27.532,-40.109,43.529,-30.597,-36.293
29.024,27.506,-40.076,43.578,-30.631,-36.333
29.056,27.481,-40.042,43.627,-30.665,-36.372
29.089,27.456,-40.009,43.675,-30.699,-36.411
29.12,27.431,-39.975,43.723,-30.734,-36.45
29.153,27.406,-39.942,43.772,-30.768,-36.488
29.185,27.381,-39.908,43.82,-30.802,-36.527
29.217,27.356,-39.874,43.869,-30.836,-36.567
29.249,27.33,-39.84,43.917,-30.871,-36.605
29.281,27.305,-39.807,43.965,-30.905,-36.644
29.313,27.28,-39.773,44.014,-30.939,-36.683
29.345,27.255,-39.739,44.061,-30.973,-36.723
29.377,27.23,-39.706,44.11,-31.007,-36.761
29.409,27.205,-39.673,44.158,-31.041,-36.801
29.441,27.179,-39.64,44.207,-31.074,-36.84
29.474,27.154,-39.606,44.255,-31.108,-36.879
29.506,27.129,-39.572,44.303,-31.142,-36.918
29.537,27.104,-39.539,44.351,-31.176,-36.958
29.569,27.079,-39.505,44.399,-31.209,-36.998
29.602,27.054,-39.471,44.447,-31.243,-37.037
29.634,27.028,-39.436,44.496,-31.277,-37.077
29.665,27.003,-39.403,44.544,-31.31,-37.118
29.697,26.978,-39.369,44.592,-31.343,-37.158
29.73,26.953,-39.335,44.641,-31.377,-37.198
29.762,26.928,-39.301,44.689,-31.41,-37.238
29.793,26.902,-39.268,44.737,-31.443,-37.279
29.826,26.877,-39.234,44.786,-31.476,-37.319
29.858,26.852,-39.2,44.834,-31.51,-37.36
29.89,26.827,-39.166,44.882,-31.543,-37.4
29.921,26.802,-39.132,44.931,-31.576,-37.44
29.954,26.777,-39.098,44.979,-31.609,-37.482
29.986,26.752,-39.064,45.028,-31.642,-37.523
30.018,26.727,-39.03,45.076,-31.675,-37.563
30.05,26.702,-38.996,45.124,-31.708,-37.604
30.082,26.676,-38.962,45.173,-31.741,-37.646
30.114,26.651,-38.928,45.221,-31.774,-37.686
30.146,26.626,-38.895,45.27,-31.807,-37.727
30.178,26.601,-38.861,45.319,-31.839,-37.768
30.21,26.576,-38.827,45.368,-31.872,-37.808
30.242,26.551,-38.792,45.417,-31.906,-37.849
30.274,26.526,-38.759,45.465,-31.939,-37.89
30.306,26.501,-38.725,45.514,-31.972,-37.93
30.338,26.476,-38.69,45.562,-32.004,-37.97
30.371,26.451,-38.656,45.61,-32.038,-38.011
30.403,26.426,-38.623,45.659,-32.071,-38.051
30.435,26.401,-38.589,45.708,-32.104,-38.09
30.467,26.376,-38.554,45.756,-32.137,-38.131
30.499,26.351,-38.521,45.805,-32.17,-38.171
30.531,26.326,-38.487,45.853,-32.204,-38.21
30.563,26.301,-38.453,45.9,-32.236,-38.249
30.595,26.275,-38.419,45.948,-32.269,-38.289
30.628,26.25,-38.385,45.996,-32.303,-38.329
30.66,26.225,-38.351,46.044,-32.337,-38.368
30.692,26.2,-38.317,46.093,-32.369,-38.408
30.724,26.175,-38.283,46.14,-32.403,-38.447
30.756,26.149,-38.249,46.188,-32.437,-38.486
30.789,26.124,-38.216,46.236,-32.47,-38.526
30.821,26.099,-38.182,46.283,-32.503,-38.565
30.853,26.074,-38.148,46.331,-32.537,-38.604
30.885,26.049,-38.114,46.379,-32.571,-38.643
30.917,26.024,-38.08,46.426,-32.605,-38.683
30.949,25.999,-38.046,46.475,-32.638,-38.722
30.981,25.973,-38.012,46.523,-32.671,-38.762
31.014,25.948,-37.978,46.571,-32.705,-38.802
31.046,25.923,-37.944,46.619,-32.739,-38.841
31.078,25.898,-37.909,46.666,-32.772,-38.88
31.11,25.873,-37.875,46.714,-32.805,-38.92
31.142,25.848,-37.842,46.762,-32.839,-38.96
31.174,25.823,-37.808,46.81,-32.872,-38.999
31.206,25.797,-37.774,46.858,-32.906,-39.039
31.238,25.772,-37.74,46.907,-32.939,-39.08
31.27,25.747,-37.706,46.954,-32.973,-39.119
31.303,25.722,-37.672,47.003,-33.006,-39.16
31.334,25.697,-37.638,47.05,-33.039,-39.2
31.366,25.671,-37.604,47.099,-33.073,-39.24
31.398,25.646,-37.57,47.147,-33.106,-39.28
31.431,25.621,-37.536,47.195,-33.14,-39.321
31.463,25.596,-37.502,47.244,-33.173,-39.361
31.494,25.571,-37.469,47.293,-33.206,-39.401
31.527,25.546,-37.435,47.341,-33.24,-39.442
31.559,25.521,-37.401,47.39,-33.273,-39.483
31.59,25.496,-37.367,47.438,-33.306,-39.524
31.622,25.471,-37.333,47.486,-33.34,-39.565
31.654,25.445,-37.3,47.535,-33.373,-39.606
31.686,25.42,-37.265,47.584,-33.407,-39.647
31.718,25.395,-37.231,47.633,-33.439,-39.688
31.75,25.37,-37.197,47.682,-33.473,-39.729
31.782,25.345,-37.164,47.73,-33.506,-39.769
31.814,25.32,-37.13,47.779,-33.539,-39.81
31.846,25.295,-37.096,47.827,-33.572,-39.852
31.878,25.27,-37.063,47.875,-33.606,-39.893
31.91,25.245,-37.029,47.925,-33.639,-39.934
31.942,25.22,-36.995,47.973,-33.672,-39.976
31.974,25.195,-36.961,48.021,-33.705,-40.017
32.006,25.17,-36.928,48.07,-33.739,-40.057
32.038,25.145,-36.894,48.118,-33.772,-40.098
32.07,25.12,-36.861,48.167,-33.805,-40.138
32.102,25.094,-36.827,48.216,-33.838,-40.178
32.134,25.069,-36.793,48.264,-33.871,-40.219
32.166,25.044,-36.759,48.312,-33.905,-40.26
32.198,25.019,-36.725,48.361,-33.938,-40.3
32.23,24.994,-36.692,48.409,-33.971,-40.341
32.262,24.969,-36.659,48.458,-34.005,-40.381
32.294,24.943,-36.625,48.505,-34.039,-40.421
32.326,24.918,-36.591,48.553,-34.072,-40.46
32.358,24.893,-36.557,48.602,-34.106,-40.5
32.39,24.868,-36.524,48.649,-34.14,-40.539
32.422,24.843,-36.49,48.697,-34.174,-40.579
32.454,24.818,-36.456,48.745,-34.207,-40.619
32.486,24.792,-36.423,48.793,-34.241,-40.659
32.518,24.767,-36.39,48.841,-34.275,-40.698
32.55,24.742,-36.356,48.888,-34.309,-40.738
32.582,24.717,-36.322,48.935,-34.343,-40.778
32.615,24.692,-36.289,48.983,-34.377,-40.817
32.646,24.666,-36.256,49.03,-34.412,-40.856
32.678,24.641,-36.222,49.078,-34.446,-40.895
32.711,24.616,-36.188,49.125,-34.481,-40.934
32.743,24.591,-36.154,49.172,-34.515,-40.974
32.775,24.566,-36.121,49.22,-34.55,-41.015
32.806,24.54,-36.087,49.267,-34.584,-41.055
32.839,24.515,-36.053,49.314,-34.618,-41.095
32.871,24.49,-36.019,49.362,-34.653,-41.135
32.903,24.465,-35.985,49.409,-34.688,-41.175
32.935,24.44,-35.951,49.457,-34.722,-41.215
32.967,24.414,-35.917,49.505,-34.757,-41.255
32.999,24.389,-35.883,49.551,-34.792,-41.296
33.031,24.364,-35.849,49.599,-34.827,-41.336
33.063,24.339,-35.815,49.647,-34.861,-41.376
33.095,24.314,-35.781,49.694,-34.896,-41.418
33.127,24.289,-35.747,49.742,-34.931,-41.459
33.159,24.264,-35.713,49.789,-34.965,-41.499
33.191,24.238,-35.679,49.836,-34.999,-41.54
33.223,24.214,-35.645,49.884,-35.034,-41.581
33.256,24.188,-35.612,49.931,-35.069,-41.621
33.287,24.163,-35.578,49.978,-35.103,-41.662
33.319,24.138,-35.544,50.026,-35.138,-41.703
33.352,24.113,-35.511,50.073,-35.173,-41.744
33.384,24.088,-35.477,50.121,-35.208,-41.785
33.415,24.063,-35.443,50.168,-35.242,-41.827
33.447,24.038,-35.409,50.215,-35.276,-41.867
33.48,24.013,-35.375,50.263,-35.311,-41.908
33.512,23.988,-35.341,50.31,-35.345,-41.949
33.544,23.962,-35.307,50.357,-35.379,-41.989
33.576,23.937,-35.273,50.404,-35.413,-42.029
33.608,23.912,-35.239,50.452,-35.448,-42.07
33.64,23.887,-35.206,50.5,-35.482,-42.11
33.672,23.862,-35.171,50.548,-35.516,-42.15
33.704,23.837,-35.137,50.595,-35.551,-42.191
33.736,23.812,-35.103,50.642,-35.585,-42.231
33.768,23.787,-35.069,50.69,-35.619,-42.271
33.8,23.761,-35.035,50.736,-35.653,-42.31
33.832,23.736,-35.001,50.784,-35.687,-42.35
33.864,23.711,-34.967,50.832,-35.721,-42.389
33.896,23.686,-34.934,50.879,-35.755,-42.429
33.929,23.661,-34.9,50.927,-35.788,-42.469
33.961,23.636,-34.866,50.974,-35.822,-42.509
33.993,23.611,-34.833,51.021,-35.857,-42.548
34.025,23.585,-34.799,51.069,-35.891,-42.588
34.057,23.56,-34.765,51.116,-35.924,-42.627
34.089,23.535,-34.731,51.164,-35.959,-42.666
34.121,23.51,-34.698,51.212,-35.993,-42.706
34.154,23.485,-34.664,51.26,-36.027,-42.745
34.186,23.46,-34.629,51.308,-36.06,-42.783
34.218,23.434,-34.595,51.355,-36.095,-42.823
34.25,23.409,-34.562,51.403,-36.129,-42.862
34.282,23.384,-34.528,51.451,-36.162,-42.901
34.315,23.359,-34.494,51.499,-36.196,-42.94
34.347,23.334,-34.46,51.546,-36.231,-42.98
34.378,23.309,-34.427,51.595,-36.265,-43.02
34.411,23.283,-34.393,51.643,-36.299,-43.059
34.443,23.258,-34.359,51.691,-36.334,-43.098
34.475,23.233,-34.325,51.74,-36.369,-43.138
34.507,23.208,-34.291,51.788,-36.403,-43.177
34.539,23.183,-34.257,51.836,-36.437,-43.216
34.572,23.158,-34.223,51.885,-36.471,-43.257
34.604,23.132,-34.189,51.933,-36.506,-43.296
34.635,23.107,-34.156,51.982,-36.54,-43.335
34.668,23.082,-34.122,52.03,-36.574,-43.376
34.7,23.057,-34.088,52.079,-36.608,-43.416
34.732,23.032,-34.055,52.128,-36.643,-43.456
34.764,23.006,-34.022,52.175,-36.678,-43.496
34.796,22.981,-33.988,52.224,-36.712,-43.536
34.829,22.956,-33.953,52.273,-36.747,-43.576
34.86,22.931,-33.92,52.321,-36.782,-43.616
34.892,22.906,-33.886,52.37,-36.816,-43.656
34.925,22.88,-33.852,52.418,-36.85,-43.696
34.957,22.855,-33.818,52.467,-36.885,-43.736
34.989,22.83,-33.785,52.515,-36.92,-43.777
35.021,22.805,-33.751,52.563,-36.954,-43.817
35.053,22.78,-33.717,52.612,-36.988,-43.858
35.085,22.755,-33.684,52.66,-37.023,-43.898
35.117,22.729,-33.65,52.708,-37.057,-43.939
35.149,22.704,-33.617,52.757,-37.091,-43.979
35.181,22.679,-33.582,52.806,-37.125,-44.02
35.213,22.654,-33.549,52.854,-37.16,-44.061
35.245,22.629,-33.515,52.903,-37.194,-44.1
35.277,22.603,-33.482,52.95,-37.228,-44.141
35.309,22.578,-33.448,52.999,-37.262,-44.182
35.342,22.553,-33.415,53.047,-37.296,-44.222
35.373,22.528,-33.382,53.095,-37.33,-44.262
35.405,22.503,-33.348,53.144,-37.363,-44.303
35.438,22.478,-33.315,53.193,-37.398,-44.342
35.47,22.452,-33.281,53.24,-37.432,-44.382
35.502,22.427,-33.248,53.289,-37.465,-44.422
35.534,22.402,-33.214,53.337,-37.498,-44.462
35.566,22.377,-33.179,53.385,-37.533,-44.501
35.598,22.352,-33.146,53.434,-37.567,-44.541
35.63,22.327,-33.112,53.482,-37.6,-44.581
35.662,22.302,-33.078,53.531,-37.633,-44.62
35.694,22.277,-33.044,53.58,-37.667,-44.66
35.726,22.252,-33.011,53.628,-37.7,-44.699
35.758,22.227,-32.977,53.677,-37.733,-44.738
35.79,22.202,-32.943,53.725,-37.767,-44.777
35.822,22.177,-32.909,53.774,-37.8,-44.816
35.854,22.152,-32.875,53.823,-37.834,-44.856
35.886,22.127,-32.841,53.871,-37.866,-44.894
35.918,22.101,-32.807,53.92,-37.899,-44.933
35.95,22.076,-32.773,53.969,-37.933,-44.973
35.982,22.051,-32.739,54.017,-37.966,-45.011
36.014,22.026,-32.705,54.066,-37.999,-45.051
36.046,22.001,-32.671,54.115,-38.032,-45.091
36.078,21.976,-32.637,54.163,-38.065,-45.13
36.11,21.951,-32.604,54.213,-38.098,-45.169
36.142,21.926,-32.57,54.261,-38.13,-45.209
36.174,21.901,-32.535,54.31,-38.164,-45.248
36.206,21.876,-32.501,54.359,-38.197,-45.288
36.238,21.851,-32.468,54.406,-38.23,-45.328
36.27,21.826,-32.434,54.456,-38.263,-45.368
36.302,21.801,-32.399,54.504,-38.296,-45.407
36.334,21.776,-32.365,54.552,-38.329,-45.448
36.366,21.751,-32.332,54.601,-38.363,-45.489
36.398,21.726,-32.298,54.65,-38.396,-45.529
36.43,21.701,-32.264,54.698,-38.429,-45.569
36.462,21.676,-32.23,54.747,-38.462,-45.61
36.494,21.65,-32.197,54.795,-38.495,-45.65
36.527,21.625,-32.163,54.843,-38.528,-45.69
36.559,21.6,-32.129,54.892,-38.562,-45.731
36.59,21.575,-32.095,54.94,-38.596,-45.772
36.623,21.55,-32.061,54.988,-38.629,-45.813
36.655,21.525,-32.027,55.036,-38.662,-45.854
36.687,21.5,-31.993,55.084,-38.696,-45.896
36.719,21.475,-31.96,55.132,-38.729,-45.936
36.751,21.449,-31.926,55.179,-38.763,-45.977
36.784,21.424,-31.892,55.227,-38.796,-46.018
36.816,21.399,-31.858,55.276,-38.83,-46.058
36.848,21.374,-31.825,55.323,-38.864,-46.099
36.88,21.349,-31.791,55.371,-38.898,-46.14
36.912,21.324,-31.757,55.419,-38.931,-46.181
36.944,21.299,-31.723,55.467,-38.965,-46.222
36.976,21.273,-31.689,55.515,-38.999,-46.263
37.008,21.248,-31.655,55.563,-39.032,-46.304
37.041,21.223,-31.621,55.61,-39.065,-46.344
37.073,21.198,-31.587,55.659,-39.099,-46.384
37.105,21.173,-31.553,55.706,-39.133,-46.425
37.137,21.148,-31.519,55.755,-39.166,-46.464
37.169,21.122,-31.485,55.803,-39.2,-46.505
37.201,21.097,-31.451,55.85,-39.234,-46.546
37.233,21.072,-31.418,55.898,-39.267,-46.586
37.266,21.047,-31.384,55.946,-39.3,-46.627
37.298,21.022,-31.35,55.994,-39.334,-46.668
37.33,20.996,-31.316,56.043,-39.367,-46.707
37.362,20.971,-31.282,56.09,-39.401,-46.747
37.394,20.946,-31.248,56.138,-39.434,-46.787
37.426,20.921,-31.214,56.186,-39.467,-46.826
37.459,20.896,-31.18,56.234,-39.501,-46.866
37.49,20.87,-31.147,56.282,-39.535,-46.907
37.522,20.845,-31.113,56.33,-39.568,-46.947
37.555,20.82,-31.079,56.378,-39.601,-46.986
37.587,20.795,-31.045,56.427,-39.635,-47.027
37.619,20.77,-31.012,56.475,-39.668,-47.066
37.651,20.744,-30.977,56.523,-39.701,-47.106
37.683,20.72,-30.943,56.572,-39.734,-47.145
37.715,20.694,-30.91,56.619,-39.768,-47.184
37.747,20.669,-30.876,56.668,-39.801,-47.224
37.779,20.644,-30.842,56.717,-39.833,-47.264
37.811,20.619,-30.808,56.765,-39.867,-47.305
37.843,20.594,-30.775,56.814,-39.9,-47.345
37.875,20.569,-30.742,56.863,-39.934,-47.385
37.907,20.544,-30.708,56.911,-39.966,-47.425
37.939,20.518,-30.674,56.959,-40,-47.465
37.971,20.493,-30.641,57.008,-40.034,-47.504
38.003,20.468,-30.607,57.056,-40.067,-47.544
38.035,20.443,-30.573,57.105,-40.1,-47.585
38.067,20.418,-30.539,57.153,-40.133,-47.625
38.099,20.392,-30.506,57.202,-40.166,-47.666
38.131,20.367,-30.472,57.251,-40.199,-47.707
38.163,20.342,-30.438,57.299,-40.232,-47.747
38.195,20.317,-30.405,57.347,-40.266,-47.788
38.227,20.292,-30.372,57.396,-40.301,-47.828
38.259,20.267,-30.338,57.444,-40.334,-47.869
38.291,20.241,-30.304,57.493,-40.368,-47.908
38.323,20.216,-30.27,57.541,-40.402,-47.949
38.355,20.191,-30.237,57.59,-40.436,-47.99
38.387,20.166,-30.204,57.639,-40.469,-48.031
38.419,20.141,-30.17,57.687,-40.502,-48.072
38.451,20.115,-30.136,57.735,-40.536,-48.113
38.483,20.09,-30.103,57.784,-40.57,-48.154
38.515,20.065,-30.07,57.832,-40.604,-48.195
38.547,20.04,-30.036,57.881,-40.638,-48.235
38.579,20.015,-30.003,57.93,-40.673,-48.275
38.611,19.989,-29.97,57.979,-40.707,-48.316
38.643,19.964,-29.936,58.027,-40.741,-48.357
38.675,19.939,-29.902,58.075,-40.775,-48.397
38.707,19.914,-29.868,58.123,-40.81,-48.438
38.739,19.889,-29.835,58.172,-40.844,-48.479
38.772,19.864,-29.801,58.219,-40.878,-48.519
38.804,19.838,-29.767,58.269,-40.912,-48.559
38.835,19.813,-29.733,58.316,-40.947,-48.599
38.868,19.788,-29.699,58.365,-40.982,-48.639
38.9,19.763,-29.665,58.413,-41.016,-48.679
38.932,19.738,-29.631,58.46,-41.051,-48.718
38.963,19.713,-29.597,58.508,-41.086,-48.759
38.996,19.687,-29.563,58.556,-41.121,-48.798
39.028,19.662,-29.528,58.604,-41.155,-48.838
39.06,19.637,-29.494,58.653,-41.19,-48.878
39.091,19.612,-29.461,58.701,-41.224,-48.917
39.124,19.587,-29.427,58.748,-41.258,-48.956
39.156,19.562,-29.392,58.796,-41.292,-48.995
39.187,19.537,-29.359,58.844,-41.327,-49.034
39.219,19.512,-29.325,58.891,-41.362,-49.073
39.251,19.486,-29.291,58.939,-41.397,-49.112
39.284,19.461,-29.257,58.986,-41.431,-49.152
39.315,19.436,-29.223,59.034,-41.466,-49.19
39.347,19.411,-29.189,59.082,-41.501,-49.229
39.379,19.386,-29.154,59.129,-41.535,-49.269
39.412,19.361,-29.12,59.177,-41.569,-49.308
39.443,19.336,-29.086,59.224,-41.604,-49.347
39.475,19.311,-29.052,59.271,-41.638,-49.387
39.507,19.286,-29.018,59.318,-41.672,-49.426
39.539,19.261,-28.984,59.365,-41.706,-49.465
39.571,19.236,-28.95,59.412,-41.741,-49.505
39.603,19.211,-28.916,59.46,-41.775,-49.545
39.635,19.186,-28.882,59.506,-41.809,-49.584
39.667,19.161,-28.847,59.554,-41.844,-49.623
39.699,19.136,-28.813,59.601,-41.878,-49.664
39.731,19.111,-28.779,59.648,-41.912,-49.703
39.763,19.086,-28.745,59.695,-41.946,-49.743
39.795,19.061,-28.711,59.742,-41.98,-49.783
39.827,19.036,-28.677,59.789,-42.014,-49.823
39.859,19.011,-28.644,59.837,-42.047,-49.863
39.891,18.986,-28.61,59.884,-42.081,-49.903
39.923,18.961,-28.576,59.932,-42.116,-49.944
39.955,18.936,-28.542,59.979,-42.15,-49.983
39.987,18.911,-28.509,60.026,-42.184,-50.023
40.019,18.886,-28.474,60.073,-42.218,-50.064
40.051,18.861,-28.44,60.121,-42.252,-50.105
40.083,18.836,-28.407,60.168,-42.286,-50.145
40.115,18.811,-28.373,60.216,-42.32,-50.185
40.147,18.785,-28.338,60.263,-42.354,-50.226
40.179,18.76,-28.304,60.31,-42.388,-50.266
40.211,18.735,-28.271,60.357,-42.422,-50.307
40.243,18.71,-28.237,60.404,-42.456,-50.347
40.275,18.685,-28.202,60.452,-42.49,-50.387
40.308,18.66,-28.169,60.499,-42.525,-50.427
40.34,18.635,-28.135,60.546,-42.559,-50.468
40.372,18.61,-28.101,60.594,-42.593,-50.508
40.404,18.585,-28.066,60.641,-42.628,-50.548
40.436,18.56,-28.033,60.688,-42.663,-50.589
40.468,18.534,-27.999,60.736,-42.697,-50.629
40.501,18.509,-27.965,60.784,-42.731,-50.668
40.532,18.484,-27.931,60.831,-42.765,-50.709
40.565,18.459,-27.897,60.879,-42.8,-50.749
40.597,18.434,-27.864,60.926,-42.834,-50.788
40.629,18.409,-27.83,60.974,-42.868,-50.828
40.661,18.384,-27.796,61.022,-42.903,-50.869
40.693,18.359,-27.763,61.069,-42.938,-50.908
40.726,18.334,-27.73,61.117,-42.972,-50.948
40.758,18.308,-27.695,61.165,-43.007,-50.988
40.79,18.283,-27.661,61.213,-43.042,-51.027
40.822,18.258,-27.628,61.261,-43.076,-51.067
40.854,18.233,-27.594,61.309,-43.11,-51.107
40.886,18.208,-27.56,61.356,-43.145,-51.146
40.918,18.183,-27.526,61.405,-43.18,-51.185
40.951,18.158,-27.493,61.452,-43.214,-51.225
40.983,18.132,-27.459,61.5,-43.248,-51.265
41.015,18.107,-27.425,61.549,-43.283,-51.304
41.047,18.082,-27.392,61.596,-43.317,-51.344
41.079,18.057,-27.358,61.645,-43.351,-51.384
41.111,18.032,-27.325,61.693,-43.385,-51.423
41.143,18.007,-27.29,61.741,-43.42,-51.462
41.175,17.982,-27.257,61.79,-43.454,-51.503
41.208,17.957,-27.224,61.838,-43.488,-51.542
41.24,17.932,-27.19,61.886,-43.522,-51.581
41.272,17.906,-27.156,61.935,-43.556,-51.622
41.304,17.881,-27.124,61.983,-43.59,-51.661
41.336,17.856,-27.091,62.032,-43.624,-51.701
41.368,17.831,-27.057,62.081,-43.658,-51.742
41.4,17.806,-27.023,62.129,-43.692,-51.782
41.432,17.78,-26.99,62.178,-43.726,-51.822
41.464,17.755,-26.957,62.227,-43.759,-51.862
41.496,17.73,-26.923,62.275,-43.793,-51.902
41.528,17.705,-26.889,62.324,-43.827,-51.942
41.56,17.68,-26.856,62.372,-43.861,-51.982
41.592,17.655,-26.823,62.421,-43.894,-52.023
41.625,17.629,-26.789,62.469,-43.928,-52.064
41.656,17.604,-26.755,62.517,-43.961,-52.104
41.688,17.579,-26.722,62.566,-43.994,-52.146
41.721,17.554,-26.689,62.615,-44.027,-52.187
41.753,17.529,-26.655,62.663,-44.061,-52.227
41.785,17.504,-26.621,62.712,-44.095,-52.268
41.816,17.478,-26.588,62.76,-44.128,-52.309
41.849,17.453,-26.554,62.808,-44.16,-52.349
41.88,17.428,-26.52,62.857,-44.194,-52.391
41.913,17.403,-26.486,62.905,-44.227,-52.432
41.945,17.378,-26.453,62.953,-44.26,-52.472
41.977,17.353,-26.419,63.003,-44.293,-52.513
42.009,17.328,-26.385,63.051,-44.326,-52.555
42.041,17.303,-26.352,63.1,-44.36,-52.595
42.073,17.278,-26.319,63.148,-44.392,-52.635
42.104,17.252,-26.285,63.197,-44.425,-52.676
42.136,17.227,-26.25,63.246,-44.458,-52.716
42.169,17.202,-26.216,63.294,-44.492,-52.756
